;FLAVOR:Marlin
;TIME:6193
;Filament used: 2.89808m
;Layer height: 0.15
;MINX:55.777
;MINY:72.997
;MINZ:0.1
;MAXX:155.9
;MAXY:137.238
;MAXZ:13.85
;Generated with Cura_SteamEngine 4.4.0
M140 S62
M105
M190 S62
M82 ;absolute extrusion mode
;Gcode by Cura
G90
M106 S255
G28
M104 S200
M107
G1 X100 Y20 F3000
G1 Z0.5
M109 S200
M82
G92 E0
G1 F200 E10
G92 E0
G1 Z3
G1 F6000
G92 E0
G92 E0
G1 F1500 E-2.5
;LAYER_COUNT:86
;LAYER:0
M106 S204
M205 X30 Y30
G1 F180 Z1.1
G0 F7200 X66.4 Y77.613 Z1.1
M205 X15 Y15
;TYPE:SKIRT
G1 F180 Z0.1
G1 F1500 E0
G1 F2400 X66.579 Y77.476 E0.00375
G1 X67.004 Y77.2 E0.01218
G1 X67.175 Y77.105 E0.01543
G1 X67.789 Y76.819 E0.02669
G1 X67.969 Y76.75 E0.0299
G1 X68.634 Y76.546 E0.04147
G1 X68.819 Y76.502 E0.04463
G1 X69.307 Y76.422 E0.05285
G1 X69.464 Y76.406 E0.05548
G1 X69.99 Y76.38 E0.06424
G1 X70.062 Y76.378 E0.06543
G1 X74.5 Y76.389 E0.13924
G1 X82.733 Y76.389 E0.27615
G1 X82.73 Y76.378 E0.27634
G1 X82.724 Y76.044 E0.2819
G1 X82.848 Y75.597 E0.28961
G1 X83.686 Y73.802 E0.32256
G1 X83.863 Y73.518 E0.32812
G1 X84.101 Y73.284 E0.33367
G1 X84.389 Y73.114 E0.33923
G1 X84.708 Y73.016 E0.34478
G1 X85.042 Y72.997 E0.35035
G1 X85.433 Y73.078 E0.35699
G1 X87.028 Y73.658 E0.38521
G1 X87.302 Y73.793 E0.39029
G1 X88.826 Y74.764 E0.42034
G1 X89.085 Y74.976 E0.42591
G1 X89.285 Y75.243 E0.43146
G1 X89.417 Y75.55 E0.43701
G1 X89.472 Y75.88 E0.44258
G1 X89.448 Y76.213 E0.44813
G1 X89.38 Y76.389 E0.45127
G1 X111.342 Y76.39 E0.8165
G1 X149.818 Y76.378 E1.45636
G1 X149.982 Y76.388 E1.45909
G1 X151.313 Y76.545 E1.48138
G1 X151.6 Y76.609 E1.48627
G1 X152.262 Y76.834 E1.49789
G1 X152.505 Y76.944 E1.50233
G1 X153.308 Y77.402 E1.5177
G1 X153.525 Y77.555 E1.52212
G1 X154.077 Y78.028 E1.53421
G1 X154.269 Y78.229 E1.53883
G1 X154.989 Y79.151 E1.55828
G1 X155.153 Y79.417 E1.56348
G1 X155.456 Y80.061 E1.57532
G1 X155.548 Y80.32 E1.57989
G1 X155.829 Y81.452 E1.59928
G1 X155.868 Y81.714 E1.60369
G1 X155.898 Y82.273 E1.613
G1 X155.9 Y82.348 E1.61425
G1 X155.9 Y131.456 E2.43092
G1 X155.896 Y131.565 E2.43273
G1 X155.837 Y132.322 E2.44536
G1 X155.806 Y132.524 E2.44876
G1 X155.651 Y133.205 E2.46037
G1 X155.567 Y133.459 E2.46482
G1 X155.184 Y134.328 E2.48061
G1 X155.053 Y134.561 E2.48506
G1 X154.65 Y135.142 E2.49682
G1 X154.525 Y135.298 E2.50014
G1 X154.054 Y135.804 E2.51164
G1 X153.914 Y135.935 E2.51483
G1 X153.519 Y136.257 E2.5233
G1 X153.394 Y136.348 E2.52587
G1 X152.998 Y136.604 E2.53371
G1 X152.828 Y136.697 E2.53694
G1 X152.211 Y136.984 E2.54825
G1 X152.024 Y137.056 E2.55158
G1 X151.615 Y137.179 E2.55869
G1 X151.212 Y137.238 E2.56546
G1 X68.754 Y137.238 E3.93674
G1 X68.422 Y137.198 E3.9423
G1 X68.249 Y137.144 E3.94532
G1 X67.492 Y136.851 E3.95882
G1 X67.286 Y136.751 E3.96262
G1 X66.66 Y136.382 E3.97471
G1 X66.438 Y136.22 E3.97928
G1 X65.731 Y135.588 E3.99505
G1 X65.548 Y135.39 E3.99953
G1 X65.119 Y134.824 E4.01134
G1 X65.01 Y134.656 E4.01467
G1 X64.675 Y134.051 E4.02618
G1 X64.594 Y133.878 E4.02935
G1 X64.409 Y133.4 E4.03788
G1 X64.345 Y133.182 E4.04165
G1 X64.159 Y132.295 E4.05673
G1 X64.13 Y132.069 E4.06052
G1 X64.101 Y131.408 E4.07152
G1 X64.1 Y131.347 E4.07253
G1 X64.1 Y116.691 E4.31626
G1 X64.089 Y116.694 E4.31645
G1 X63.717 Y116.695 E4.32264
G1 X63.52 Y116.669 E4.32594
G1 X63.167 Y116.574 E4.33202
G1 X62.706 Y116.383 E4.34032
G1 X62.316 Y116.286 E4.347
G1 X61.951 Y116.138 E4.35355
G1 X61.502 Y115.877 E4.36219
G1 X61.063 Y115.699 E4.37007
G1 X60.74 Y115.515 E4.37625
G1 X60.336 Y115.207 E4.3847
G1 X59.96 Y114.993 E4.39189
G1 X59.662 Y114.767 E4.39811
G1 X59.349 Y114.455 E4.40546
G1 X58.904 Y114.115 E4.41478
G1 X58.639 Y113.849 E4.42102
G1 X58.354 Y113.474 E4.42885
G1 X58.009 Y113.132 E4.43693
G1 X57.779 Y112.833 E4.44321
G1 X57.541 Y112.417 E4.45118
G1 X57.236 Y112.023 E4.45946
G1 X57.049 Y111.698 E4.4657
G1 X56.853 Y111.221 E4.47427
G1 X56.647 Y110.872 E4.48101
G1 X56.507 Y110.544 E4.48694
G1 X56.352 Y110.001 E4.49633
G1 X56.162 Y109.531 E4.50477
G1 X56.071 Y109.182 E4.51076
G1 X56.014 Y108.731 E4.51832
G1 X55.893 Y108.277 E4.52614
G1 X55.846 Y107.921 E4.53211
G1 X55.844 Y107.442 E4.54007
G1 X55.779 Y106.961 E4.54815
G1 X55.777 Y106.597 E4.5542
G1 X55.841 Y106.089 E4.56271
G1 X55.841 Y105.609 E4.5707
G1 X55.889 Y105.244 E4.57682
G1 X56.03 Y104.723 E4.5858
G1 X56.087 Y104.281 E4.59321
G1 X56.181 Y103.926 E4.59931
G1 X56.366 Y103.479 E4.60736
G1 X56.485 Y103.01 E4.61541
G1 X56.639 Y102.638 E4.6221
G1 X56.88 Y102.234 E4.62992
G1 X57.022 Y101.88 E4.63627
G1 X57.186 Y101.583 E4.64191
G1 X57.509 Y101.135 E4.65109
G1 X57.789 Y100.656 E4.66032
G1 X58.016 Y100.365 E4.66646
G1 X58.339 Y100.047 E4.674
G1 X58.649 Y99.64 E4.6825
G1 X58.919 Y99.371 E4.68884
G1 X59.265 Y99.11 E4.69605
G1 X59.544 Y98.829 E4.70264
G1 X59.798 Y98.627 E4.70803
G1 X60.346 Y98.286 E4.71877
G1 X60.735 Y97.989 E4.72691
G1 X61.032 Y97.815 E4.73263
G1 X61.47 Y97.627 E4.74056
G1 X61.901 Y97.376 E4.74885
G1 X62.256 Y97.23 E4.75523
G1 X62.735 Y97.107 E4.76346
G1 X63.184 Y96.922 E4.77153
G1 X63.52 Y96.831 E4.77732
G1 X63.703 Y96.805 E4.7804
G1 X64.037 Y96.798 E4.78595
G1 X64.1 Y96.812 E4.78703
G1 X64.1 Y82.364 E5.0273
G1 X64.106 Y82.231 E5.02951
G1 X64.202 Y81.222 E5.04637
G1 X64.245 Y80.989 E5.05031
G1 X64.376 Y80.505 E5.05865
G1 X64.448 Y80.301 E5.06224
G1 X64.816 Y79.476 E5.07727
G1 X64.96 Y79.227 E5.08205
G1 X65.514 Y78.459 E5.0978
G1 X65.708 Y78.241 E5.10265
G1 X66.4 Y77.613 E5.11819
M205 X30 Y30
G0 F7200 X66.669 Y77.909
M205 X15 Y15
G1 F2400 X66.796 Y77.811 E5.12086
G1 X67.221 Y77.535 E5.12929
G1 X67.344 Y77.468 E5.13162
G1 X67.958 Y77.182 E5.14288
G1 X68.087 Y77.132 E5.14518
G1 X68.752 Y76.928 E5.15675
G1 X68.883 Y76.897 E5.15899
G1 X69.371 Y76.817 E5.16721
G1 X69.484 Y76.805 E5.1691
G1 X70.01 Y76.779 E5.17786
G1 X70.061 Y76.778 E5.17871
G1 X74.499 Y76.789 E5.25251
G1 X83.326 Y76.789 E5.3993
G1 X83.212 Y76.614 E5.40278
G1 X83.129 Y76.344 E5.40748
G1 X83.125 Y76.062 E5.41217
G1 X83.211 Y75.766 E5.41729
G1 X84.049 Y73.971 E5.45024
G1 X84.203 Y73.735 E5.45492
G1 X84.417 Y73.551 E5.45962
G1 X84.674 Y73.434 E5.46431
G1 X84.953 Y73.394 E5.469
G1 X85.297 Y73.454 E5.47481
G1 X86.892 Y74.034 E5.50303
G1 X87.087 Y74.131 E5.50665
G1 X88.611 Y75.102 E5.5367
G1 X88.826 Y75.285 E5.5414
G1 X88.98 Y75.521 E5.54608
G1 X89.062 Y75.791 E5.55078
G1 X89.066 Y76.073 E5.55547
G1 X88.927 Y76.466 E5.5624
G1 X88.778 Y76.71 E5.56715
G1 X88.713 Y76.789 E5.56886
G1 X111.342 Y76.79 E5.94518
G1 X149.818 Y76.778 E6.58504
G1 X149.935 Y76.785 E6.58699
G1 X151.266 Y76.942 E6.60927
G1 X151.471 Y76.988 E6.61277
G1 X152.133 Y77.213 E6.62439
G1 X152.306 Y77.291 E6.62755
G1 X153.109 Y77.749 E6.64292
G1 X153.265 Y77.859 E6.6461
G1 X153.817 Y78.332 E6.65819
G1 X153.954 Y78.476 E6.66149
G1 X154.674 Y79.398 E6.68095
G1 X154.791 Y79.587 E6.68464
G1 X155.094 Y80.231 E6.69648
G1 X155.16 Y80.416 E6.69975
G1 X155.441 Y81.548 E6.71914
G1 X155.469 Y81.735 E6.72229
G1 X155.499 Y82.294 E6.7316
G1 X155.5 Y82.348 E6.73249
G1 X155.5 Y131.456 E7.54916
G1 X155.497 Y131.534 E7.55046
G1 X155.438 Y132.291 E7.56309
G1 X155.416 Y132.435 E7.56551
G1 X155.261 Y133.116 E7.57713
G1 X155.201 Y133.297 E7.5803
G1 X154.818 Y134.166 E7.59609
G1 X154.725 Y134.333 E7.59927
G1 X154.322 Y134.914 E7.61103
G1 X154.232 Y135.025 E7.6134
G1 X153.761 Y135.531 E7.6249
G1 X153.661 Y135.625 E7.62718
G1 X153.266 Y135.947 E7.63566
G1 X153.177 Y136.012 E7.63749
G1 X152.781 Y136.268 E7.64533
G1 X152.66 Y136.335 E7.64763
G1 X152.043 Y136.622 E7.65895
G1 X151.909 Y136.673 E7.66133
G1 X151.5 Y136.796 E7.66844
G1 X151.212 Y136.838 E7.67328
G1 X68.754 Y136.838 E9.04456
G1 X68.393 Y136.771 E9.05066
G1 X67.636 Y136.478 E9.06416
G1 X67.489 Y136.406 E9.06689
G1 X66.863 Y136.037 E9.07897
G1 X66.705 Y135.922 E9.08222
G1 X65.998 Y135.29 E9.09799
G1 X65.867 Y135.148 E9.1012
G1 X65.438 Y134.582 E9.11301
G1 X65.36 Y134.462 E9.11539
G1 X65.025 Y133.857 E9.12689
G1 X64.967 Y133.734 E9.12916
G1 X64.782 Y133.256 E9.13768
G1 X64.736 Y133.1 E9.14038
G1 X64.55 Y132.213 E9.15546
G1 X64.53 Y132.052 E9.15815
G1 X64.501 Y131.391 E9.16916
G1 X64.5 Y131.347 E9.16989
G1 X64.5 Y116.098 E9.42348
G1 X64.325 Y116.212 E9.42695
G1 X64.055 Y116.295 E9.43165
G1 X63.769 Y116.298 E9.43641
G1 X63.572 Y116.272 E9.43971
G1 X63.32 Y116.205 E9.44405
G1 X62.823 Y115.999 E9.453
G1 X62.413 Y115.897 E9.46002
G1 X62.152 Y115.792 E9.4647
G1 X61.682 Y115.519 E9.47374
G1 X61.214 Y115.329 E9.48214
G1 X60.983 Y115.197 E9.48656
G1 X60.564 Y114.877 E9.49533
G1 X60.157 Y114.646 E9.50311
G1 X59.945 Y114.484 E9.50755
G1 X59.613 Y114.153 E9.51535
G1 X59.147 Y113.797 E9.5251
G1 X58.958 Y113.607 E9.52956
G1 X58.66 Y113.214 E9.53776
G1 X58.29 Y112.848 E9.54641
G1 X58.126 Y112.634 E9.5509
G1 X57.872 Y112.191 E9.55939
G1 X57.553 Y111.778 E9.56807
G1 X57.419 Y111.547 E9.57251
G1 X57.214 Y111.048 E9.58148
G1 X56.991 Y110.669 E9.58879
G1 X56.891 Y110.435 E9.59303
G1 X56.73 Y109.869 E9.60281
G1 X56.533 Y109.381 E9.61156
G1 X56.468 Y109.132 E9.61584
G1 X56.407 Y108.651 E9.62391
G1 X56.28 Y108.174 E9.63212
G1 X56.246 Y107.92 E9.63638
G1 X56.244 Y107.416 E9.64476
G1 X56.175 Y106.907 E9.6533
G1 X56.174 Y106.647 E9.65762
G1 X56.241 Y106.115 E9.66654
G1 X56.241 Y105.609 E9.67496
G1 X56.276 Y105.348 E9.67934
G1 X56.421 Y104.811 E9.68859
G1 X56.483 Y104.333 E9.6966
G1 X56.551 Y104.079 E9.70097
G1 X56.747 Y103.605 E9.7095
G1 X56.873 Y103.109 E9.71802
G1 X56.983 Y102.843 E9.7228
G1 X57.238 Y102.416 E9.73107
G1 X57.393 Y102.029 E9.73801
G1 X57.51 Y101.817 E9.74203
G1 X57.85 Y101.345 E9.75171
G1 X58.135 Y100.858 E9.76109
G1 X58.296 Y100.65 E9.76546
G1 X58.644 Y100.307 E9.77359
G1 X58.968 Y99.882 E9.78248
G1 X59.16 Y99.69 E9.78699
G1 X59.531 Y99.41 E9.79472
G1 X59.828 Y99.111 E9.80173
G1 X60.009 Y98.967 E9.80558
G1 X60.567 Y98.62 E9.81651
G1 X60.978 Y98.306 E9.82511
G1 X61.19 Y98.182 E9.82919
G1 X61.648 Y97.985 E9.83748
G1 X62.102 Y97.721 E9.84622
G1 X62.356 Y97.618 E9.85077
G1 X62.858 Y97.489 E9.85939
G1 X63.336 Y97.292 E9.86799
G1 X63.576 Y97.227 E9.87213
G1 X63.759 Y97.201 E9.8752
G1 X64.041 Y97.201 E9.87989
G1 X64.312 Y97.28 E9.88458
G1 X64.5 Y97.399 E9.88828
G1 X64.5 Y82.364 E10.13832
G1 X64.504 Y82.269 E10.1399
G1 X64.6 Y81.26 E10.15675
G1 X64.631 Y81.094 E10.15956
G1 X64.762 Y80.61 E10.1679
G1 X64.814 Y80.464 E10.17048
G1 X65.182 Y79.639 E10.1855
G1 X65.284 Y79.461 E10.18891
G1 X65.838 Y78.693 E10.20466
G1 X65.977 Y78.537 E10.20814
G1 X66.669 Y77.909 E10.22368
M205 X30 Y30
G0 F7200 X66.938 Y78.206
M205 X15 Y15
G1 F2400 X67.014 Y78.147 E10.22528
G1 X67.439 Y77.871 E10.2337
G1 X67.513 Y77.83 E10.23511
G1 X68.127 Y77.544 E10.24638
G1 X68.204 Y77.514 E10.24775
G1 X68.869 Y77.31 E10.25932
G1 X68.948 Y77.292 E10.26066
G1 X69.436 Y77.212 E10.26889
G1 X69.503 Y77.205 E10.27001
G1 X70.029 Y77.179 E10.27877
G1 X70.06 Y77.178 E10.27928
G1 X74.498 Y77.189 E10.35309
G1 X111.342 Y77.19 E10.96581
G1 X149.818 Y77.178 E11.60566
G1 X149.888 Y77.182 E11.60683
G1 X151.219 Y77.339 E11.62912
G1 X151.342 Y77.367 E11.63122
G1 X152.004 Y77.592 E11.64284
G1 X152.108 Y77.639 E11.64474
G1 X152.911 Y78.097 E11.66011
G1 X153.004 Y78.162 E11.662
G1 X153.556 Y78.635 E11.67409
G1 X153.639 Y78.722 E11.67609
G1 X154.359 Y79.644 E11.69554
G1 X154.429 Y79.758 E11.69777
G1 X154.732 Y80.402 E11.7096
G1 X154.771 Y80.512 E11.71155
G1 X155.052 Y81.644 E11.73094
G1 X155.069 Y81.757 E11.73284
G1 X155.099 Y82.316 E11.74215
G1 X155.1 Y82.348 E11.74268
G1 X155.1 Y131.456 E12.55935
G1 X155.098 Y131.503 E12.56014
G1 X155.039 Y132.26 E12.57276
G1 X155.026 Y132.346 E12.57421
G1 X154.871 Y133.027 E12.58582
G1 X154.835 Y133.136 E12.58773
G1 X154.452 Y134.005 E12.60353
G1 X154.396 Y134.105 E12.60543
G1 X153.993 Y134.686 E12.61719
G1 X153.939 Y134.753 E12.61862
G1 X153.468 Y135.259 E12.63012
G1 X153.408 Y135.315 E12.63148
G1 X153.013 Y135.637 E12.63996
G1 X152.96 Y135.676 E12.64105
G1 X152.564 Y135.932 E12.64889
G1 X152.491 Y135.972 E12.65028
G1 X151.874 Y136.259 E12.6616
G1 X151.794 Y136.29 E12.66302
G1 X151.385 Y136.413 E12.67012
G1 X151.212 Y136.438 E12.67303
G1 X68.754 Y136.438 E14.04431
G1 X68.537 Y136.398 E14.04798
G1 X67.78 Y136.105 E14.06148
G1 X67.692 Y136.062 E14.06311
G1 X67.066 Y135.693 E14.0752
G1 X66.971 Y135.623 E14.07716
G1 X66.264 Y134.991 E14.09293
G1 X66.186 Y134.906 E14.09485
G1 X65.757 Y134.34 E14.10666
G1 X65.71 Y134.269 E14.10807
G1 X65.375 Y133.664 E14.11957
G1 X65.34 Y133.59 E14.12094
G1 X65.155 Y133.112 E14.12946
G1 X65.128 Y133.018 E14.13109
G1 X64.942 Y132.131 E14.14616
G1 X64.93 Y132.034 E14.14778
G1 X64.901 Y131.373 E14.15879
G1 X64.9 Y131.347 E14.15922
G1 X64.9 Y82.364 E14.97381
G1 X64.903 Y82.307 E14.97476
G1 X64.999 Y81.298 E14.99161
G1 X65.017 Y81.198 E14.9933
G1 X65.148 Y80.714 E15.00164
G1 X65.179 Y80.627 E15.00318
G1 X65.547 Y79.802 E15.0182
G1 X65.608 Y79.695 E15.02025
G1 X66.162 Y78.927 E15.036
G1 X66.246 Y78.834 E15.03808
G1 X66.938 Y78.206 E15.05362
M205 X30 Y30
G0 F7200 X67.207 Y78.502
M205 X15 Y15
G1 F2400 X67.232 Y78.482 E15.05415
G1 X67.657 Y78.206 E15.06258
G1 X67.682 Y78.193 E15.06305
G1 X68.296 Y77.907 E15.07431
G1 X68.321 Y77.897 E15.07476
G1 X68.986 Y77.693 E15.08633
G1 X69.013 Y77.687 E15.08679
G1 X69.501 Y77.607 E15.09501
G1 X69.523 Y77.604 E15.09538
G1 X70.049 Y77.578 E15.10414
G1 X70.059 Y77.578 E15.10431
G1 X74.497 Y77.589 E15.17811
G1 X111.342 Y77.59 E15.79085
G1 X149.818 Y77.578 E16.43071
G1 X149.841 Y77.579 E16.43109
G1 X151.172 Y77.736 E16.45338
G1 X151.213 Y77.746 E16.45408
G1 X151.875 Y77.971 E16.46571
G1 X151.91 Y77.986 E16.46634
G1 X152.713 Y78.444 E16.48171
G1 X152.744 Y78.466 E16.48234
G1 X153.296 Y78.939 E16.49443
G1 X153.324 Y78.968 E16.4951
G1 X154.044 Y79.89 E16.51456
G1 X154.067 Y79.928 E16.5153
G1 X154.37 Y80.572 E16.52713
G1 X154.383 Y80.609 E16.52778
G1 X154.664 Y81.741 E16.54718
G1 X154.67 Y81.778 E16.5478
G1 X154.7 Y82.337 E16.55711
G1 X154.7 Y131.456 E17.37397
G1 X154.699 Y131.472 E17.37423
G1 X154.64 Y132.229 E17.38686
G1 X154.636 Y132.257 E17.38733
G1 X154.481 Y132.938 E17.39895
G1 X154.469 Y132.975 E17.39959
G1 X154.086 Y133.844 E17.41539
G1 X154.067 Y133.877 E17.41602
G1 X153.664 Y134.458 E17.42778
G1 X153.646 Y134.48 E17.42825
G1 X153.175 Y134.986 E17.43975
G1 X153.155 Y135.005 E17.4402
G1 X152.76 Y135.327 E17.44868
G1 X152.743 Y135.34 E17.44904
G1 X152.347 Y135.596 E17.45688
G1 X152.322 Y135.609 E17.45735
G1 X151.705 Y135.896 E17.46866
G1 X151.679 Y135.907 E17.46913
G1 X151.27 Y136.03 E17.47623
G1 X151.212 Y136.038 E17.47721
G1 X68.754 Y136.038 E18.84849
G1 X68.682 Y136.025 E18.84971
G1 X67.925 Y135.732 E18.86321
G1 X67.895 Y135.717 E18.86376
G1 X67.269 Y135.348 E18.87585
G1 X67.238 Y135.325 E18.87649
G1 X66.531 Y134.693 E18.89226
G1 X66.505 Y134.665 E18.8929
G1 X66.076 Y134.099 E18.90471
G1 X66.06 Y134.075 E18.90519
G1 X65.725 Y133.47 E18.91669
G1 X65.713 Y133.445 E18.91715
G1 X65.528 Y132.967 E18.92567
G1 X65.519 Y132.936 E18.92621
G1 X65.333 Y132.049 E18.94128
G1 X65.329 Y132.017 E18.94182
G1 X65.3 Y131.356 E18.95282
G1 X65.3 Y82.364 E19.76756
G1 X65.301 Y82.345 E19.76788
G1 X65.397 Y81.336 E19.78473
G1 X65.403 Y81.303 E19.78529
G1 X65.534 Y80.819 E19.79363
G1 X65.544 Y80.79 E19.79414
G1 X65.912 Y79.965 E19.80916
G1 X65.933 Y79.929 E19.80985
G1 X66.487 Y79.161 E19.8256
G1 X66.515 Y79.13 E19.8263
G1 X67.207 Y78.502 E19.84184
M205 X30 Y30
G1 F1500 E17.34184
G1 F180 Z1.1
G0 F7200 X68.584 Y83.746 Z1.1
M205 X15 Y15
G1 F180 Z0.1
G1 F1500 E19.84184
G1 F2400 X68.793 Y83.683 E19.84547
G1 X69.065 Y83.717 E19.85003
G1 X69.868 Y84.013 E19.86426
G1 X70.055 Y84.124 E19.86788
G1 X70.19 Y84.296 E19.87151
G1 X70.247 Y84.452 E19.87427
G1 X70.645 Y86.334 E19.90626
G1 X70.651 Y86.552 E19.90989
G1 X70.578 Y86.758 E19.91352
G1 X70.436 Y86.924 E19.91716
G1 X70.318 Y86.999 E19.91948
G1 X69.828 Y87.234 E19.92852
G1 X69.8 Y87.278 E19.92939
G1 X69.8 Y125.338 E20.56233
G1 X70.777 Y125.434 E20.57865
G1 X70.986 Y125.494 E20.58227
G1 X71.16 Y125.626 E20.5859
G1 X71.276 Y125.811 E20.58953
G1 X71.318 Y126.031 E20.59326
G1 X71.318 Y128.06 E20.627
G1 X71.23 Y128.373 E20.63241
G1 X71.009 Y128.735 E20.63946
G1 X71.009 Y129.872 E20.65837
G1 X70.969 Y130.087 E20.66201
G1 X70.856 Y130.273 E20.66563
G1 X70.683 Y130.406 E20.66925
G1 X70.474 Y130.468 E20.67288
G1 X70.191 Y130.431 E20.67763
