;FLAVOR:Marlin
;TIME:3305
;Filament used: 1.525m
;Layer height: 0.15
;MINX:59.6
;MINY:73.653
;MINZ:0.1
;MAXX:151.399
;MAXY:135.898
;MAXZ:10.7
;Generated with Cura_SteamEngine 4.4.0
M140 S62
M105
M190 S62
M82 ;absolute extrusion mode
;Gcode by Cura
G90
M106 S255
G28
M104 S200
M107
G1 X100 Y20 F3000
G1 Z0.5
M109 S200
M82
G92 E0
G1 F200 E10
G92 E0
G1 Z3
G1 F6000
G92 E0
G92 E0
G1 F3000 E-3
;LAYER_COUNT:65
;LAYER:0
M106 S204
M205 X30 Y30
G1 F180 Z1.1
G0 F7200 X61.604 Y75.135 Z1.1
M205 X20 Y20
;TYPE:SKIRT
G1 F180 Z0.1
G1 F3000 E0
G1 F2400 X62.312 Y74.607 E0.01469
G1 X62.472 Y74.503 E0.01786
G1 X62.932 Y74.249 E0.0266
G1 X63.084 Y74.177 E0.0294
G1 X63.578 Y73.977 E0.03826
G1 X63.786 Y73.911 E0.04189
G1 X64.303 Y73.791 E0.05072
G1 X64.46 Y73.764 E0.05336
G1 X65.338 Y73.663 E0.06806
G1 X65.498 Y73.654 E0.07073
G1 X145.496 Y73.653 E1.4011
G1 X145.67 Y73.664 E1.404
G1 X146.66 Y73.788 E1.42059
G1 X146.789 Y73.81 E1.42277
G1 X147.028 Y73.863 E1.42684
G1 X147.224 Y73.922 E1.43024
G1 X147.876 Y74.171 E1.44185
G1 X148.064 Y74.259 E1.4453
G1 X148.822 Y74.686 E1.45977
G1 X149.05 Y74.846 E1.4644
G1 X149.582 Y75.305 E1.47609
G1 X149.753 Y75.482 E1.48018
G1 X150.204 Y76.037 E1.49207
G1 X150.25 Y76.097 E1.49333
G1 X150.463 Y76.39 E1.49935
G1 X150.557 Y76.537 E1.50225
G1 X150.804 Y76.985 E1.51076
G1 X150.876 Y77.136 E1.51354
G1 X151.074 Y77.626 E1.52233
G1 X151.145 Y77.858 E1.52637
G1 X151.295 Y78.559 E1.53829
G1 X151.318 Y78.706 E1.54076
G1 X151.391 Y79.4 E1.55237
G1 X151.399 Y79.546 E1.5548
G1 X151.399 Y128.797 E2.37385
G1 X151.392 Y128.942 E2.37626
G1 X151.295 Y129.876 E2.39188
G1 X151.256 Y130.088 E2.39546
G1 X151.164 Y130.437 E2.40147
G1 X151.098 Y130.628 E2.40483
G1 X150.905 Y131.081 E2.41301
G1 X150.815 Y131.326 E2.41735
G1 X150.701 Y131.564 E2.42174
G1 X150.348 Y132.152 E2.43315
G1 X150.206 Y132.347 E2.43716
G1 X149.741 Y132.884 E2.44897
G1 X149.604 Y133.022 E2.45221
G1 X149.073 Y133.486 E2.46393
G1 X148.858 Y133.641 E2.46834
G1 X148.097 Y134.085 E2.48299
G1 X147.901 Y134.18 E2.48662
G1 X147.357 Y134.393 E2.49633
G1 X147.136 Y134.459 E2.50017
G1 X146.43 Y134.608 E2.51217
G1 X146.273 Y134.632 E2.51481
G1 X145.638 Y134.692 E2.52542
G1 X145.506 Y134.698 E2.52761
G1 X101.736 Y134.698 E3.25551
G1 X101.695 Y134.876 E3.25855
G1 X101.544 Y135.174 E3.2641
G1 X101.312 Y135.441 E3.26999
G1 X101.199 Y135.542 E3.27251
G1 X100.925 Y135.733 E3.27806
G1 X100.614 Y135.854 E3.28361
G1 X100.266 Y135.898 E3.28944
G1 X88.932 Y135.898 E3.47793
G1 X88.6 Y135.858 E3.48349
G1 X88.288 Y135.741 E3.48903
G1 X87.999 Y135.542 E3.49487
G1 X87.886 Y135.441 E3.49739
G1 X87.665 Y135.19 E3.50295
G1 X87.51 Y134.894 E3.50851
G1 X87.463 Y134.698 E3.51186
G1 X65.772 Y134.698 E3.87258
G1 X65.726 Y134.697 E3.87335
G1 X64.996 Y134.673 E3.88549
G1 X64.783 Y134.65 E3.88905
G1 X64.247 Y134.549 E3.89813
G1 X64.197 Y134.539 E3.89897
G1 X63.967 Y134.487 E3.90289
G1 X63.777 Y134.429 E3.9062
G1 X63.127 Y134.181 E3.91777
G1 X62.937 Y134.092 E3.92126
G1 X62.174 Y133.661 E3.93583
G1 X61.948 Y133.502 E3.94043
G1 X61.42 Y133.046 E3.95203
G1 X61.249 Y132.869 E3.95612
G1 X60.796 Y132.312 E3.96806
G1 X60.75 Y132.253 E3.9693
G1 X60.539 Y131.963 E3.97527
G1 X60.445 Y131.814 E3.9782
G1 X60.195 Y131.36 E3.98682
G1 X60.123 Y131.21 E3.98958
G1 X59.925 Y130.721 E3.99836
G1 X59.854 Y130.487 E4.00242
G1 X59.704 Y129.782 E4.01441
G1 X59.691 Y129.713 E4.01558
G1 X59.636 Y129.371 E4.02134
G1 X59.618 Y129.15 E4.02503
G1 X59.6 Y79.94 E4.84339
G1 X59.6 Y79.92 E4.84372
G1 X59.607 Y79.412 E4.85217
G1 X59.619 Y79.245 E4.85496
G1 X59.736 Y78.373 E4.86959
G1 X59.799 Y78.107 E4.87414
G1 X60.1 Y77.224 E4.88965
G1 X60.226 Y76.954 E4.8946
G1 X60.675 Y76.208 E4.90908
G1 X60.743 Y76.105 E4.91114
G1 X60.962 Y75.805 E4.91731
G1 X61.069 Y75.675 E4.92011
G1 X61.417 Y75.302 E4.9286
G1 X61.604 Y75.135 E4.93277
M205 X30 Y30
G0 F7200 X61.843 Y75.455
M205 X20 Y20
G1 F2400 X62.551 Y74.927 E4.94745
G1 X62.666 Y74.854 E4.94972
G1 X63.126 Y74.6 E4.95846
G1 X63.234 Y74.548 E4.96045
G1 X63.728 Y74.348 E4.96931
G1 X63.877 Y74.301 E4.97191
G1 X64.394 Y74.181 E4.98074
G1 X64.506 Y74.162 E4.98263
G1 X65.384 Y74.061 E4.99733
G1 X65.498 Y74.054 E4.99923
G1 X145.496 Y74.053 E6.3296
G1 X145.62 Y74.061 E6.33166
G1 X146.61 Y74.185 E6.34826
G1 X146.702 Y74.201 E6.34981
G1 X146.941 Y74.254 E6.35388
G1 X147.082 Y74.296 E6.35633
G1 X147.734 Y74.545 E6.36793
G1 X147.868 Y74.608 E6.3704
G1 X148.626 Y75.035 E6.38486
G1 X148.788 Y75.149 E6.38816
G1 X149.32 Y75.608 E6.39984
G1 X149.443 Y75.734 E6.40277
G1 X149.894 Y76.289 E6.41466
G1 X149.927 Y76.332 E6.41557
G1 X150.14 Y76.625 E6.42159
G1 X150.207 Y76.73 E6.42366
G1 X150.454 Y77.178 E6.43217
G1 X150.505 Y77.286 E6.43416
G1 X150.703 Y77.776 E6.44294
G1 X150.754 Y77.942 E6.44583
G1 X150.904 Y78.643 E6.45775
G1 X150.921 Y78.747 E6.45951
G1 X150.994 Y79.441 E6.47111
G1 X150.999 Y79.546 E6.47286
G1 X150.999 Y128.797 E7.29191
G1 X150.994 Y128.9 E7.29362
G1 X150.897 Y129.834 E7.30924
G1 X150.869 Y129.986 E7.31181
G1 X150.777 Y130.335 E7.31781
G1 X150.73 Y130.472 E7.32022
G1 X150.534 Y130.933 E7.32855
G1 X150.44 Y131.188 E7.33307
G1 X150.358 Y131.358 E7.33621
G1 X150.005 Y131.946 E7.34761
G1 X149.904 Y132.086 E7.35048
G1 X149.439 Y132.623 E7.3623
G1 X149.341 Y132.721 E7.3646
G1 X148.81 Y133.185 E7.37633
G1 X148.656 Y133.296 E7.37949
G1 X147.895 Y133.74 E7.39414
G1 X147.756 Y133.807 E7.3967
G1 X147.212 Y134.02 E7.40642
G1 X147.053 Y134.067 E7.40918
G1 X146.347 Y134.216 E7.42118
G1 X146.235 Y134.234 E7.42306
G1 X145.6 Y134.294 E7.43367
G1 X145.506 Y134.298 E7.43523
G1 X101.396 Y134.298 E8.16879
G1 X101.373 Y134.506 E8.17227
G1 X101.303 Y134.78 E8.17697
G1 X101.159 Y135.023 E8.18167
G1 X101.045 Y135.143 E8.18442
G1 X100.932 Y135.244 E8.18694
G1 X100.698 Y135.4 E8.19162
G1 X100.429 Y135.485 E8.19631
G1 X100.266 Y135.498 E8.19903
G1 X88.932 Y135.498 E8.38751
G1 X88.653 Y135.458 E8.3922
G1 X88.396 Y135.342 E8.39689
G1 X88.266 Y135.244 E8.3996
G1 X88.153 Y135.143 E8.40212
G1 X87.971 Y134.927 E8.40681
G1 X87.857 Y134.669 E8.4115
G1 X87.825 Y134.506 E8.41427
G1 X87.802 Y134.298 E8.41775
G1 X65.772 Y134.298 E8.78411
G1 X65.739 Y134.297 E8.78466
G1 X65.009 Y134.273 E8.7968
G1 X64.857 Y134.257 E8.79935
G1 X64.321 Y134.156 E8.80842
G1 X64.285 Y134.148 E8.80903
G1 X64.055 Y134.096 E8.81295
G1 X63.92 Y134.055 E8.8153
G1 X63.27 Y133.807 E8.82687
G1 X63.134 Y133.744 E8.82936
G1 X62.371 Y133.313 E8.84393
G1 X62.209 Y133.199 E8.84723
G1 X61.681 Y132.743 E8.85883
G1 X61.559 Y132.617 E8.86175
G1 X61.106 Y132.06 E8.87368
G1 X61.073 Y132.017 E8.87459
G1 X60.862 Y131.727 E8.88055
G1 X60.795 Y131.621 E8.88264
G1 X60.545 Y131.167 E8.89125
G1 X60.494 Y131.06 E8.89323
G1 X60.296 Y130.571 E8.902
G1 X60.245 Y130.404 E8.9049
G1 X60.095 Y129.699 E8.91689
G1 X60.086 Y129.65 E8.91772
G1 X60.031 Y129.308 E8.92348
G1 X60.018 Y129.149 E8.92613
G1 X60 Y79.939 E9.7445
G1 X60 Y79.925 E9.74473
G1 X60.007 Y79.417 E9.75318
G1 X60.016 Y79.298 E9.75516
G1 X60.133 Y78.426 E9.7698
G1 X60.177 Y78.236 E9.77304
G1 X60.478 Y77.353 E9.78855
G1 X60.568 Y77.16 E9.79209
G1 X61.017 Y76.414 E9.80657
G1 X61.066 Y76.34 E9.80805
G1 X61.285 Y76.04 E9.81423
G1 X61.362 Y75.948 E9.81622
G1 X61.71 Y75.575 E9.82471
G1 X61.843 Y75.455 E9.82768
M205 X30 Y30
G0 F7200 X62.082 Y75.776
M205 X20 Y20
G1 F2400 X62.79 Y75.248 E9.84237
G1 X62.859 Y75.204 E9.84373
G1 X63.319 Y74.95 E9.85247
G1 X63.384 Y74.919 E9.85367
G1 X63.878 Y74.719 E9.86253
G1 X63.967 Y74.691 E9.86408
G1 X64.484 Y74.571 E9.87291
G1 X64.551 Y74.559 E9.87404
G1 X65.429 Y74.458 E9.88874
G1 X65.498 Y74.454 E9.88989
G1 X145.496 Y74.453 E11.22026
G1 X145.571 Y74.458 E11.22151
G1 X146.561 Y74.582 E11.2381
G1 X146.616 Y74.591 E11.23903
G1 X146.855 Y74.644 E11.2431
G1 X146.939 Y74.669 E11.24456
G1 X147.591 Y74.918 E11.25617
G1 X147.671 Y74.956 E11.25764
G1 X148.429 Y75.383 E11.27211
G1 X148.527 Y75.452 E11.2741
G1 X149.059 Y75.911 E11.28578
G1 X149.133 Y75.987 E11.28755
G1 X149.584 Y76.542 E11.29944
G1 X149.603 Y76.567 E11.29996
G1 X149.816 Y76.86 E11.30599
G1 X149.856 Y76.923 E11.30723
G1 X150.103 Y77.371 E11.31574
G1 X150.134 Y77.436 E11.31693
G1 X150.332 Y77.926 E11.32572
G1 X150.363 Y78.025 E11.32745
G1 X150.513 Y78.726 E11.33937
G1 X150.523 Y78.789 E11.34043
G1 X150.596 Y79.483 E11.35204
G1 X150.599 Y79.546 E11.35308
G1 X150.599 Y128.797 E12.17213
G1 X150.596 Y128.859 E12.17316
G1 X150.499 Y129.793 E12.18878
G1 X150.482 Y129.884 E12.19032
G1 X150.39 Y130.233 E12.19632
G1 X150.362 Y130.315 E12.19776
G1 X150.158 Y130.794 E12.20642
G1 X150.064 Y131.05 E12.21096
G1 X150.015 Y131.152 E12.21284
G1 X149.662 Y131.74 E12.22424
G1 X149.602 Y131.824 E12.22596
G1 X149.137 Y132.361 E12.23777
G1 X149.078 Y132.42 E12.23916
G1 X148.547 Y132.884 E12.25089
G1 X148.454 Y132.95 E12.25278
G1 X147.693 Y133.394 E12.26744
G1 X147.61 Y133.435 E12.26898
G1 X147.066 Y133.648 E12.27869
G1 X146.971 Y133.676 E12.28034
G1 X146.265 Y133.825 E12.29234
G1 X146.197 Y133.835 E12.29348
G1 X145.562 Y133.895 E12.30409
G1 X145.506 Y133.898 E12.30502
G1 X101.037 Y133.898 E13.04454
G1 X100.975 Y134.463 E13.054
G1 X100.912 Y134.672 E13.05763
G1 X100.779 Y134.844 E13.06124
G1 X100.666 Y134.945 E13.06376
G1 X100.479 Y135.059 E13.0674
G1 X100.266 Y135.098 E13.071
G1 X88.932 Y135.098 E13.25949
G1 X88.717 Y135.058 E13.26313
G1 X88.532 Y134.945 E13.26673
G1 X88.419 Y134.844 E13.26925
G1 X88.286 Y134.672 E13.27287
G1 X88.223 Y134.462 E13.27651
G1 X88.161 Y133.898 E13.28595
G1 X65.752 Y133.898 E13.65861
G1 X65.022 Y133.874 E13.67076
G1 X64.931 Y133.864 E13.67228
G1 X64.395 Y133.763 E13.68135
G1 X64.374 Y133.758 E13.68171
G1 X64.144 Y133.706 E13.68563
G1 X64.062 Y133.682 E13.68705
G1 X63.412 Y133.434 E13.69862
G1 X63.331 Y133.395 E13.70012
G1 X62.568 Y132.964 E13.71469
G1 X62.471 Y132.896 E13.71666
G1 X61.943 Y132.44 E13.72826
G1 X61.87 Y132.365 E13.73
G1 X61.417 Y131.808 E13.74194
G1 X61.397 Y131.782 E13.74249
G1 X61.186 Y131.492 E13.74845
G1 X61.145 Y131.428 E13.74972
G1 X60.895 Y130.974 E13.75834
G1 X60.865 Y130.91 E13.75951
G1 X60.667 Y130.421 E13.76829
G1 X60.636 Y130.321 E13.77003
G1 X60.486 Y129.616 E13.78201
G1 X60.481 Y129.586 E13.78252
G1 X60.426 Y129.244 E13.78828
G1 X60.418 Y129.149 E13.78987
G1 X60.4 Y79.939 E14.60823
G1 X60.4 Y79.931 E14.60836
G1 X60.407 Y79.423 E14.61681
G1 X60.412 Y79.351 E14.61801
G1 X60.529 Y78.479 E14.63264
G1 X60.556 Y78.365 E14.63459
G1 X60.857 Y77.482 E14.65011
G1 X60.911 Y77.367 E14.65222
G1 X61.36 Y76.621 E14.6667
G1 X61.389 Y76.576 E14.66759
G1 X61.608 Y76.276 E14.67377
G1 X61.654 Y76.221 E14.67496
G1 X62.002 Y75.848 E14.68344
G1 X62.082 Y75.776 E14.68523
M205 X30 Y30
G0 F7200 X62.321 Y76.097
M205 X20 Y20
G1 F2400 X63.029 Y75.569 E14.69992
G1 X63.052 Y75.554 E14.70038
G1 X63.512 Y75.3 E14.70912
G1 X63.534 Y75.29 E14.70952
G1 X64.028 Y75.09 E14.71838
G1 X64.058 Y75.08 E14.71891
G1 X64.575 Y74.96 E14.72773
G1 X64.597 Y74.956 E14.7281
G1 X65.475 Y74.855 E14.7428
G1 X65.498 Y74.854 E14.74318
G1 X145.496 Y74.853 E16.07356
G1 X145.521 Y74.855 E16.07397
G1 X146.511 Y74.979 E16.09057
G1 X146.529 Y74.982 E16.09087
G1 X146.768 Y75.035 E16.09494
G1 X146.796 Y75.043 E16.09543
G1 X147.448 Y75.292 E16.10703
G1 X147.475 Y75.305 E16.10753
G1 X148.233 Y75.732 E16.122
G1 X148.266 Y75.755 E16.12267
G1 X148.798 Y76.214 E16.13435
G1 X148.822 Y76.239 E16.13493
G1 X149.273 Y76.794 E16.14682
G1 X149.28 Y76.802 E16.147
G1 X149.493 Y77.095 E16.15302
G1 X149.506 Y77.116 E16.15343
G1 X149.753 Y77.564 E16.16194
G1 X149.763 Y77.586 E16.16234
G1 X149.961 Y78.076 E16.17113
G1 X149.972 Y78.109 E16.17171
G1 X150.122 Y78.81 E16.18363
G1 X150.125 Y78.831 E16.18398
G1 X150.198 Y79.525 E16.19559
G1 X150.199 Y79.546 E16.19594
G1 X150.199 Y128.797 E17.01499
G1 X150.198 Y128.818 E17.01534
G1 X150.101 Y129.752 E17.03095
G1 X150.095 Y129.782 E17.03146
G1 X150.003 Y130.131 E17.03746
G1 X149.994 Y130.158 E17.03794
G1 X149.789 Y130.64 E17.04665
G1 X149.689 Y130.912 E17.05147
G1 X149.672 Y130.946 E17.0521
G1 X149.319 Y131.534 E17.0635
G1 X149.299 Y131.562 E17.06408
G1 X148.834 Y132.099 E17.07589
G1 X148.815 Y132.119 E17.07635
G1 X148.284 Y132.583 E17.08807
G1 X148.253 Y132.605 E17.08871
G1 X147.492 Y133.049 E17.10336
G1 X147.464 Y133.062 E17.10387
G1 X146.92 Y133.275 E17.11359
G1 X146.888 Y133.285 E17.11415
G1 X146.182 Y133.434 E17.12614
G1 X146.16 Y133.437 E17.12651
G1 X145.525 Y133.497 E17.13712
G1 X145.506 Y133.498 E17.13744
G1 X100.679 Y133.498 E17.88291
G1 X100.578 Y134.419 E17.89832
G1 X100.512 Y134.546 E17.9007
G1 X100.399 Y134.647 E17.90322
G1 X100.266 Y134.698 E17.90559
G1 X88.932 Y134.698 E18.09408
G1 X88.799 Y134.647 E18.09644
G1 X88.686 Y134.546 E18.09897
G1 X88.62 Y134.419 E18.10135
G1 X88.519 Y133.498 E18.11675
G1 X65.765 Y133.498 E18.49515
G1 X65.035 Y133.474 E18.5073
G1 X65.005 Y133.471 E18.5078
G1 X64.469 Y133.37 E18.51687
G1 X64.462 Y133.368 E18.51699
G1 X64.232 Y133.316 E18.52092
G1 X64.205 Y133.308 E18.52138
G1 X63.555 Y133.06 E18.53295
G1 X63.528 Y133.047 E18.53345
G1 X62.765 Y132.616 E18.54802
G1 X62.732 Y132.593 E18.54869
G1 X62.204 Y132.137 E18.5603
G1 X62.18 Y132.112 E18.56087
G1 X61.727 Y131.555 E18.57281
G1 X61.72 Y131.547 E18.57299
G1 X61.509 Y131.257 E18.57895
G1 X61.496 Y131.235 E18.57938
G1 X61.246 Y130.781 E18.588
G1 X61.236 Y130.76 E18.58838
G1 X61.038 Y130.271 E18.59716
G1 X61.027 Y130.238 E18.59774
G1 X60.877 Y129.533 E18.60972
G1 X60.876 Y129.523 E18.60989
G1 X60.821 Y129.181 E18.61565
G1 X60.818 Y129.149 E18.61618
G1 X60.8 Y79.939 E19.43455
G1 X60.8 Y79.936 E19.4346
G1 X60.807 Y79.428 E19.44305
G1 X60.809 Y79.404 E19.44345
G1 X60.926 Y78.532 E19.45808
G1 X60.935 Y78.494 E19.45873
G1 X61.236 Y77.611 E19.47424
G1 X61.254 Y77.573 E19.47494
G1 X61.703 Y76.827 E19.48942
G1 X61.712 Y76.812 E19.48971
G1 X61.931 Y76.512 E19.49589
G1 X61.947 Y76.494 E19.49629
G1 X62.295 Y76.121 E19.50477
G1 X62.321 Y76.097 E19.50536
M205 X30 Y30
G1 F3000 E16.50536
G1 F180 Z1.1
G0 F7200 X64.026 Y82.648 Z1.1
M205 X20 Y20
G1 F180 Z0.1
G1 F3000 E19.50536
G1 F2400 X64.235 Y82.586 E19.50899
G1 X64.453 Y82.602 E19.51262
G1 X64.65 Y82.695 E19.51625
G1 X64.739 Y82.773 E19.51821
G1 X64.973 Y83.024 E19.52392
G1 X65.085 Y83.195 E19.52732
G1 X65.224 Y83.516 E19.53314
G1 X65.273 Y83.754 E19.53718
G1 X65.3 Y124.364 E20.21253
G1 X65.297 Y124.426 E20.21356
G1 X65.273 Y124.656 E20.2174
G1 X65.226 Y124.834 E20.22047
G1 X65.084 Y125.159 E20.22636
G1 X64.979 Y125.322 E20.22959
G1 X64.756 Y125.568 E20.23511
G1 X64.582 Y125.7 E20.23874
G1 X64.373 Y125.762 E20.24237
G1 X64.155 Y125.744 E20.24601
G1 X63.958 Y125.65 E20.24964
G1 X63.808 Y125.492 E20.25326
G1 X63.724 Y125.291 E20.25688
G1 X63.711 Y125.165 E20.25899
G1 X63.7 Y83.182 E20.95717
G1 X63.74 Y82.968 E20.96079
G1 X63.853 Y82.781 E20.96442
G1 X64.026 Y82.648 E20.96805
M205 X30 Y30
G0 F7200 X64.241 Y82.991
M205 X20 Y20
G1 F2400 X64.366 Y82.993 E20.97013
G1 X64.446 Y83.046 E20.97173
G1 X64.68 Y83.297 E20.97743
G1 X64.718 Y83.354 E20.97857
G1 X64.857 Y83.675 E20.98439
G1 X64.873 Y83.754 E20.98573
G1 X64.9 Y124.364 E21.66108
G1 X64.899 Y124.385 E21.66143
G1 X64.875 Y124.615 E21.66527
G1 X64.859 Y124.674 E21.66629
G1 X64.717 Y124.999 E21.67219
G1 X64.682 Y125.053 E21.67326
G1 X64.459 Y125.299 E21.67878
G1 X64.351 Y125.361 E21.68085
G1 X64.227 Y125.346 E21.68293
G1 X64.135 Y125.261 E21.68501
G1 X64.111 Y125.165 E21.68666
G1 X64.1 Y83.182 E22.38484
G1 X64.139 Y83.063 E22.38692
G1 X64.241 Y82.991 E22.38899
M205 X30 Y30
G1 F3000 E19.38899
G1 F180 Z1.1
G0 F7200 X69.563 Y129.024 Z1.1
M205 X20 Y20
G1 F180 Z0.1
G1 F3000 E22.38899
G1 F2400 X69.712 Y129.005 E22.39149
G1 X140.743 Y128.998 E23.57274
G1 X140.744 Y128.998 E23.57276
G1 X141.25 Y128.999 E23.58117
G1 X141.37 Y129.011 E23.58318
G1 X141.768 Y129.093 E23.58994
G1 X141.974 Y129.178 E23.59364
G1 X142.219 Y129.337 E23.5985
G1 X142.345 Y129.446 E23.60127
G1 X142.485 Y129.607 E23.60482
G1 X142.596 Y129.795 E23.60845
G1 X142.632 Y130.01 E23.61207
G1 X142.589 Y130.224 E23.6157
G1 X142.472 Y130.409 E23.61935
G1 X142.297 Y130.539 E23.62297
G1 X142.032 Y130.601 E23.6275
G1 X68.964 Y130.6 E24.84262
G1 X68.749 Y130.56 E24.84626
G1 X68.563 Y130.447 E24.84988
G1 X68.43 Y130.274 E24.85351
G1 X68.368 Y130.065 E24.85713
G1 X68.384 Y129.847 E24.86077
