;FLAVOR:Marlin
;TIME:1658
;Filament used: 0.940618m
;Layer height: 0.15
;MINX:98.518
;MINY:95.018
;MINZ:0.1
;MAXX:118.482
;MAXY:114.982
;MAXZ:17
;Generated with Cura_SteamEngine 4.5.0
M140 S65
M105
M190 S65
M82 ;absolute extrusion mode
;Gcode by Cura
G90
M106 S255
G28 X Y
G1 X50
M109 R195
G28
M104 S195
G29
M107
G1 X100 Y10 F3000
G1 Z0.5
M109 S195
M82
G92 E0
G1 F200 E10
G92 E0
G1 Z3
G1 F6000
G92 E0
G92 E0
G1 F1200 E-2
;LAYER_COUNT:107
;LAYER:0
M106 S255
M205 X30 Y30
G1 F120 Z1.1
G0 F3600 X99.359 Y95.983 Z1.1
M205 X15 Y15
;TYPE:SKIRT
G1 F120 Z0.1
G1 F1200 E0
G1 F900 X99.867 Y95.479 E0.01369
G1 X100.174 Y95.256 E0.02094
G1 X100.52 Y95.104 E0.02817
G1 X101.069 Y95.018 E0.0388
G1 X103.449 Y95.018 E0.08431
G1 X104.195 Y95.181 E0.09892
G1 X104.367 Y95.105 E0.10251
G1 X104.919 Y95.018 E0.1132
G1 X107.3 Y95.018 E0.15874
G1 X107.677 Y95.058 E0.16599
G1 X108.046 Y95.181 E0.17343
G1 X108.221 Y95.104 E0.17708
G1 X108.77 Y95.018 E0.18771
G1 X111.15 Y95.018 E0.23323
G1 X111.527 Y95.058 E0.24048
G1 X111.896 Y95.181 E0.24791
G1 X112.071 Y95.104 E0.25157
G1 X112.62 Y95.018 E0.2622
G1 X115 Y95.018 E0.30772
G1 X115.377 Y95.058 E0.31497
G1 X115.737 Y95.176 E0.32221
G1 X116.218 Y95.499 E0.33329
G1 X116.819 Y95.539 E0.34481
G1 X117.179 Y95.657 E0.35206
G1 X117.506 Y95.847 E0.35929
G1 X118.021 Y96.363 E0.37323
G1 X118.243 Y96.67 E0.38048
G1 X118.396 Y97.016 E0.38771
G1 X118.482 Y97.566 E0.39836
G1 X118.482 Y99.943 E0.44382
G1 X118.442 Y100.32 E0.45107
G1 X118.318 Y100.69 E0.45853
G1 X118.395 Y100.864 E0.46217
G1 X118.482 Y101.416 E0.47286
G1 X118.482 Y103.797 E0.51839
G1 X118.442 Y104.174 E0.52564
G1 X118.327 Y104.526 E0.53272
G1 X118.462 Y104.971 E0.54162
G1 X118.482 Y107.62 E0.59228
G1 X118.442 Y107.997 E0.59953
G1 X118.312 Y108.376 E0.60719
G1 X118.396 Y108.568 E0.6112
G1 X118.482 Y109.117 E0.62183
G1 X118.482 Y111.497 E0.66735
G1 X118.442 Y111.874 E0.6746
G1 X118.324 Y112.234 E0.68184
G1 X118.001 Y112.715 E0.69292
G1 X117.961 Y113.319 E0.7045
G1 X117.843 Y113.679 E0.71174
G1 X117.653 Y114.006 E0.71898
G1 X117.23 Y114.457 E0.7308
G1 X116.935 Y114.695 E0.73805
G1 X116.597 Y114.866 E0.74529
G1 X116.23 Y114.962 E0.75255
G1 X113.581 Y114.982 E0.80321
G1 X113.204 Y114.942 E0.81046
G1 X112.837 Y114.82 E0.81786
G1 X112.384 Y114.961 E0.82693
G1 X109.73 Y114.982 E0.87769
G1 X109.353 Y114.942 E0.88494
G1 X108.974 Y114.812 E0.8926
G1 X108.782 Y114.896 E0.89661
G1 X108.233 Y114.982 E0.90724
G1 X105.853 Y114.982 E0.95276
G1 X105.476 Y114.942 E0.96001
G1 X105.124 Y114.827 E0.96709
G1 X104.679 Y114.962 E0.97598
G1 X102.03 Y114.982 E1.02664
G1 X101.653 Y114.942 E1.03389
G1 X101.293 Y114.824 E1.04114
G1 X100.821 Y114.515 E1.05193
G1 X100.197 Y114.461 E1.06391
G1 X99.837 Y114.343 E1.07115
G1 X99.34 Y114.012 E1.08257
G1 X98.837 Y113.483 E1.09653
G1 X98.656 Y113.151 E1.10376
G1 X98.548 Y112.787 E1.11103
G1 X98.518 Y112.46 E1.11731
G1 X98.518 Y110.081 E1.1628
G1 X98.558 Y109.704 E1.17005
G1 X98.68 Y109.337 E1.17745
G1 X98.539 Y108.884 E1.18652
G1 X98.518 Y106.23 E1.23728
G1 X98.558 Y105.853 E1.24453
G1 X98.688 Y105.474 E1.25219
G1 X98.604 Y105.282 E1.2562
G1 X98.518 Y104.733 E1.26683
G1 X98.518 Y102.353 E1.31235
G1 X98.558 Y101.976 E1.3196
G1 X98.681 Y101.607 E1.32704
G1 X98.604 Y101.432 E1.33069
G1 X98.518 Y100.883 E1.34132
G1 X98.518 Y98.503 E1.38684
G1 X98.558 Y98.126 E1.39409
G1 X98.676 Y97.766 E1.40133
G1 X98.866 Y97.439 E1.40856
G1 X99.004 Y97.279 E1.41261
G1 X99.047 Y96.669 E1.4243
G1 X99.167 Y96.31 E1.43154
G1 X99.359 Y95.983 E1.43879
M205 X30 Y30
G0 F3600 X99.565 Y96.404
M205 X15 Y15
G1 F900 X99.87 Y96.013 E1.44828
G1 X100.407 Y95.584 E1.46142
G1 X100.718 Y95.463 E1.4678
G1 X101.069 Y95.418 E1.47457
G1 X103.449 Y95.418 E1.52009
G1 X103.781 Y95.458 E1.52648
G1 X104.18 Y95.639 E1.53486
G1 X104.566 Y95.463 E1.54297
G1 X104.919 Y95.418 E1.54978
G1 X107.3 Y95.418 E1.59531
G1 X107.632 Y95.458 E1.60171
G1 X108.031 Y95.638 E1.61008
G1 X108.419 Y95.463 E1.61822
G1 X108.77 Y95.418 E1.62499
G1 X111.15 Y95.418 E1.67051
G1 X111.482 Y95.458 E1.6769
G1 X111.881 Y95.638 E1.68527
G1 X112.269 Y95.463 E1.69341
G1 X112.62 Y95.418 E1.70018
G1 X115 Y95.418 E1.7457
G1 X115.332 Y95.458 E1.75209
G1 X115.644 Y95.575 E1.75846
G1 X116.061 Y95.899 E1.76856
G1 X116.774 Y95.939 E1.78222
G1 X117.086 Y96.056 E1.78859
G1 X117.483 Y96.363 E1.79819
G1 X117.915 Y96.903 E1.81142
G1 X118.037 Y97.214 E1.81781
G1 X118.082 Y97.566 E1.82459
G1 X118.082 Y99.943 E1.87005
G1 X118.042 Y100.275 E1.87645
G1 X117.86 Y100.675 E1.88485
G1 X118.037 Y101.063 E1.89301
G1 X118.082 Y101.416 E1.89981
G1 X118.082 Y103.797 E1.94535
G1 X118.042 Y104.129 E1.95174
G1 X117.88 Y104.516 E1.95977
G1 X118.017 Y104.821 E1.96616
G1 X118.082 Y105.241 E1.97429
G1 X118.082 Y107.62 E2.01979
G1 X118.042 Y107.952 E2.02618
G1 X117.854 Y108.366 E2.03488
G1 X118.037 Y108.766 E2.04329
G1 X118.082 Y109.117 E2.05006
G1 X118.082 Y111.497 E2.09557
G1 X118.042 Y111.829 E2.10197
G1 X117.925 Y112.141 E2.10834
G1 X117.601 Y112.558 E2.11844
G1 X117.561 Y113.274 E2.13216
G1 X117.444 Y113.586 E2.13853
G1 X117.189 Y113.934 E2.14678
G1 X116.685 Y114.38 E2.15965
G1 X116.38 Y114.517 E2.16604
G1 X115.96 Y114.582 E2.17417
G1 X113.581 Y114.582 E2.21967
G1 X113.249 Y114.542 E2.22607
G1 X112.837 Y114.378 E2.23455
G1 X112.533 Y114.517 E2.24094
G1 X112.11 Y114.582 E2.24912
G1 X109.73 Y114.582 E2.29464
G1 X109.398 Y114.542 E2.30104
G1 X108.984 Y114.354 E2.30973
G1 X108.584 Y114.537 E2.31814
G1 X108.233 Y114.582 E2.32491
G1 X105.853 Y114.582 E2.37043
G1 X105.521 Y114.542 E2.37682
G1 X105.134 Y114.38 E2.38485
G1 X104.829 Y114.517 E2.39124
G1 X104.409 Y114.582 E2.39937
G1 X102.03 Y114.582 E2.44487
G1 X101.698 Y114.542 E2.45126
G1 X101.386 Y114.425 E2.45763
G1 X100.96 Y114.101 E2.46787
G1 X100.242 Y114.061 E2.48162
G1 X99.93 Y113.944 E2.488
G1 X99.614 Y113.72 E2.4954
G1 X99.144 Y113.223 E2.50848
G1 X98.997 Y112.923 E2.51487
G1 X98.918 Y112.46 E2.52386
G1 X98.918 Y110.081 E2.56935
G1 X98.958 Y109.749 E2.57575
G1 X99.122 Y109.337 E2.58423
G1 X98.983 Y109.033 E2.59062
G1 X98.918 Y108.61 E2.59881
G1 X98.918 Y106.23 E2.64432
G1 X98.958 Y105.898 E2.65072
G1 X99.146 Y105.484 E2.65941
G1 X98.963 Y105.084 E2.66783
G1 X98.918 Y104.733 E2.67459
G1 X98.918 Y102.353 E2.72011
G1 X98.958 Y102.021 E2.72651
G1 X99.139 Y101.623 E2.73487
G1 X98.963 Y101.234 E2.74303
G1 X98.918 Y100.883 E2.7498
G1 X98.918 Y98.503 E2.79532
G1 X98.958 Y98.171 E2.80171
G1 X99.075 Y97.859 E2.80809
G1 X99.403 Y97.438 E2.81829
G1 X99.447 Y96.717 E2.83211
G1 X99.565 Y96.404 E2.8385
M205 X30 Y30
G0 F3600 X99.964 Y96.514
M205 X15 Y15
G1 F900 X100.401 Y96.074 E2.85036
G1 X100.635 Y95.917 E2.85575
G1 X101.069 Y95.818 E2.86427
G1 X103.449 Y95.818 E2.90978
G1 X103.985 Y95.974 E2.92046
G1 X104.182 Y96.136 E2.92534
G1 X104.484 Y95.918 E2.93246
G1 X104.919 Y95.818 E2.941
G1 X107.3 Y95.818 E2.98653
G1 X107.579 Y95.858 E2.99192
G1 X107.836 Y95.974 E2.99731
G1 X108.033 Y96.136 E3.00219
G1 X108.336 Y95.917 E3.00934
G1 X108.77 Y95.818 E3.01786
G1 X111.15 Y95.818 E3.06337
G1 X111.429 Y95.858 E3.06876
G1 X111.686 Y95.974 E3.07415
G1 X111.883 Y96.136 E3.07903
G1 X112.186 Y95.917 E3.08618
G1 X112.62 Y95.818 E3.0947
G1 X115 Y95.818 E3.14021
G1 X115.279 Y95.858 E3.1456
G1 X115.536 Y95.974 E3.151
G1 X115.895 Y96.299 E3.16026
G1 X116.442 Y96.299 E3.17072
G1 X116.721 Y96.339 E3.17611
G1 X116.978 Y96.455 E3.1815
G1 X117.426 Y96.897 E3.19354
G1 X117.583 Y97.132 E3.19894
G1 X117.682 Y97.566 E3.20745
G1 X117.682 Y99.943 E3.25291
G1 X117.642 Y100.222 E3.2583
G1 X117.526 Y100.479 E3.2637
G1 X117.362 Y100.678 E3.26863
G1 X117.582 Y100.981 E3.27579
G1 X117.682 Y101.416 E3.28433
G1 X117.682 Y103.797 E3.32986
G1 X117.642 Y104.076 E3.33525
G1 X117.526 Y104.333 E3.34064
G1 X117.391 Y104.535 E3.34529
G1 X117.559 Y104.761 E3.35068
G1 X117.659 Y105.026 E3.35609
G1 X117.682 Y107.62 E3.4057
G1 X117.642 Y107.899 E3.41109
G1 X117.423 Y108.292 E3.4197
G1 X117.354 Y108.368 E3.42166
G1 X117.583 Y108.683 E3.42911
G1 X117.682 Y109.117 E3.43762
G1 X117.682 Y111.497 E3.48314
G1 X117.642 Y111.776 E3.48853
G1 X117.526 Y112.033 E3.49392
G1 X117.201 Y112.392 E3.50318
G1 X117.201 Y112.942 E3.5137
G1 X117.161 Y113.221 E3.51909
G1 X117.045 Y113.478 E3.52448
G1 X116.666 Y113.891 E3.5352
G1 X116.44 Y114.059 E3.54059
G1 X116.175 Y114.159 E3.54601
G1 X113.581 Y114.182 E3.59562
G1 X113.302 Y114.142 E3.60101
G1 X112.909 Y113.923 E3.60961
G1 X112.843 Y113.863 E3.61132
G1 X112.591 Y114.058 E3.61741
G1 X112.327 Y114.158 E3.62281
G1 X109.73 Y114.182 E3.67248
G1 X109.451 Y114.142 E3.67787
G1 X109.058 Y113.923 E3.68647
G1 X108.982 Y113.854 E3.68844
G1 X108.667 Y114.083 E3.69589
G1 X108.233 Y114.182 E3.7044
G1 X105.853 Y114.182 E3.74991
G1 X105.574 Y114.142 E3.75531
G1 X105.317 Y114.026 E3.7607
G1 X105.115 Y113.891 E3.76534
G1 X104.889 Y114.059 E3.77073
G1 X104.624 Y114.159 E3.77615
G1 X102.03 Y114.182 E3.82576
G1 X101.751 Y114.142 E3.83115
G1 X101.358 Y113.923 E3.83975
G1 X101.113 Y113.701 E3.84608
G1 X100.574 Y113.701 E3.85638
G1 X100.295 Y113.661 E3.86177
G1 X100.038 Y113.545 E3.86717
G1 X99.633 Y113.188 E3.87749
G1 X99.456 Y112.968 E3.88289
G1 X99.349 Y112.707 E3.88829
G1 X99.318 Y112.46 E3.89305
G1 X99.318 Y110.081 E3.93854
G1 X99.358 Y109.802 E3.94393
G1 X99.577 Y109.409 E3.95254
G1 X99.637 Y109.343 E3.95424
G1 X99.442 Y109.091 E3.96034
G1 X99.342 Y108.827 E3.96574
G1 X99.318 Y106.23 E4.01541
G1 X99.358 Y105.951 E4.0208
G1 X99.577 Y105.558 E4.0294
G1 X99.646 Y105.482 E4.03136
G1 X99.417 Y105.167 E4.03881
G1 X99.318 Y104.733 E4.04732
G1 X99.318 Y102.353 E4.09284
G1 X99.358 Y102.074 E4.09823
G1 X99.474 Y101.817 E4.10362
G1 X99.637 Y101.621 E4.1085
G1 X99.417 Y101.317 E4.11568
G1 X99.318 Y100.883 E4.12419
G1 X99.318 Y98.503 E4.16971
G1 X99.358 Y98.224 E4.1751
G1 X99.474 Y97.967 E4.18049
G1 X99.802 Y97.605 E4.18983
G1 X99.805 Y97.05 E4.20044
G1 X99.846 Y96.771 E4.20584
G1 X99.964 Y96.514 E4.21125
M205 X30 Y30
G0 F3600 X100.404 Y96.609
M205 X15 Y15
G1 F900 X100.854 Y96.258 E4.22216
G1 X101.069 Y96.218 E4.22634
G1 X103.449 Y96.218 E4.27186
G1 X103.874 Y96.395 E4.28066
G1 X104.192 Y96.699 E4.28908
G1 X104.517 Y96.372 E4.29789
G1 X104.703 Y96.258 E4.30207
G1 X104.919 Y96.218 E4.30627
G1 X107.3 Y96.218 E4.3518
G1 X107.515 Y96.258 E4.35599
G1 X107.725 Y96.395 E4.36078
G1 X108.042 Y96.699 E4.36918
G1 X108.369 Y96.372 E4.37803
G1 X108.555 Y96.258 E4.3822
G1 X108.77 Y96.218 E4.38638
G1 X111.15 Y96.218 E4.4319
G1 X111.365 Y96.258 E4.43608
G1 X111.575 Y96.395 E4.44087
G1 X111.892 Y96.699 E4.44927
G1 X112.219 Y96.372 E4.45812
G1 X112.405 Y96.258 E4.46229
G1 X112.62 Y96.218 E4.46647
G1 X115 Y96.218 E4.51199
G1 X115.215 Y96.258 E4.51617
G1 X115.425 Y96.395 E4.52097
G1 X115.708 Y96.699 E4.52891
G1 X116.442 Y96.699 E4.54295
G1 X116.657 Y96.739 E4.54713
G1 X116.888 Y96.898 E4.55249
G1 X117.242 Y97.351 E4.56349
G1 X117.282 Y97.566 E4.56767
G1 X117.282 Y99.943 E4.61313
G1 X117.242 Y100.158 E4.61731
G1 X117.105 Y100.368 E4.62211
G1 X116.801 Y100.689 E4.63056
G1 X117.128 Y101.014 E4.63938
G1 X117.242 Y101.2 E4.64355
G1 X117.282 Y101.416 E4.64775
G1 X117.282 Y103.797 E4.69329
G1 X117.242 Y104.012 E4.69747
G1 X117.105 Y104.222 E4.70226
G1 X116.801 Y104.534 E4.7106
G1 X117.107 Y104.818 E4.71858
G1 X117.23 Y104.998 E4.72275
G1 X117.282 Y105.241 E4.7275
G1 X117.282 Y107.62 E4.773
G1 X117.242 Y107.835 E4.77718
G1 X117.126 Y108.023 E4.78141
G1 X116.801 Y108.386 E4.79072
G1 X117.128 Y108.716 E4.79961
G1 X117.242 Y108.902 E4.80378
G1 X117.282 Y109.117 E4.80796
G1 X117.282 Y111.497 E4.85348
G1 X117.242 Y111.712 E4.85766
G1 X117.105 Y111.922 E4.86246
G1 X116.801 Y112.205 E4.8704
G1 X116.801 Y112.942 E4.8845
G1 X116.761 Y113.157 E4.88868
G1 X116.624 Y113.367 E4.89347
G1 X116.203 Y113.73 E4.9041
G1 X115.96 Y113.782 E4.90886
G1 X113.581 Y113.782 E4.95435
G1 X113.366 Y113.742 E4.95854
G1 X113.178 Y113.626 E4.96276
G1 X112.816 Y113.301 E4.97207
G1 X112.534 Y113.606 E4.98001
G1 X112.355 Y113.73 E4.98417
G1 X112.11 Y113.782 E4.98896
G1 X109.73 Y113.782 E5.03448
G1 X109.515 Y113.742 E5.03866
G1 X109.327 Y113.626 E5.04289
G1 X108.961 Y113.301 E5.05225
G1 X108.634 Y113.628 E5.06109
G1 X108.448 Y113.742 E5.06526
G1 X108.233 Y113.782 E5.06945
G1 X105.853 Y113.782 E5.11496
G1 X105.638 Y113.742 E5.11915
G1 X105.428 Y113.605 E5.12394
G1 X105.116 Y113.301 E5.13227
G1 X104.832 Y113.607 E5.14026
G1 X104.652 Y113.73 E5.14443
G1 X104.409 Y113.782 E5.14918
G1 X102.03 Y113.782 E5.19468
G1 X101.815 Y113.742 E5.19886
G1 X101.627 Y113.626 E5.20308
G1 X101.296 Y113.301 E5.21195
G1 X100.574 Y113.301 E5.22576
G1 X100.359 Y113.261 E5.22994
G1 X100.163 Y113.138 E5.23437
G1 X99.778 Y112.721 E5.24522
G1 X99.718 Y112.46 E5.25035
G1 X99.718 Y110.081 E5.29584
G1 X99.758 Y109.866 E5.30003
G1 X99.874 Y109.678 E5.30425
G1 X100.199 Y109.316 E5.31355
G1 X99.894 Y109.034 E5.3215
G1 X99.77 Y108.855 E5.32566
G1 X99.718 Y108.61 E5.33045
G1 X99.718 Y106.23 E5.37597
G1 X99.758 Y106.015 E5.38015
G1 X99.874 Y105.827 E5.38438
G1 X100.199 Y105.464 E5.39369
G1 X99.872 Y105.134 E5.40258
G1 X99.758 Y104.948 E5.40675
G1 X99.718 Y104.733 E5.41093
G1 X99.718 Y102.353 E5.45645
G1 X99.758 Y102.138 E5.46063
G1 X99.895 Y101.927 E5.46544
G1 X100.199 Y101.614 E5.47379
G1 X99.872 Y101.284 E5.48267
G1 X99.758 Y101.098 E5.48684
G1 X99.718 Y100.883 E5.49103
G1 X99.718 Y98.503 E5.53654
G1 X99.758 Y98.288 E5.54073
G1 X99.895 Y98.078 E5.54552
G1 X100.201 Y97.793 E5.55352
G1 X100.205 Y97.052 E5.56769
G1 X100.246 Y96.838 E5.57186
G1 X100.404 Y96.609 E5.57718
M205 X30 Y30
G0 F3600 X100.671 Y96.906
M205 X15 Y15
G1 F900 X100.935 Y96.669 E5.58396
G1 X101.069 Y96.618 E5.5867
G1 X103.449 Y96.618 E5.63222
G1 X103.832 Y96.919 E5.64154
G1 X103.892 Y97.099 E5.64517
G1 X104.455 Y97.099 E5.65593
G1 X104.522 Y96.906 E5.65984
G1 X104.785 Y96.669 E5.66661
G1 X104.919 Y96.618 E5.66935
G1 X107.3 Y96.618 E5.71489
G1 X107.442 Y96.677 E5.71783
G1 X107.683 Y96.919 E5.72436
G1 X107.743 Y97.099 E5.72799
G1 X108.305 Y97.099 E5.73874
G1 X108.372 Y96.906 E5.74264
G1 X108.636 Y96.669 E5.74943
G1 X108.77 Y96.618 E5.75217
G1 X111.15 Y96.618 E5.79769
G1 X111.292 Y96.677 E5.80063
G1 X111.533 Y96.919 E5.80716
G1 X111.593 Y97.099 E5.81079
G1 X112.155 Y97.099 E5.82154
G1 X112.222 Y96.906 E5.82544
G1 X112.486 Y96.669 E5.83223
G1 X112.62 Y96.618 E5.83497
G1 X115 Y96.618 E5.88049
G1 X115.142 Y96.677 E5.88343
G1 X115.383 Y96.919 E5.88996
G1 X115.444 Y97.099 E5.8936
G1 X116.442 Y97.099 E5.91268
G1 X116.591 Y97.165 E5.9158
G1 X116.831 Y97.432 E5.92266
G1 X116.882 Y97.566 E5.92541
G1 X116.882 Y99.943 E5.97087
G1 X116.823 Y100.085 E5.97381
G1 X116.581 Y100.326 E5.98034
G1 X116.401 Y100.386 E5.98397
G1 X116.401 Y100.952 E5.99479
G1 X116.594 Y101.019 E5.9987
G1 X116.831 Y101.282 E6.00547
G1 X116.882 Y101.416 E6.00821
G1 X116.882 Y103.797 E6.05375
G1 X116.823 Y103.939 E6.05669
G1 X116.581 Y104.18 E6.06322
G1 X116.401 Y104.24 E6.06685
G1 X116.401 Y104.802 E6.0776
G1 X116.587 Y104.862 E6.08133
G1 X116.824 Y105.1 E6.08776
G1 X116.882 Y105.241 E6.09067
G1 X116.882 Y107.62 E6.13617
G1 X116.83 Y107.754 E6.13892
G1 X116.587 Y108.022 E6.14584
G1 X116.401 Y108.088 E6.14961
G1 X116.401 Y108.65 E6.16036
G1 X116.594 Y108.719 E6.16428
G1 X116.831 Y108.983 E6.17106
G1 X116.882 Y109.117 E6.17381
G1 X116.882 Y111.497 E6.21932
G1 X116.823 Y111.639 E6.22226
G1 X116.581 Y111.88 E6.2288
G1 X116.401 Y111.941 E6.23243
G1 X116.401 Y112.942 E6.25157
G1 X116.342 Y113.084 E6.25451
G1 X116.101 Y113.324 E6.26102
G1 X115.96 Y113.382 E6.26393
G1 X113.581 Y113.382 E6.30943
G1 X113.447 Y113.33 E6.31218
G1 X113.179 Y113.087 E6.3191
G1 X113.111 Y112.901 E6.32289
G1 X112.548 Y112.901 E6.33365
G1 X112.488 Y113.086 E6.33737
G1 X112.251 Y113.323 E6.34378
