;FLAVOR:Marlin
;TIME:7696
;Filament used: 5.62495m
;Layer height: 0.15
;MINX:88.5
;MINY:62.147
;MINZ:0.1
;MAXX:144.5
;MAXY:152.5
;MAXZ:25.9
;Generated with Cura_SteamEngine 4.5.0
M140 S67
M105
M190 S67
M82 ;absolute extrusion mode
;Gcode by Cura
G90
M106 S255
G28 X Y
M109 R195
G28
M104 S191
G29
M107
G1 X100 Y10 F3000
G1 Z0.5
M109 S191
M82
G92 E0
G1 F200 E10
G92 E0
G1 Z3
G1 F6000
G92 E0
G92 E0
G1 F1200 E-3.5
;LAYER_COUNT:173
;LAYER:0
M106 S255
M205 X30 Y30
G1 F120 Z1.1
G0 F3600 X113.25 Y73.5 Z1.1
M205 X15 Y15
;TYPE:SKIRT
G1 F120 Z0.1
G1 F1200 E0
G1 F1500 X113.25 Y92 E0.30766
G1 X119.748 Y92 E0.41572
G1 X119.75 Y73.5 E0.72337
G1 X113.25 Y73.5 E0.83147
M205 X30 Y30
G0 F3600 X112.85 Y73.1
M205 X15 Y15
G1 F1500 X112.85 Y92.4 E1.15243
G1 X120.148 Y92.4 E1.2738
G1 X120.15 Y73.1 E1.59476
G1 X112.85 Y73.1 E1.71616
M205 X30 Y30
G0 F3600 X112.45 Y72.7
M205 X15 Y15
G1 F1500 X112.45 Y92.792 E2.05029
G1 X120.548 Y92.8 E2.18496
G1 X120.55 Y72.826 E2.51713
G1 X120.539 Y72.7 E2.51923
G1 X112.45 Y72.7 E2.65375
M205 X30 Y30
G0 F3600 X112.05 Y72.618
M205 X15 Y15
G1 F1500 X112.05 Y92.817 E2.98966
G1 X112.088 Y93.165 E2.99548
G1 X112.376 Y93.2 E3.00031
G1 X120.639 Y93.2 E3.13772
G1 X120.914 Y93.165 E3.14233
G1 X120.948 Y92.874 E3.1472
G1 X120.95 Y72.812 E3.48084
G1 X120.908 Y72.34 E3.48872
G1 X120.614 Y72.3 E3.49365
G1 X112.087 Y72.335 E3.63546
G1 X112.05 Y72.618 E3.6402
M205 X30 Y30
G0 F3600 X111.65 Y72.59
M205 X15 Y15
G1 F1500 X111.65 Y92.833 E3.97685
G1 X111.726 Y93.524 E3.98841
G1 X112.352 Y93.6 E3.99889
G1 X120.659 Y93.6 E4.13704
G1 X121.275 Y93.521 E4.14737
G1 X121.348 Y92.904 E4.1577
G1 X121.35 Y72.787 E4.49225
G1 X121.278 Y71.986 E4.50562
G1 X120.646 Y71.9 E4.51623
G1 X112.34 Y71.9 E4.65436
G1 X111.729 Y71.977 E4.6646
G1 X111.65 Y72.59 E4.67488
M205 X30 Y30
G0 F3600 X111.25 Y72.569
M205 X15 Y15
G1 F1500 X111.25 Y92.859 E5.0123
G1 X111.362 Y93.882 E5.02942
G1 X112.329 Y94 E5.04562
G1 X120.686 Y94 E5.18459
G1 X121.636 Y93.878 E5.20052
G1 X121.748 Y92.925 E5.21648
G1 X121.75 Y72.773 E5.55161
G1 X121.648 Y71.633 E5.57064
G1 X120.67 Y71.5 E5.58706
G1 X112.314 Y71.5 E5.72602
G1 X111.373 Y71.619 E5.74179
G1 X111.25 Y72.569 E5.75772
M205 X30 Y30
G0 F3600 X110.85 Y72.541
M205 X15 Y15
G1 F1500 X110.85 Y92.884 E6.09603
G1 X110.999 Y94.241 E6.11873
G1 X112.305 Y94.4 E6.14061
G1 X120.714 Y94.4 E6.28045
G1 X121.996 Y94.236 E6.30195
G1 X122.148 Y92.947 E6.32353
G1 X122.15 Y72.761 E6.65922
G1 X122.017 Y71.28 E6.68395
G1 X120.694 Y71.1 E6.70616
G1 X112.287 Y71.1 E6.84597
G1 X111.016 Y71.26 E6.86727
G1 X110.85 Y72.541 E6.88875
M205 X30 Y30
G0 F3600 X110.45 Y72.514
M205 X15 Y15
G1 F1500 X110.45 Y92.9 E7.22777
G1 X110.618 Y94.436 E7.25347
G1 X110.8 Y94.619 E7.25776
G1 X112.281 Y94.8 E7.28257
G1 X120.742 Y94.8 E7.42328
G1 X122.193 Y94.614 E7.44761
G1 X122.376 Y94.428 E7.45195
G1 X122.548 Y92.968 E7.47639
G1 X122.55 Y72.736 E7.81285
G1 X122.402 Y71.09 E7.84034
G1 X122.225 Y70.904 E7.84461
G1 X120.726 Y70.7 E7.86976
G1 X112.261 Y70.7 E8.01054
G1 X110.823 Y70.881 E8.03464
G1 X110.637 Y71.067 E8.03902
G1 X110.45 Y72.514 E8.06328
M205 X30 Y30
G1 F1200 E4.56328
G1 F120 Z1.1
G0 F3600 X91.617 Y64.947 Z1.1
M205 X15 Y15
G1 F120 Z0.1
G1 F1200 E8.06328
G1 F1500 X141.383 Y64.947 E8.89089
G1 X141.502 Y64.986 E8.89297
G1 X141.583 Y65.147 E8.89597
G1 X141.7 Y149.383 E10.29682
G1 X141.641 Y149.524 E10.29936
G1 X141.524 Y149.641 E10.30212
G1 X141.383 Y149.7 E10.30466
G1 X91.617 Y149.7 E11.13227
G1 X91.476 Y149.641 E11.13481
G1 X91.359 Y149.524 E11.13756
G1 X91.3 Y149.383 E11.14011
G1 X91.3 Y65.264 E12.53901
G1 X91.359 Y65.123 E12.54155
G1 X91.476 Y65.006 E12.5443
G1 X91.617 Y64.947 E12.54685
M205 X30 Y30
G0 F3600 X91.617 Y64.547
M205 X15 Y15
G1 F1500 X141.383 Y64.547 E13.37446
G1 X141.784 Y64.7 E13.3816
G1 X141.917 Y64.873 E13.38522
G1 X141.983 Y65.146 E13.38989
G1 X142.1 Y149.382 E14.79075
G1 X142.061 Y149.597 E14.79438
G1 X141.807 Y149.924 E14.80127
G1 X141.628 Y150.048 E14.80489
G1 X141.383 Y150.1 E14.80905
G1 X91.617 Y150.1 E15.63666
G1 X91.402 Y150.06 E15.6403
G1 X91.076 Y149.807 E15.64716
G1 X90.952 Y149.628 E15.65079
G1 X90.9 Y149.383 E15.65495
G1 X90.9 Y65.264 E17.05385
G1 X90.94 Y65.049 E17.05749
G1 X91.193 Y64.723 E17.06435
G1 X91.372 Y64.599 E17.06798
G1 X91.617 Y64.547 E17.07214
M205 X30 Y30
G0 F3600 X91.4 Y64.171
M205 X15 Y15
G1 F1500 X141.383 Y64.147 E17.90336
G1 X141.919 Y64.303 E17.91264
G1 X142.134 Y64.486 E17.91734
G1 X142.288 Y64.722 E17.92203
G1 X142.383 Y65.146 E17.92925
G1 X142.5 Y149.382 E19.3301
G1 X142.461 Y149.661 E19.33479
G1 X142.345 Y149.918 E19.33948
G1 X142.09 Y150.207 E19.34589
G1 X141.864 Y150.376 E19.35058
G1 X141.6 Y150.476 E19.35528
G1 X91.617 Y150.5 E20.1865
G1 X91.338 Y150.46 E20.19118
G1 X91.081 Y150.344 E20.19587
G1 X90.793 Y150.09 E20.20226
G1 X90.624 Y149.864 E20.20695
G1 X90.524 Y149.6 E20.21165
G1 X90.5 Y65.264 E21.61416
G1 X90.54 Y64.985 E21.61885
G1 X90.656 Y64.728 E21.62354
G1 X90.91 Y64.44 E21.62992
G1 X91.136 Y64.271 E21.63462
G1 X91.4 Y64.171 E21.63931
M205 X30 Y30
G0 F3600 X91.617 Y63.747
M205 X15 Y15
G1 F1500 X141.383 Y63.747 E22.46692
G1 X142.027 Y63.904 E22.47795
G1 X142.304 Y64.092 E22.48351
G1 X142.527 Y64.34 E22.48906
G1 X142.686 Y64.634 E22.49462
G1 X142.783 Y65.145 E22.50327
G1 X142.9 Y149.381 E23.90412
G1 X142.861 Y149.713 E23.90968
G1 X142.744 Y150.026 E23.91524
G1 X142.373 Y150.49 E23.92511
G1 X142.11 Y150.696 E23.93067
G1 X141.806 Y150.835 E23.93623
G1 X141.383 Y150.9 E23.94335
G1 X91.617 Y150.9 E24.77096
G1 X91.285 Y150.86 E24.77652
G1 X90.973 Y150.743 E24.78206
G1 X90.51 Y150.373 E24.79192
G1 X90.304 Y150.11 E24.79747
G1 X90.165 Y149.806 E24.80303
G1 X90.1 Y149.383 E24.81015
G1 X90.1 Y65.264 E26.20905
G1 X90.14 Y64.932 E26.21461
G1 X90.257 Y64.62 E26.22016
G1 X90.627 Y64.157 E26.23001
G1 X90.89 Y63.951 E26.23557
G1 X91.194 Y63.812 E26.24113
G1 X91.617 Y63.747 E26.24824
M205 X30 Y30
G0 F3600 X91.343 Y63.368
M205 X15 Y15
G1 F1500 X141.383 Y63.347 E27.08041
G1 X142.12 Y63.505 E27.09295
G1 X142.447 Y63.695 E27.09924
G1 X142.728 Y63.95 E27.10555
G1 X142.948 Y64.259 E27.11186
G1 X143.1 Y64.606 E27.11816
G1 X143.183 Y65.144 E27.12721
G1 X143.3 Y149.38 E28.52806
G1 X143.261 Y149.757 E28.53436
G1 X143.143 Y150.118 E28.54068
G1 X142.953 Y150.445 E28.54697
G1 X142.656 Y150.773 E28.55433
G1 X142.361 Y151.011 E28.56063
G1 X142.023 Y151.182 E28.56693
G1 X141.657 Y151.279 E28.57323
G1 X91.617 Y151.3 E29.40539
G1 X91.24 Y151.26 E29.4117
G1 X90.88 Y151.142 E29.418
G1 X90.553 Y150.952 E29.42429
G1 X90.227 Y150.656 E29.43161
G1 X89.989 Y150.361 E29.43792
G1 X89.818 Y150.023 E29.44421
G1 X89.721 Y149.657 E29.45051
G1 X89.7 Y65.264 E30.85397
G1 X89.74 Y64.887 E30.86028
G1 X89.858 Y64.527 E30.86658
G1 X90.048 Y64.2 E30.87287
G1 X90.344 Y63.874 E30.88019
G1 X90.639 Y63.636 E30.88649
G1 X90.977 Y63.465 E30.89279
G1 X91.343 Y63.368 E30.89909
M205 X30 Y30
G0 F3600 X91.617 Y62.947
M205 X15 Y15
G1 F1500 X141.383 Y62.947 E31.7267
G1 X142.202 Y63.105 E31.74057
G1 X142.574 Y63.298 E31.74754
G1 X142.903 Y63.557 E31.75451
G1 X143.177 Y63.874 E31.76147
G1 X143.386 Y64.237 E31.76844
G1 X143.522 Y64.634 E31.77542
G1 X143.583 Y65.144 E31.78396
G1 X143.7 Y149.38 E33.18481
G1 X143.661 Y149.797 E33.19178
G1 X143.543 Y150.199 E33.19874
G1 X143.351 Y150.572 E33.20572
G1 X142.939 Y151.056 E33.21629
G1 X142.615 Y151.322 E33.22326
G1 X142.248 Y151.523 E33.23022
G1 X141.848 Y151.65 E33.2372
G1 X141.383 Y151.7 E33.24498
G1 X91.617 Y151.7 E34.07259
G1 X91.2 Y151.66 E34.07956
G1 X90.798 Y151.542 E34.08652
G1 X90.426 Y151.349 E34.09349
G1 X89.944 Y150.939 E34.10402
G1 X89.678 Y150.615 E34.11099
G1 X89.477 Y150.248 E34.11795
G1 X89.35 Y149.848 E34.12493
G1 X89.3 Y149.383 E34.1327
G1 X89.3 Y65.264 E35.53161
G1 X89.34 Y64.847 E35.53857
G1 X89.458 Y64.445 E35.54554
G1 X89.651 Y64.073 E35.55251
G1 X90.061 Y63.591 E35.56303
G1 X90.385 Y63.325 E35.57001
G1 X90.752 Y63.124 E35.57696
G1 X91.152 Y62.997 E35.58394
G1 X91.617 Y62.947 E35.59172
M205 X30 Y30
G0 F3600 X91.617 Y62.547
M205 X15 Y15
G1 F1500 X141.383 Y62.547 E36.41933
G1 X142.277 Y62.705 E36.43443
G1 X142.689 Y62.899 E36.442
G1 X143.062 Y63.162 E36.44959
G1 X143.383 Y63.485 E36.45717
G1 X143.642 Y63.86 E36.46475
G1 X143.832 Y64.274 E36.47232
G1 X143.947 Y64.715 E36.4799
G1 X143.983 Y65.143 E36.48704
G1 X144.1 Y149.379 E37.88789
G1 X144.061 Y149.833 E37.89547
G1 X143.943 Y150.273 E37.90305
G1 X143.75 Y150.686 E37.91063
G1 X143.338 Y151.221 E37.92186
G1 X142.872 Y151.631 E37.93218
G1 X142.477 Y151.858 E37.93976
G1 X142.049 Y152.013 E37.94733
G1 X141.383 Y152.1 E37.9585
G1 X91.617 Y152.1 E38.78611
G1 X91.163 Y152.06 E38.79369
G1 X90.723 Y151.942 E38.80126
G1 X90.311 Y151.748 E38.80884
G1 X89.779 Y151.338 E38.82001
G1 X89.369 Y150.872 E38.83033
G1 X89.142 Y150.477 E38.83791
G1 X88.987 Y150.049 E38.84548
G1 X88.9 Y149.383 E38.85665
G1 X88.9 Y65.264 E40.25555
G1 X88.94 Y64.81 E40.26313
G1 X89.058 Y64.37 E40.27071
G1 X89.252 Y63.958 E40.27828
G1 X89.662 Y63.426 E40.28945
G1 X90.128 Y63.016 E40.29977
G1 X90.523 Y62.789 E40.30735
G1 X90.951 Y62.634 E40.31492
G1 X91.617 Y62.547 E40.32609
M205 X30 Y30
G0 F3600 X91.617 Y62.147
M205 X15 Y15
G1 F1500 X141.383 Y62.147 E41.1537
G1 X142.346 Y62.306 E41.16993
G1 X142.795 Y62.5 E41.17806
G1 X143.207 Y62.765 E41.18621
G1 X143.57 Y63.093 E41.19435
G1 X143.875 Y63.476 E41.20249
G1 X144.113 Y63.904 E41.21063
G1 X144.279 Y64.364 E41.21877
G1 X144.383 Y65.143 E41.23184
G1 X144.5 Y149.379 E42.63269
G1 X144.461 Y149.867 E42.64083
G1 X144.343 Y150.342 E42.64897
G1 X144.149 Y150.791 E42.6571
G1 X143.885 Y151.203 E42.66524
G1 X143.504 Y151.621 E42.67464
G1 X143.131 Y151.938 E42.68279
G1 X142.711 Y152.19 E42.69093
G1 X142.256 Y152.37 E42.69907
G1 X141.778 Y152.474 E42.7072
G1 X141.383 Y152.5 E42.71379
G1 X91.617 Y152.5 E43.5414
G1 X91.129 Y152.46 E43.54954
G1 X90.654 Y152.341 E43.55768
G1 X90.205 Y152.147 E43.56582
G1 X89.793 Y151.882 E43.57397
G1 X89.379 Y151.504 E43.58329
G1 X89.062 Y151.131 E43.59143
G1 X88.81 Y150.711 E43.59957
G1 X88.63 Y150.256 E43.60771
G1 X88.526 Y149.778 E43.61585
G1 X88.5 Y149.383 E43.62243
G1 X88.5 Y65.264 E45.02133
G1 X88.54 Y64.776 E45.02948
G1 X88.659 Y64.301 E45.03762
G1 X88.853 Y63.852 E45.04575
G1 X89.118 Y63.44 E45.0539
G1 X89.496 Y63.026 E45.06322
G1 X89.869 Y62.709 E45.07136
G1 X90.289 Y62.457 E45.07951
G1 X90.744 Y62.277 E45.08765
G1 X91.222 Y62.173 E45.09578
G1 X91.617 Y62.147 E45.10237
M205 X30 Y30
G1 F1200 E41.60237
G1 F120 Z1.1
G0 F3600 X105.311 Y100.35 Z1.1
M205 X15 Y15
G1 F120 Z0.1
G1 F1200 E45.10237
G1 F1500 X104.857 Y100.24 E45.11013
G1 X104.379 Y100.202 E45.11811
G1 X101.165 Y100.236 E45.17156
G1 X100.697 Y100.347 E45.17956
G1 X100.261 Y100.527 E45.1874
G1 X99.857 Y100.773 E45.19527
G1 X99.492 Y101.084 E45.20324
G1 X99.081 Y101.545 E45.21351
G1 X98.832 Y101.947 E45.22138
G1 X98.647 Y102.393 E45.22941
G1 X98.538 Y102.845 E45.23714
G1 X98.5 Y103.32 E45.24506
G1 X98.5 Y105.683 E45.28436
G1 X98.534 Y106.134 E45.29188
G1 X98.643 Y106.597 E45.29979
G1 X98.824 Y107.036 E45.30769
G1 X99.07 Y107.441 E45.31557
G1 X99.377 Y107.802 E45.32345
G1 X99.848 Y108.22 E45.33392
G1 X100.247 Y108.467 E45.34173
G1 X100.69 Y108.652 E45.34971
G1 X101.144 Y108.761 E45.35748
G1 X101.622 Y108.799 E45.36545
G1 X104.381 Y108.798 E45.41133
G1 X104.835 Y108.764 E45.4189
G1 X105.303 Y108.653 E45.4269
G1 X105.739 Y108.473 E45.43475
G1 X106.144 Y108.226 E45.44264
G1 X106.508 Y107.916 E45.45059
G1 X106.919 Y107.455 E45.46086
G1 X107.168 Y107.052 E45.46874
G1 X107.353 Y106.607 E45.47675
G1 X107.462 Y106.155 E45.48448
G1 X107.5 Y105.68 E45.49241
G1 X107.5 Y103.318 E45.53169
G1 X107.466 Y102.867 E45.53921
G1 X107.355 Y102.398 E45.54722
G1 X107.175 Y101.963 E45.55505
G1 X106.929 Y101.559 E45.56292
G1 X106.618 Y101.194 E45.57089
G1 X106.157 Y100.783 E45.58116
G1 X105.755 Y100.534 E45.58903
G1 X105.311 Y100.35 E45.59702
M205 X30 Y30
G0 F3600 X105.192 Y100.733
M205 X15 Y15
G1 F1500 X104.792 Y100.636 E45.60387
G1 X104.36 Y100.602 E45.61107
G1 X101.224 Y100.633 E45.66323
G1 X100.822 Y100.728 E45.6701
G1 X100.442 Y100.885 E45.67693
G1 X100.093 Y101.097 E45.68372
G1 X99.772 Y101.37 E45.69073
G1 X99.403 Y101.786 E45.69998
G1 X99.187 Y102.134 E45.70679
G1 X99.03 Y102.513 E45.71361
G1 X98.934 Y102.908 E45.72037
G1 X98.9 Y103.342 E45.72761
G1 X98.9 Y105.664 E45.76623
G1 X98.931 Y106.077 E45.77312
G1 X99.025 Y106.474 E45.7799
G1 X99.182 Y106.855 E45.78675
G1 X99.396 Y107.206 E45.79359
G1 X99.667 Y107.525 E45.80055
G1 X100.085 Y107.896 E45.80984
G1 X100.432 Y108.111 E45.81663
G1 X100.814 Y108.27 E45.82351
G1 X101.206 Y108.365 E45.83022
G1 X101.641 Y108.399 E45.83748
G1 X104.364 Y108.398 E45.88276
G1 X104.776 Y108.367 E45.88963
G1 X105.178 Y108.272 E45.8965
G1 X105.558 Y108.115 E45.90334
G1 X105.908 Y107.902 E45.91015
G1 X106.228 Y107.63 E45.91714
G1 X106.597 Y107.214 E45.92639
G1 X106.813 Y106.866 E45.9332
G1 X106.97 Y106.487 E45.94002
G1 X107.066 Y106.092 E45.94678
G1 X107.1 Y105.658 E45.95402
G1 X107.1 Y103.337 E45.99262
G1 X107.069 Y102.926 E45.99947
G1 X106.974 Y102.525 E46.00632
G1 X106.816 Y102.142 E46.01321
G1 X106.605 Y101.795 E46.01997
G1 X106.332 Y101.474 E46.02698
G1 X105.916 Y101.105 E46.03622
G1 X105.568 Y100.889 E46.04303
G1 X105.192 Y100.733 E46.0498
M205 X30 Y30
G0 F3600 X105.066 Y101.115
M205 X15 Y15
G1 F1500 X104.729 Y101.033 E46.05557
G1 X104.341 Y101.002 E46.06205
G1 X101.283 Y101.03 E46.1129
G1 X100.949 Y101.109 E46.11861
G1 X100.618 Y101.245 E46.12456
G1 X100.332 Y101.42 E46.13014
G1 X100.05 Y101.66 E46.1363
G1 X99.725 Y102.025 E46.14442
G1 X99.545 Y102.316 E46.15011
G1 X99.412 Y102.635 E46.15586
G1 X99.331 Y102.971 E46.16161
G1 X99.3 Y103.361 E46.16811
G1 X99.3 Y105.646 E46.20611
G1 X99.328 Y106.019 E46.21233
G1 X99.406 Y106.347 E46.21794
G1 X99.54 Y106.674 E46.22382
G1 X99.721 Y106.972 E46.22962
G1 X99.953 Y107.244 E46.23556
G1 X100.327 Y107.576 E46.24388
G1 X100.614 Y107.754 E46.2495
G1 X100.936 Y107.888 E46.2553
G1 X101.268 Y107.968 E46.26097
G1 X101.66 Y107.999 E46.26751
G1 X104.346 Y107.998 E46.31218
G1 X104.718 Y107.97 E46.31839
G1 X105.051 Y107.891 E46.32408
G1 X105.379 Y107.756 E46.32998
G1 X105.672 Y107.577 E46.33569
G1 X105.95 Y107.34 E46.34176
G1 X106.275 Y106.975 E46.34989
G1 X106.455 Y106.684 E46.35558
G1 X106.588 Y106.365 E46.36133
G1 X106.669 Y106.029 E46.36707
G1 X106.7 Y105.639 E46.37358
G1 X106.7 Y103.355 E46.41156
G1 X106.672 Y102.983 E46.41777
G1 X106.592 Y102.645 E46.42354
G1 X106.46 Y102.325 E46.4293
G1 X106.282 Y102.034 E46.43497
G1 X106.042 Y101.752 E46.44113
G1 X105.676 Y101.426 E46.44928
G1 X105.389 Y101.248 E46.4549
G1 X105.066 Y101.115 E46.46071
M205 X30 Y30
G0 F3600 X104.938 Y101.494
M205 X15 Y15
G1 F1500 X104.323 Y101.402 E46.47105
G1 X101.671 Y101.402 E46.51515
G1 X101.073 Y101.49 E46.5252
G1 X100.564 Y101.748 E46.53469
G1 X100.33 Y101.946 E46.53979
G1 X100.047 Y102.265 E46.54688
G1 X99.793 Y102.761 E46.55615
G1 X99.7 Y103.379 E46.56654
G1 X99.7 Y105.63 E46.60398
G1 X99.789 Y106.228 E46.61403
G1 X100.044 Y106.733 E46.62344
G1 X100.242 Y106.967 E46.62854
G1 X100.564 Y107.252 E46.63569
G1 X101.059 Y107.506 E46.64494
G1 X101.678 Y107.599 E46.65535
G1 X104.33 Y107.598 E46.69945
G1 X104.927 Y107.51 E46.70949
G1 X105.433 Y107.255 E46.71891
G1 X105.67 Y107.054 E46.72408
G1 X105.953 Y106.735 E46.73117
G1 X106.207 Y106.239 E46.74044
G1 X106.3 Y105.621 E46.75083
G1 X106.3 Y103.371 E46.78825
G1 X106.209 Y102.767 E46.79841
G1 X105.954 Y102.266 E46.80776
G1 X105.756 Y102.032 E46.81285
G1 X105.437 Y101.749 E46.81995
G1 X104.938 Y101.494 E46.82926
M205 X30 Y30
G0 F3600 X105.027 Y101.959
M205 X15 Y15
G1 F1500 X105.49 Y102.329 E46.83912
