;FLAVOR:Marlin
;TIME:7509
;Filament used: 4.9733m
;Layer height: 0.15
;MINX:27.574
;MINY:57.5
;MINZ:0.1
;MAXX:87.574
;MAXY:152.5
;MAXZ:11.95
;Generated with Cura_SteamEngine 4.5.0
M140 S67
M105
M190 S67
M82 ;absolute extrusion mode
;Gcode by Cura
G90
M106 S255
G28 X Y
M109 R195
G28
M104 S191
G29
M107
G1 X100 Y10 F3000
G1 Z0.5
M109 S191
M82
G92 E0
G1 F200 E10
G92 E0
G1 Z3
G1 F6000
G92 E0
G92 E0
G1 F1200 E-3.5
;LAYER_COUNT:80
;LAYER:0
M106 S255
M205 X30 Y30
G1 F120 Z1.1
G0 F3600 X30.43 Y57.995 Z1.1
M205 X15 Y15
;TYPE:SKIRT
G1 F120 Z0.1
G1 F1200 E0
G1 F1500 X30.907 Y57.798 E0.00858
G1 X31.653 Y57.598 E0.02143
G1 X32.174 Y57.528 E0.03017
G1 X32.573 Y57.501 E0.03682
G1 X82.572 Y57.5 E0.86831
G1 X83.487 Y57.595 E0.8836
G1 X84.241 Y57.797 E0.89659
G1 X84.717 Y57.994 E0.90515
G1 X85.392 Y58.383 E0.91811
G1 X85.808 Y58.701 E0.92682
G1 X86.365 Y59.257 E0.9399
G1 X86.686 Y59.675 E0.94867
G1 X86.952 Y60.086 E0.95681
G1 X87.276 Y60.833 E0.97035
G1 X87.476 Y61.573 E0.9831
G1 X87.547 Y62.095 E0.99186
G1 X87.574 Y62.499 E0.99859
G1 X87.574 Y147.5 E2.41217
G1 X87.479 Y148.415 E2.42746
G1 X87.277 Y149.168 E2.44043
G1 X87.079 Y149.646 E2.44903
G1 X86.69 Y150.321 E2.46199
G1 X86.374 Y150.734 E2.47064
G1 X85.819 Y151.29 E2.4837
G1 X85.404 Y151.609 E2.49241
G1 X84.731 Y151.999 E2.50534
G1 X84.249 Y152.2 E2.51403
G1 X83.487 Y152.405 E2.52715
G1 X82.965 Y152.474 E2.53591
G1 X82.572 Y152.5 E2.54246
G1 X32.574 Y152.5 E3.37393
G1 X31.66 Y152.405 E3.38921
G1 X30.906 Y152.202 E3.40219
G1 X30.426 Y152.003 E3.41083
G1 X29.749 Y151.612 E3.42384
G1 X29.337 Y151.296 E3.43247
G1 X28.786 Y150.747 E3.44541
G1 X28.464 Y150.329 E3.45418
G1 X28.198 Y149.918 E3.46232
G1 X27.872 Y149.167 E3.47594
G1 X27.672 Y148.424 E3.48873
G1 X27.602 Y147.905 E3.49744
G1 X27.575 Y147.504 E3.50413
G1 X27.574 Y62.521 E4.9174
G1 X27.666 Y61.606 E4.93269
G1 X27.766 Y61.127 E4.94083
G1 X28.071 Y60.351 E4.9547
G1 X28.461 Y59.675 E4.96767
G1 X28.778 Y59.262 E4.97633
G1 X29.328 Y58.712 E4.98927
G1 X29.745 Y58.391 E4.99802
G1 X30.43 Y57.995 E5.01118
M205 X30 Y30
G0 F3600 X30.583 Y58.365
M205 X15 Y15
G1 F1500 X31.06 Y58.168 E5.01976
G1 X31.706 Y57.994 E5.03089
G1 X32.227 Y57.924 E5.03963
G1 X82.572 Y57.9 E5.87687
G1 X83.435 Y57.991 E5.8913
G1 X84.088 Y58.167 E5.90255
G1 X84.564 Y58.364 E5.91111
G1 X85.149 Y58.7 E5.92233
G1 X85.565 Y59.018 E5.93104
G1 X86.048 Y59.5 E5.94239
G1 X86.369 Y59.918 E5.95115
G1 X86.71 Y60.51 E5.96252
G1 X86.906 Y60.985 E5.97106
G1 X87.079 Y61.627 E5.98212
G1 X87.15 Y62.149 E5.99088
G1 X87.174 Y147.5 E7.41027
G1 X87.082 Y148.362 E7.42469
G1 X86.907 Y149.015 E7.43593
G1 X86.709 Y149.493 E7.44453
G1 X86.372 Y150.078 E7.45576
G1 X86.056 Y150.491 E7.46441
G1 X85.576 Y150.972 E7.47571
G1 X85.161 Y151.291 E7.48442
G1 X84.577 Y151.63 E7.49565
G1 X84.095 Y151.831 E7.50433
G1 X83.435 Y152.009 E7.5157
G1 X82.913 Y152.078 E7.52445
G1 X32.574 Y152.1 E8.3616
G1 X31.712 Y152.008 E8.37601
G1 X31.059 Y151.833 E8.38725
G1 X30.579 Y151.634 E8.3959
G1 X29.993 Y151.295 E8.40715
G1 X29.581 Y150.979 E8.41579
G1 X29.103 Y150.503 E8.42701
G1 X28.781 Y150.085 E8.43578
G1 X28.438 Y149.49 E8.4472
G1 X28.242 Y149.015 E8.45575
G1 X28.068 Y148.371 E8.46684
G1 X27.998 Y147.852 E8.47555
G1 X27.974 Y62.521 E9.89461
G1 X28.062 Y61.656 E9.90907
G1 X28.241 Y60.983 E9.92065
G1 X28.44 Y60.504 E9.92928
G1 X28.779 Y59.919 E9.94052
G1 X29.096 Y59.506 E9.94918
G1 X29.572 Y59.029 E9.96039
G1 X29.989 Y58.708 E9.96914
G1 X30.583 Y58.365 E9.98055
M205 X30 Y30
G0 F3600 X30.735 Y58.735
M205 X15 Y15
G1 F1500 X31.212 Y58.538 E9.98913
G1 X31.759 Y58.391 E9.99855
G1 X32.28 Y58.321 E10.00729
G1 X82.572 Y58.3 E10.84365
G1 X83.382 Y58.388 E10.8572
G1 X83.935 Y58.536 E10.86672
G1 X84.411 Y58.733 E10.87529
G1 X84.906 Y59.018 E10.88478
G1 X85.322 Y59.336 E10.89349
G1 X85.731 Y59.744 E10.9031
G1 X86.052 Y60.162 E10.91186
G1 X86.341 Y60.663 E10.92148
G1 X86.537 Y61.138 E10.93003
G1 X86.683 Y61.68 E10.93936
G1 X86.754 Y62.202 E10.94812
G1 X86.774 Y147.5 E12.36664
G1 X86.686 Y148.309 E12.38017
G1 X86.538 Y148.862 E12.38969
G1 X86.34 Y149.34 E12.39829
G1 X86.054 Y149.835 E12.4078
G1 X85.738 Y150.248 E12.41645
G1 X85.332 Y150.655 E12.42601
G1 X84.917 Y150.974 E12.43471
G1 X84.423 Y151.261 E12.44421
G1 X83.941 Y151.462 E12.4529
G1 X83.382 Y151.612 E12.46252
G1 X82.86 Y151.681 E12.47128
G1 X32.574 Y151.7 E13.30754
G1 X31.765 Y151.612 E13.32107
G1 X31.212 Y151.463 E13.3306
G1 X30.732 Y151.264 E13.33924
G1 X30.236 Y150.978 E13.34876
G1 X29.824 Y150.662 E13.35739
G1 X29.42 Y150.259 E13.36688
G1 X29.098 Y149.841 E13.37566
G1 X28.807 Y149.337 E13.38534
G1 X28.611 Y148.862 E13.39388
G1 X28.465 Y148.317 E13.40327
G1 X28.395 Y147.798 E13.41198
G1 X28.374 Y62.521 E14.83014
G1 X28.459 Y61.706 E14.84376
G1 X28.61 Y61.137 E14.85355
G1 X28.809 Y60.658 E14.86218
G1 X29.096 Y60.162 E14.87171
G1 X29.413 Y59.749 E14.88037
G1 X29.816 Y59.346 E14.88985
G1 X30.233 Y59.025 E14.8986
G1 X30.735 Y58.735 E14.90824
M205 X30 Y30
G0 F3600 X30.888 Y59.104
M205 X15 Y15
G1 F1500 X31.365 Y58.907 E14.91682
G1 X31.812 Y58.787 E14.92452
G1 X32.333 Y58.717 E14.93326
G1 X82.572 Y58.7 E15.76874
G1 X83.33 Y58.785 E15.78142
G1 X83.782 Y58.906 E15.7892
G1 X84.258 Y59.103 E15.79777
G1 X84.663 Y59.336 E15.80554
G1 X85.079 Y59.654 E15.81425
G1 X85.414 Y59.988 E15.82212
G1 X85.735 Y60.406 E15.83088
G1 X85.971 Y60.815 E15.83873
G1 X86.167 Y61.29 E15.84728
G1 X86.287 Y61.734 E15.85493
G1 X86.358 Y62.256 E15.86369
G1 X86.374 Y147.5 E17.2813
G1 X86.289 Y148.257 E17.29397
G1 X86.168 Y148.709 E17.30175
G1 X85.97 Y149.187 E17.31036
G1 X85.737 Y149.592 E17.31813
G1 X85.421 Y150.005 E17.32677
G1 X85.088 Y150.338 E17.33461
G1 X84.673 Y150.657 E17.34331
G1 X84.269 Y150.891 E17.35107
G1 X83.787 Y151.092 E17.35976
G1 X83.33 Y151.215 E17.36763
G1 X82.808 Y151.284 E17.37639
G1 X32.574 Y151.3 E18.21178
G1 X31.818 Y151.215 E18.22443
G1 X31.366 Y151.094 E18.23221
G1 X30.886 Y150.895 E18.24086
G1 X30.48 Y150.66 E18.24866
G1 X30.068 Y150.344 E18.25729
G1 X29.737 Y150.014 E18.26506
G1 X29.415 Y149.596 E18.27384
G1 X29.177 Y149.185 E18.28174
G1 X28.981 Y148.71 E18.29028
G1 X28.861 Y148.264 E18.29796
G1 X28.791 Y147.745 E18.30667
G1 X28.774 Y62.521 E19.72395
G1 X28.856 Y61.756 E19.73675
G1 X28.98 Y61.29 E19.74477
G1 X29.179 Y60.811 E19.75339
G1 X29.413 Y60.406 E19.76117
G1 X29.73 Y59.993 E19.76983
G1 X30.06 Y59.663 E19.77759
G1 X30.477 Y59.342 E19.78634
G1 X30.888 Y59.104 E19.79424
M205 X30 Y30
G0 F3600 X31.041 Y59.474
M205 X15 Y15
G1 F1500 X31.518 Y59.277 E19.80282
G1 X31.866 Y59.183 E19.80882
G1 X32.387 Y59.113 E19.81756
G1 X82.572 Y59.1 E20.65214
G1 X83.277 Y59.181 E20.66394
G1 X83.629 Y59.275 E20.67
G1 X84.105 Y59.472 E20.67857
G1 X84.42 Y59.654 E20.68462
G1 X84.836 Y59.972 E20.69333
G1 X85.096 Y60.231 E20.69943
G1 X85.417 Y60.649 E20.70819
G1 X85.601 Y60.968 E20.71432
G1 X85.797 Y61.443 E20.72286
G1 X85.89 Y61.788 E20.7288
G1 X85.961 Y62.31 E20.73757
G1 X85.974 Y147.5 E22.15428
G1 X85.893 Y148.204 E22.16607
G1 X85.798 Y148.556 E22.17213
G1 X85.6 Y149.034 E22.18073
G1 X85.419 Y149.349 E22.18678
G1 X85.103 Y149.762 E22.19542
G1 X84.844 Y150.021 E22.20151
G1 X84.429 Y150.34 E22.21022
G1 X84.115 Y150.522 E22.21625
G1 X83.633 Y150.723 E22.22494
G1 X83.277 Y150.819 E22.23107
G1 X82.755 Y150.888 E22.23983
G1 X32.574 Y150.9 E23.07434
G1 X31.87 Y150.819 E23.08613
G1 X31.519 Y150.724 E23.09217
G1 X31.039 Y150.525 E23.10081
G1 X30.723 Y150.343 E23.10688
G1 X30.311 Y150.027 E23.11551
G1 X30.054 Y149.77 E23.12156
G1 X29.732 Y149.352 E23.13033
G1 X29.547 Y149.032 E23.13648
G1 X29.351 Y148.557 E23.14502
G1 X29.258 Y148.21 E23.151
G1 X29.188 Y147.691 E23.15971
G1 X29.174 Y62.521 E24.57609
G1 X29.253 Y61.806 E24.58805
G1 X29.349 Y61.444 E24.59428
G1 X29.548 Y60.965 E24.60291
G1 X29.73 Y60.65 E24.60896
G1 X30.047 Y60.237 E24.61762
G1 X30.304 Y59.98 E24.62366
G1 X30.721 Y59.659 E24.63241
G1 X31.041 Y59.474 E24.63856
M205 X30 Y30
G0 F3600 X30.965 Y59.976
M205 X15 Y15
G1 F1500 X31.67 Y59.647 E24.6515
G1 X32.44 Y59.51 E24.6645
G1 X82.572 Y59.5 E25.4982
G1 X83.225 Y59.578 E25.50914
G1 X83.952 Y59.842 E25.522
G1 X84.593 Y60.29 E25.53501
G1 X85.1 Y60.893 E25.54811
G1 X85.427 Y61.596 E25.561
G1 X85.565 Y62.364 E25.57398
G1 X85.574 Y147.5 E26.9898
G1 X85.496 Y148.152 E27.00072
G1 X85.231 Y148.881 E27.01362
G1 X84.785 Y149.519 E27.02656
G1 X84.185 Y150.023 E27.03959
G1 X83.479 Y150.354 E27.05256
G1 X82.703 Y150.491 E27.06566
G1 X32.574 Y150.5 E27.89931
G1 X31.923 Y150.422 E27.91022
G1 X31.192 Y150.156 E27.92315
G1 X30.554 Y149.709 E27.93611
G1 X30.049 Y149.108 E27.94916
G1 X29.721 Y148.404 E27.96208
G1 X29.584 Y147.638 E27.97502
G1 X29.574 Y62.521 E29.39052
G1 X29.65 Y61.856 E29.40165
G1 X29.918 Y61.118 E29.41471
G1 X30.365 Y60.48 E29.42766
G1 X30.965 Y59.976 E29.44069
M205 X30 Y30
G0 F3600 X31.209 Y60.293
M205 X15 Y15
G1 F1500 X31.823 Y60.016 E29.4519
G1 X32.493 Y59.906 E29.46319
G1 X82.572 Y59.9 E30.296
G1 X83.173 Y59.974 E30.30607
G1 X83.799 Y60.212 E30.31721
G1 X84.35 Y60.607 E30.32849
G1 X84.783 Y61.137 E30.33987
G1 X85.058 Y61.748 E30.35101
G1 X85.169 Y62.418 E30.3623
G1 X85.174 Y147.5 E31.77722
G1 X85.1 Y148.099 E31.78726
G1 X84.861 Y148.728 E31.79845
G1 X84.468 Y149.276 E31.80967
G1 X83.942 Y149.706 E31.82096
G1 X83.325 Y149.985 E31.83222
G1 X82.651 Y150.095 E31.84358
G1 X32.574 Y150.1 E32.67637
G1 X31.976 Y150.026 E32.68639
G1 X31.345 Y149.786 E32.69761
G1 X30.798 Y149.392 E32.70882
G1 X30.366 Y148.864 E32.72017
G1 X30.09 Y148.252 E32.73133
G1 X29.98 Y147.584 E32.74259
G1 X29.974 Y62.521 E34.1572
G1 X30.047 Y61.906 E34.1675
G1 X30.287 Y61.272 E34.17877
G1 X30.682 Y60.724 E34.19
G1 X31.209 Y60.293 E34.20132
M205 X30 Y30
G0 F3600 X31.453 Y60.61
M205 X15 Y15
G1 F1500 X31.976 Y60.386 E34.21079
G1 X32.546 Y60.303 E34.22037
G1 X82.572 Y60.3 E35.0523
G1 X83.12 Y60.371 E35.06149
G1 X83.646 Y60.581 E35.07091
G1 X84.107 Y60.925 E35.08048
G1 X84.466 Y61.38 E35.09011
G1 X84.688 Y61.901 E35.09953
G1 X84.772 Y62.472 E35.10913
G1 X84.774 Y147.5 E36.52315
G1 X84.703 Y148.046 E36.53231
G1 X84.492 Y148.575 E36.54178
G1 X84.15 Y149.033 E36.55128
G1 X83.698 Y149.389 E36.56085
G1 X83.171 Y149.616 E36.5704
G1 X82.598 Y149.698 E36.58002
G1 X32.574 Y149.7 E37.41192
G1 X32.029 Y149.629 E37.42106
G1 X31.498 Y149.417 E37.43057
G1 X31.041 Y149.075 E37.44006
G1 X30.683 Y148.62 E37.44969
G1 X30.46 Y148.099 E37.45912
G1 X30.377 Y147.531 E37.46866
G1 X30.374 Y62.521 E38.88239
G1 X30.444 Y61.956 E38.89185
G1 X30.656 Y61.425 E38.90136
G1 X30.999 Y60.967 E38.91088
G1 X31.453 Y60.61 E38.92048
M205 X30 Y30
G1 F1200 E35.42048
G1 F120 Z1.1
;MESH:box.stl
G0 F3600 X83.469 Y60.94 Z1.1
M205 X15 Y15
;TYPE:WALL-OUTER
G1 F120 Z0.1
G1 F1200 E38.92048
G1 F1500 X83.843 Y61.227 E38.92832
G1 X84.132 Y61.602 E38.9362
G1 X84.309 Y62.032 E38.94393
G1 X84.374 Y62.512 E38.95198
G1 X84.374 Y147.491 E40.36519
G1 X84.312 Y147.963 E40.37311
G1 X84.131 Y148.399 E40.38096
G1 X83.846 Y148.771 E40.38875
G1 X83.478 Y149.054 E40.39647
G1 X83.037 Y149.238 E40.40442
G1 X82.563 Y149.3 E40.41237
G1 X32.583 Y149.3 E41.24354
G1 X32.112 Y149.238 E41.25144
G1 X31.675 Y149.057 E41.2593
G1 X31.303 Y148.771 E41.26711
G1 X31.017 Y148.4 E41.2749
G1 X30.838 Y147.968 E41.28267
G1 X30.775 Y147.492 E41.29066
G1 X30.774 Y62.527 E42.70363
G1 X30.836 Y62.037 E42.71185
G1 X31.017 Y61.601 E42.7197
G1 X31.303 Y61.229 E42.7275
G1 X31.674 Y60.943 E42.73529
G1 X32.107 Y60.764 E42.74308
G1 X32.582 Y60.701 E42.75105
G1 X82.563 Y60.7 E43.58224
G1 X83.039 Y60.762 E43.59022
G1 X83.469 Y60.94 E43.59796
M205 X30 Y30
G0 F3600 X83.627 Y61.061
G0 X83.359 Y61.41
G0 X83.322 Y61.457
G0 X74.712 Y141.191
G0 X75.184 Y141.352
M205 X15 Y15
G1 F1500 X75.134 Y142.173 E43.61164
G1 X75.281 Y143.023 E43.62599
G1 X75.659 Y143.848 E43.64108
G1 X76.184 Y144.483 E43.65478
G1 X76.876 Y144.998 E43.66912
G1 X77.674 Y145.327 E43.68348
G1 X78.53 Y145.446 E43.69785
G1 X79.39 Y145.35 E43.71224
G1 X80.196 Y145.042 E43.72659
G1 X80.901 Y144.543 E43.74095
G1 X81.46 Y143.883 E43.75534
G1 X81.838 Y143.107 E43.76969
G1 X82.01 Y142.26 E43.78407
G1 X81.97 Y141.398 E43.79842
G1 X81.712 Y140.573 E43.81279
G1 X81.259 Y139.836 E43.82718
G1 X80.636 Y139.238 E43.84154
G1 X79.885 Y138.812 E43.8559
G1 X79.05 Y138.587 E43.87028
G1 X78.187 Y138.576 E43.88463
G1 X77.346 Y138.779 E43.89902
G1 X76.546 Y139.207 E43.91411
G1 X75.947 Y139.77 E43.92778
G1 X75.476 Y140.493 E43.94213
G1 X75.184 Y141.352 E43.95722
M205 X30 Y30
G0 F3600 X75.172 Y141.551
G0 X74.788 Y141.274
M205 X15 Y15
;TYPE:WALL-INNER
G1 F1500 X74.732 Y142.195 E43.97256
G1 X74.896 Y143.142 E43.98854
G1 X75.317 Y144.062 E44.00537
G1 X75.906 Y144.775 E44.02075
G1 X76.677 Y145.349 E44.03673
G1 X77.569 Y145.716 E44.05277
G1 X78.525 Y145.849 E44.06883
G1 X79.485 Y145.742 E44.08489
G1 X80.386 Y145.398 E44.10093
G1 X81.173 Y144.84 E44.11697
G1 X81.798 Y144.103 E44.13304
G1 X82.22 Y143.236 E44.14908
G1 X82.412 Y142.291 E44.16511
G1 X82.367 Y141.328 E44.18115
G1 X82.079 Y140.406 E44.19721
G1 X81.573 Y139.583 E44.21328
G1 X80.877 Y138.915 E44.22932
G1 X80.038 Y138.439 E44.24536
G1 X79.105 Y138.188 E44.26143
G1 X78.142 Y138.175 E44.27744
G1 X77.202 Y138.402 E44.29353
G1 X76.311 Y138.879 E44.31033
G1 X75.638 Y139.511 E44.32569
G1 X75.113 Y140.317 E44.34168
G1 X74.788 Y141.274 E44.35849
M205 X30 Y30
G0 F3600 X74.392 Y141.196
M205 X15 Y15
G1 F1500 X74.33 Y142.217 E44.3755
G1 X74.511 Y143.261 E44.39312
G1 X74.975 Y144.276 E44.41168
G1 X75.628 Y145.067 E44.42874
G1 X76.478 Y145.7 E44.44636
G1 X77.464 Y146.105 E44.46409
G1 X77.513 Y146.111 E44.46491
G1 X78.469 Y146.244 E44.48096
G1 X78.52 Y146.252 E44.48182
G1 X79.58 Y146.134 E44.49956
G1 X80.576 Y145.754 E44.51729
G1 X81.445 Y145.137 E44.53501
G1 X82.136 Y144.323 E44.55277
G1 X82.602 Y143.365 E44.57048
G1 X82.814 Y142.322 E44.58818
G1 X82.764 Y141.258 E44.6059
G1 X82.446 Y140.239 E44.62365
G1 X81.887 Y139.33 E44.6414
G1 X81.118 Y138.592 E44.65912
G1 X80.191 Y138.066 E44.67685
G1 X79.161 Y137.789 E44.69458
G1 X78.097 Y137.774 E44.71228
G1 X77.058 Y138.025 E44.73005
G1 X76.076 Y138.551 E44.74858
G1 X75.329 Y139.252 E44.76562
G1 X74.75 Y140.141 E44.78326
G1 X74.392 Y141.196 E44.80179
M205 X30 Y30
G0 F3600 X37.11 Y138.149
G0 X36.138 Y138.136
G0 X35.188 Y138.365
G0 X34.288 Y138.847
G0 X33.608 Y139.486
G0 X32.712 Y141.191
G0 X33.184 Y141.352
M205 X15 Y15
;TYPE:WALL-OUTER
G1 F1500 X33.134 Y142.173 E44.81547
G1 X33.281 Y143.023 E44.82981
G1 X33.659 Y143.848 E44.8449
G1 X34.184 Y144.483 E44.8586
G1 X34.876 Y144.998 E44.87295
G1 X35.674 Y145.327 E44.8873
G1 X36.53 Y145.446 E44.90168
G1 X37.39 Y145.35 E44.91607
G1 X38.196 Y145.042 E44.93042
G1 X38.901 Y144.543 E44.94478
G1 X39.46 Y143.883 E44.95916
G1 X39.838 Y143.107 E44.97352
G1 X40.01 Y142.26 E44.98789
G1 X39.97 Y141.398 E45.00224
G1 X39.712 Y140.573 E45.01662
G1 X39.259 Y139.836 E45.031
G1 X38.636 Y139.238 E45.04536
G1 X37.885 Y138.812 E45.05972
G1 X37.05 Y138.587 E45.0741
G1 X36.187 Y138.576 E45.08846
G1 X35.346 Y138.779 E45.10285
G1 X34.546 Y139.207 E45.11793
G1 X33.947 Y139.77 E45.1316
G1 X33.476 Y140.493 E45.14595
G1 X33.184 Y141.352 E45.16104
M205 X30 Y30
G0 F3600 X33.172 Y141.551
G0 X32.788 Y141.274
M205 X15 Y15
;TYPE:WALL-INNER
G1 F1500 X32.732 Y142.195 E45.17639
G1 X32.896 Y143.142 E45.19237
G1 X33.317 Y144.062 E45.2092
G1 X33.906 Y144.775 E45.22458
G1 X34.677 Y145.349 E45.24056
G1 X35.569 Y145.716 E45.2566
G1 X36.525 Y145.849 E45.27265
G1 X37.485 Y145.742 E45.28872
G1 X38.386 Y145.398 E45.30475
G1 X39.173 Y144.84 E45.3208
G1 X39.798 Y144.103 E45.33687
G1 X40.22 Y143.236 E45.3529
G1 X40.412 Y142.291 E45.36894
G1 X40.367 Y141.328 E45.38497
G1 X40.079 Y140.406 E45.40104
G1 X39.573 Y139.583 E45.4171
