;FLAVOR:Marlin
;TIME:565
;Filament used: 0.404205m
;Layer height: 0.15
;MINX:46.48
;MINY:38.523
;MINZ:0.1
;MAXX:90.958
;MAXY:68.523
;MAXZ:4.1
;Generated with Cura_SteamEngine 4.5.0
M140 S67
M105
M190 S67
M82 ;absolute extrusion mode
;Gcode by Cura
G90
M106 S255
G28 X Y
M109 R195
G28
M104 S191
G29
M107
G1 X100 Y10 F3000
G1 Z0.5
M109 S191
M82
G92 E0
G1 F200 E10
G92 E0
G1 Z3
G1 F6000
G92 E0
G92 E0
G1 F1200 E-3.5
;LAYER_COUNT:27
;LAYER:0
M106 S255
M205 X30 Y30
G1 F120 Z1.1
G0 F3600 X47.098 Y39.699 Z1.1
M205 X15 Y15
;TYPE:SKIRT
G1 F120 Z0.1
G1 F1200 E0
G1 F1500 X47.426 Y39.336 E0.00854
G1 X47.809 Y39.031 E0.01709
G1 X48.237 Y38.793 E0.02564
G1 X48.697 Y38.627 E0.03418
G1 X49.48 Y38.523 E0.04798
G1 X87.958 Y38.523 E0.71986
G1 X88.921 Y38.682 E0.7369
G1 X89.37 Y38.876 E0.74545
G1 X89.782 Y39.141 E0.754
G1 X90.145 Y39.469 E0.76254
G1 X90.45 Y39.852 E0.77109
G1 X90.688 Y40.28 E0.77964
G1 X90.854 Y40.74 E0.78818
G1 X90.958 Y41.523 E0.80197
G1 X90.958 Y65.523 E1.22105
G1 X90.918 Y66.011 E1.2296
G1 X90.799 Y66.486 E1.23815
G1 X90.605 Y66.935 E1.24669
G1 X90.34 Y67.347 E1.25525
G1 X90.012 Y67.71 E1.26379
G1 X89.629 Y68.015 E1.27234
G1 X89.201 Y68.253 E1.28089
G1 X88.741 Y68.419 E1.28943
G1 X87.958 Y68.523 E1.30322
G1 X49.48 Y68.523 E1.97511
G1 X48.992 Y68.483 E1.98366
G1 X48.517 Y68.364 E1.99221
G1 X48.068 Y68.17 E2.00075
G1 X47.656 Y67.905 E2.0093
G1 X47.293 Y67.577 E2.01785
G1 X46.988 Y67.194 E2.0264
G1 X46.75 Y66.766 E2.03495
G1 X46.584 Y66.306 E2.04349
G1 X46.48 Y65.523 E2.05728
G1 X46.48 Y41.523 E2.47636
G1 X46.52 Y41.035 E2.48491
G1 X46.639 Y40.56 E2.49346
G1 X46.833 Y40.111 E2.502
G1 X47.098 Y39.699 E2.51055
M205 X30 Y30
G0 F3600 X47.495 Y39.844
M205 X15 Y15
G1 F1500 X47.818 Y39.523 E2.5185
G1 X48.193 Y39.264 E2.52646
G1 X48.607 Y39.074 E2.53442
G1 X49.048 Y38.959 E2.54237
G1 X49.48 Y38.923 E2.54994
G1 X87.958 Y38.923 E3.22183
G1 X88.852 Y39.081 E3.23768
G1 X89.264 Y39.275 E3.24563
G1 X89.637 Y39.538 E3.2536
G1 X89.958 Y39.861 E3.26156
G1 X90.217 Y40.236 E3.26951
G1 X90.407 Y40.65 E3.27747
G1 X90.522 Y41.091 E3.28543
G1 X90.558 Y41.523 E3.29299
G1 X90.558 Y65.523 E3.71207
G1 X90.518 Y65.977 E3.72003
G1 X90.4 Y66.417 E3.72799
G1 X90.206 Y66.829 E3.73594
G1 X89.943 Y67.202 E3.74391
G1 X89.62 Y67.523 E3.75186
G1 X89.245 Y67.782 E3.75982
G1 X88.831 Y67.972 E3.76777
G1 X88.39 Y68.087 E3.77573
G1 X87.958 Y68.123 E3.7833
G1 X49.48 Y68.123 E4.45518
G1 X49.026 Y68.083 E4.46314
G1 X48.586 Y67.965 E4.4711
G1 X48.174 Y67.771 E4.47905
G1 X47.801 Y67.508 E4.48702
G1 X47.48 Y67.185 E4.49497
G1 X47.221 Y66.81 E4.50293
G1 X47.031 Y66.396 E4.51088
G1 X46.916 Y65.955 E4.51884
G1 X46.88 Y65.523 E4.52641
G1 X46.88 Y41.523 E4.94549
G1 X46.92 Y41.069 E4.95345
G1 X47.038 Y40.629 E4.9614
G1 X47.232 Y40.217 E4.96935
G1 X47.495 Y39.844 E4.97732
M205 X30 Y30
G0 F3600 X47.631 Y40.332
M205 X15 Y15
G1 F1500 X47.89 Y40.003 E4.98463
G1 X48.207 Y39.729 E4.99195
G1 X48.57 Y39.52 E4.99926
G1 X48.967 Y39.384 E5.00659
G1 X49.48 Y39.323 E5.01561
G1 X87.958 Y39.323 E5.6875
G1 X88.777 Y39.481 E5.70206
G1 X89.149 Y39.674 E5.70938
G1 X89.478 Y39.933 E5.71669
G1 X89.752 Y40.25 E5.72401
G1 X89.961 Y40.613 E5.73132
G1 X90.097 Y41.01 E5.73865
G1 X90.158 Y41.523 E5.74767
G1 X90.158 Y65.523 E6.16675
G1 X90.118 Y65.94 E6.17406
G1 X90 Y66.342 E6.18138
G1 X89.807 Y66.714 E6.1887
G1 X89.548 Y67.043 E6.19601
G1 X89.231 Y67.317 E6.20333
G1 X88.868 Y67.526 E6.21064
G1 X88.471 Y67.662 E6.21797
G1 X87.958 Y67.723 E6.22699
G1 X49.48 Y67.723 E6.89887
G1 X49.063 Y67.683 E6.90619
G1 X48.661 Y67.565 E6.91351
G1 X48.289 Y67.372 E6.92082
G1 X47.96 Y67.113 E6.92813
G1 X47.686 Y66.796 E6.93545
G1 X47.477 Y66.433 E6.94277
G1 X47.341 Y66.036 E6.95009
G1 X47.28 Y65.523 E6.95911
G1 X47.28 Y41.523 E7.37819
G1 X47.32 Y41.106 E7.38551
G1 X47.438 Y40.704 E7.39282
G1 X47.631 Y40.332 E7.40014
M205 X30 Y30
G0 F3600 X48.028 Y40.459
M205 X15 Y15
G1 F1500 X48.283 Y40.178 E7.40677
G1 X48.592 Y39.958 E7.41339
G1 X48.939 Y39.806 E7.42
G1 X49.48 Y39.723 E7.42956
G1 X87.958 Y39.723 E8.10145
G1 X88.695 Y39.881 E8.11461
G1 X89.022 Y40.071 E8.12121
G1 X89.303 Y40.326 E8.12784
G1 X89.523 Y40.635 E8.13446
G1 X89.675 Y40.982 E8.14108
G1 X89.758 Y41.523 E8.15063
G1 X89.758 Y65.523 E8.56971
G1 X89.718 Y65.9 E8.57633
G1 X89.6 Y66.26 E8.58295
G1 X89.41 Y66.587 E8.58955
G1 X89.155 Y66.868 E8.59618
G1 X88.846 Y67.088 E8.6028
G1 X88.499 Y67.24 E8.60942
G1 X87.958 Y67.323 E8.61897
G1 X49.48 Y67.323 E9.29086
G1 X49.103 Y67.283 E9.29748
G1 X48.743 Y67.165 E9.30409
G1 X48.416 Y66.975 E9.3107
G1 X48.135 Y66.72 E9.31732
G1 X47.915 Y66.411 E9.32395
G1 X47.763 Y66.064 E9.33056
G1 X47.68 Y65.523 E9.34012
G1 X47.68 Y41.523 E9.7592
G1 X47.72 Y41.146 E9.76582
G1 X47.838 Y40.786 E9.77243
G1 X48.028 Y40.459 E9.77904
M205 X30 Y30
G0 F3600 X48.425 Y40.602
M205 X15 Y15
G1 F1500 X48.673 Y40.379 E9.78486
G1 X48.967 Y40.22 E9.7907
G1 X49.48 Y40.123 E9.79981
G1 X87.958 Y40.123 E10.4717
G1 X88.602 Y40.28 E10.48327
G1 X88.879 Y40.468 E10.48912
G1 X89.102 Y40.716 E10.49494
G1 X89.261 Y41.01 E10.50078
G1 X89.358 Y41.523 E10.5099
G1 X89.358 Y65.523 E10.92897
G1 X89.318 Y65.855 E10.93481
G1 X89.201 Y66.167 E10.94063
G1 X89.013 Y66.444 E10.94648
G1 X88.765 Y66.667 E10.9523
G1 X88.471 Y66.826 E10.95814
G1 X87.958 Y66.923 E10.96725
G1 X49.48 Y66.923 E11.63914
G1 X49.148 Y66.883 E11.64498
G1 X48.836 Y66.766 E11.6508
G1 X48.559 Y66.578 E11.65664
G1 X48.336 Y66.33 E11.66247
G1 X48.177 Y66.036 E11.6683
G1 X48.08 Y65.523 E11.67742
G1 X48.08 Y41.523 E12.0965
G1 X48.12 Y41.191 E12.10234
G1 X48.237 Y40.879 E12.10816
G1 X48.425 Y40.602 E12.114
M205 X30 Y30
G0 F3600 X48.636 Y40.987
M205 X15 Y15
G1 F1500 X48.819 Y40.772 E12.11893
G1 X49.055 Y40.618 E12.12385
G1 X49.48 Y40.523 E12.13146
G1 X87.958 Y40.523 E12.80334
G1 X88.494 Y40.679 E12.81309
G1 X88.709 Y40.862 E12.81802
G1 X88.863 Y41.098 E12.82294
G1 X88.958 Y41.523 E12.83055
G1 X88.958 Y65.523 E13.24962
G1 X88.918 Y65.802 E13.25454
G1 X88.802 Y66.059 E13.25947
G1 X88.619 Y66.274 E13.2644
G1 X88.383 Y66.428 E13.26932
G1 X87.958 Y66.523 E13.27692
G1 X49.48 Y66.523 E13.94881
G1 X49.201 Y66.483 E13.95373
G1 X48.944 Y66.367 E13.95866
G1 X48.729 Y66.184 E13.96359
G1 X48.575 Y65.948 E13.96851
G1 X48.48 Y65.523 E13.97611
G1 X48.48 Y41.523 E14.39519
G1 X48.52 Y41.244 E14.40011
G1 X48.636 Y40.987 E14.40503
M205 X30 Y30
G0 F3600 X49.033 Y41.122
M205 X15 Y15
G1 F1500 X49.206 Y40.989 E14.40884
G1 X49.48 Y40.923 E14.41376
G1 X87.958 Y40.923 E15.08565
G1 X88.359 Y41.076 E15.09315
G1 X88.492 Y41.249 E15.09696
G1 X88.558 Y41.523 E15.10188
G1 X88.558 Y65.523 E15.52095
G1 X88.518 Y65.738 E15.52477
G1 X88.405 Y65.924 E15.52857
G1 X88.232 Y66.057 E15.53238
G1 X87.958 Y66.123 E15.53731
G1 X49.48 Y66.123 E16.20919
G1 X49.265 Y66.083 E16.21301
G1 X49.079 Y65.97 E16.21681
G1 X48.946 Y65.797 E16.22062
G1 X48.88 Y65.523 E16.22554
G1 X48.88 Y41.523 E16.64462
G1 X48.92 Y41.308 E16.64844
G1 X49.033 Y41.122 E16.65224
M205 X30 Y30
G0 F3600 X49.319 Y41.404
M205 X15 Y15
G1 F1500 X49.48 Y41.323 E16.65539
G1 X87.958 Y41.323 E17.32727
G1 X88.077 Y41.362 E17.32946
G1 X88.158 Y41.523 E17.33261
G1 X88.158 Y65.523 E17.75168
G1 X88.119 Y65.642 E17.75387
G1 X87.958 Y65.723 E17.75702
G1 X49.48 Y65.723 E18.4289
G1 X49.361 Y65.684 E18.43109
G1 X49.28 Y65.523 E18.43424
G1 X49.28 Y41.523 E18.85332
G1 X49.319 Y41.404 E18.8555
M205 X30 Y30
G1 F1200 E15.3555
G1 F120 Z1.1
;MESH:kickstand.stl
G0 F3600 X49.68 Y65.323 Z1.1
M205 X15 Y15
;TYPE:WALL-OUTER
G1 F120 Z0.1
G1 F1200 E18.8555
G1 F1500 X49.68 Y41.723 E19.2676
G1 X87.758 Y41.723 E19.9325
G1 X87.758 Y65.323 E20.34459
G1 X49.68 Y65.323 E21.00949
M205 X30 Y30
G0 F3600 X49.68 Y65.123
G0 X50.12 Y64.883
G0 X50.18 Y64.883
G0 X54.258 Y62.723
G0 X54.758 Y62.723
M205 X15 Y15
G1 F1500 X85.158 Y62.723 E21.54032
G1 X85.158 Y44.323 E21.86162
G1 X54.758 Y44.323 E22.39245
G1 X54.758 Y62.723 E22.71374
M205 X30 Y30
G0 F3600 X54.958 Y62.723
G0 X54.358 Y63.123
M205 X15 Y15
;TYPE:WALL-INNER
G1 F1500 X85.558 Y63.123 E23.25854
G1 X85.558 Y43.923 E23.5938
G1 X54.358 Y43.923 E24.13861
G1 X54.358 Y63.123 E24.47387
M205 X30 Y30
G0 F3600 X53.958 Y63.523
M205 X15 Y15
G1 F1500 X85.958 Y63.523 E25.03264
G1 X85.958 Y43.523 E25.38187
G1 X53.958 Y43.523 E25.94064
G1 X53.958 Y63.523 E26.28987
M205 X30 Y30
G0 F3600 X50.15 Y64.853
G0 X50.08 Y64.923
M205 X15 Y15
G1 F1500 X50.08 Y42.123 E26.68799
G1 X87.358 Y42.123 E27.33893
G1 X87.358 Y64.923 E27.73705
G1 X50.08 Y64.923 E28.38798
M205 X30 Y30
G0 F3600 X50.48 Y64.523
M205 X15 Y15
G1 F1500 X50.48 Y42.523 E28.77214
G1 X86.958 Y42.523 E29.4091
G1 X86.958 Y64.523 E29.79326
G1 X50.48 Y64.523 E30.43022
M205 X30 Y30
G0 F3600 X50.87 Y64.133
M205 X15 Y15
;TYPE:SKIN
G1 F1500 X50.87 Y42.913 E30.80075
G1 X86.568 Y42.913 E31.4241
G1 X86.568 Y64.133 E31.79463
G1 X50.87 Y64.133 E32.41797
M205 X30 Y30
G0 F3600 X53.568 Y63.913
M205 X15 Y15
G1 F1500 X86.348 Y63.913 E32.99036
G1 X86.348 Y43.133 E33.35322
G1 X53.568 Y43.133 E33.92561
G1 X53.568 Y63.913 E34.28846
M205 X30 Y30
G0 F3600 X51.507 Y63.952
M205 X15 Y15
G1 F1500 X51.049 Y63.494 E34.29977
M205 X30 Y30
G0 F3600 X51.049 Y62.928
M205 X15 Y15
G1 F1500 X52.072 Y63.952 E34.32504
M205 X30 Y30
G0 F3600 X52.638 Y63.952
M205 X15 Y15
G1 F1500 X51.049 Y62.363 E34.36428
M205 X30 Y30
G0 F3600 X51.049 Y61.797
M205 X15 Y15
G1 F1500 X53.204 Y63.952 E34.4175
M205 X30 Y30
G0 F3600 X53.387 Y63.57
M205 X15 Y15
G1 F1500 X51.049 Y61.231 E34.47525
M205 X30 Y30
G0 F3600 X51.049 Y60.666
M205 X15 Y15
G1 F1500 X53.387 Y63.004 E34.53298
M205 X30 Y30
G0 F3600 X53.387 Y62.438
M205 X15 Y15
G1 F1500 X51.049 Y60.1 E34.59072
M205 X30 Y30
G0 F3600 X51.049 Y59.534
M205 X15 Y15
G1 F1500 X53.387 Y61.873 E34.64846
M205 X30 Y30
G0 F3600 X53.387 Y61.307
M205 X15 Y15
G1 F1500 X51.049 Y58.969 E34.7062
M205 X30 Y30
G0 F3600 X51.049 Y58.403
M205 X15 Y15
G1 F1500 X53.387 Y60.741 E34.76394
M205 X30 Y30
G0 F3600 X53.387 Y60.176
M205 X15 Y15
G1 F1500 X51.049 Y57.837 E34.82168
M205 X30 Y30
G0 F3600 X51.049 Y57.272
M205 X15 Y15
G1 F1500 X53.387 Y59.61 E34.87942
M205 X30 Y30
G0 F3600 X53.387 Y59.044
M205 X15 Y15
G1 F1500 X51.049 Y56.706 E34.93715
M205 X30 Y30
G0 F3600 X51.049 Y56.14
M205 X15 Y15
G1 F1500 X53.387 Y58.479 E34.9949
M205 X30 Y30
G0 F3600 X53.387 Y57.913
M205 X15 Y15
G1 F1500 X51.049 Y55.575 E35.05264
M205 X30 Y30
G0 F3600 X51.049 Y55.009
M205 X15 Y15
G1 F1500 X53.387 Y57.347 E35.11037
M205 X30 Y30
G0 F3600 X53.387 Y56.782
M205 X15 Y15
G1 F1500 X51.049 Y54.443 E35.16812
M205 X30 Y30
G0 F3600 X51.049 Y53.878
M205 X15 Y15
G1 F1500 X53.387 Y56.216 E35.22586
M205 X30 Y30
G0 F3600 X53.387 Y55.65
M205 X15 Y15
G1 F1500 X51.049 Y53.312 E35.28359
M205 X30 Y30
G0 F3600 X51.049 Y52.746
M205 X15 Y15
G1 F1500 X53.387 Y55.085 E35.34134
M205 X30 Y30
G0 F3600 X53.387 Y54.519
M205 X15 Y15
G1 F1500 X51.049 Y52.18 E35.39909
M205 X30 Y30
G0 F3600 X51.049 Y51.615
M205 X15 Y15
G1 F1500 X53.387 Y53.953 E35.45682
M205 X30 Y30
G0 F3600 X53.387 Y53.387
M205 X15 Y15
G1 F1500 X51.049 Y51.049 E35.51456
M205 X30 Y30
G0 F3600 X51.049 Y50.483
M205 X15 Y15
G1 F1500 X53.387 Y52.822 E35.57231
M205 X30 Y30
G0 F3600 X53.387 Y52.256
M205 X15 Y15
G1 F1500 X51.049 Y49.918 E35.63004
M205 X30 Y30
G0 F3600 X51.049 Y49.352
M205 X15 Y15
G1 F1500 X53.387 Y51.69 E35.68778
M205 X30 Y30
G0 F3600 X53.387 Y51.125
M205 X15 Y15
G1 F1500 X51.049 Y48.786 E35.74553
M205 X30 Y30
G0 F3600 X51.049 Y48.221
M205 X15 Y15
G1 F1500 X53.387 Y50.559 E35.80326
M205 X30 Y30
G0 F3600 X53.387 Y49.993
M205 X15 Y15
G1 F1500 X51.049 Y47.655 E35.861
M205 X30 Y30
G0 F3600 X51.049 Y47.089
M205 X15 Y15
G1 F1500 X53.387 Y49.428 E35.91874
M205 X30 Y30
G0 F3600 X53.387 Y48.862
M205 X15 Y15
G1 F1500 X51.049 Y46.524 E35.97648
M205 X30 Y30
G0 F3600 X51.049 Y45.958
M205 X15 Y15
G1 F1500 X53.387 Y48.296 E36.03422
M205 X30 Y30
G0 F3600 X53.387 Y47.731
M205 X15 Y15
G1 F1500 X51.049 Y45.392 E36.09196
M205 X30 Y30
G0 F3600 X51.049 Y44.827
M205 X15 Y15
G1 F1500 X53.387 Y47.165 E36.1497
M205 X30 Y30
G0 F3600 X53.387 Y46.599
M205 X15 Y15
G1 F1500 X51.049 Y44.261 E36.20743
M205 X30 Y30
G0 F3600 X51.049 Y43.695
M205 X15 Y15
G1 F1500 X53.387 Y46.034 E36.26518
M205 X30 Y30
G0 F3600 X53.387 Y45.468
M205 X15 Y15
G1 F1500 X51.049 Y43.129 E36.32293
M205 X30 Y30
G0 F3600 X51.578 Y43.093
M205 X15 Y15
G1 F1500 X53.387 Y44.902 E36.3676
M205 X30 Y30
G0 F3600 X53.387 Y44.337
M205 X15 Y15
G1 F1500 X52.144 Y43.093 E36.39831
M205 X30 Y30
G0 F3600 X52.709 Y43.093
M205 X15 Y15
G1 F1500 X53.387 Y43.771 E36.41505
M205 X30 Y30
G0 F3600 X53.387 Y43.205
M104 S191
M205 X15 Y15
G1 F1500 X53.275 Y43.093 E36.41782
M205 X30 Y30
;MESH:NONMESH
G0 F120 X53.275 Y43.093 Z0.25
G0 F3600 X53.958 Y63.523
;TIME_ELAPSED:89.147968
;LAYER:1
M140 S62
M205 X15 Y15
;TYPE:WALL-INNER
;MESH:kickstand.stl
G1 F2250 X85.958 Y63.523 E37.25597
G1 X85.958 Y43.523 E37.77982
G1 X53.958 Y43.523 E38.61798
G1 X53.958 Y63.523 E39.14182
M205 X30 Y30
G0 F5400 X54.358 Y63.123
M205 X15 Y15
G1 F2250 X85.558 Y63.123 E39.95902
G1 X85.558 Y43.923 E40.46192
G1 X54.358 Y43.923 E41.27912
G1 X54.358 Y63.123 E41.78201
M205 X30 Y30
G0 F5400 X54.758 Y62.723
M205 X15 Y15
;TYPE:WALL-OUTER
G1 F1500 X85.158 Y62.723 E42.57826
G1 X85.158 Y44.323 E43.0602
G1 X54.758 Y44.323 E43.85645
G1 X54.758 Y62.723 E44.33839
M205 X30 Y30
G0 F5400 X54.958 Y62.723
G0 X54.958 Y63.163
G0 X54.958 Y63.223
G0 X50.101 Y64.523
M205 X15 Y15
;TYPE:WALL-INNER
G1 F2250 X50.101 Y42.523 E44.91462
G1 X86.958 Y42.523 E45.87999
G1 X86.958 Y64.523 E46.45622
G1 X50.101 Y64.523 E47.42159
M205 X30 Y30
G0 F5400 X49.701 Y64.923
M205 X15 Y15
G1 F2250 X49.701 Y42.123 E48.01878
G1 X87.358 Y42.123 E49.0051
G1 X87.358 Y64.923 E49.60229
G1 X49.701 Y64.923 E50.58862
M205 X30 Y30
G0 F5400 X49.301 Y65.323
M205 X15 Y15
;TYPE:WALL-OUTER
G1 F1500 X49.301 Y41.723 E51.20676
G1 X87.758 Y41.723 E52.21403
G1 X87.758 Y65.323 E52.83217
G1 X49.301 Y65.323 E53.83945
M205 X30 Y30
G0 F5400 X49.301 Y65.123
G0 X49.741 Y64.883
G0 X49.801 Y64.883
G0 X50.491 Y64.133
M205 X15 Y15
;TYPE:SKIN
G1 F1500 X50.491 Y42.913 E54.39526
G1 X86.568 Y42.913 E55.3402
G1 X86.568 Y64.133 E55.896
G1 X50.491 Y64.133 E56.84094
M205 X30 Y30
G0 F5400 X53.568 Y63.913
M205 X15 Y15
G1 F1500 X86.348 Y63.913 E57.69953
G1 X86.348 Y43.133 E58.2438
G1 X53.568 Y43.133 E59.10239
G1 X53.568 Y63.913 E59.64667
M205 X30 Y30
G0 F5400 X53.144 Y63.952
M205 X15 Y15
G1 F1500 X53.387 Y63.709 E59.65567
M205 X30 Y30
G0 F5400 X53.387 Y63.143
M205 X15 Y15
G1 F1500 X52.579 Y63.952 E59.68562
M205 X30 Y30
G0 F5400 X52.013 Y63.952
M205 X15 Y15
G1 F1500 X53.387 Y62.578 E59.73651
M205 X30 Y30
G0 F5400 X53.387 Y62.012
M205 X15 Y15
G1 F1500 X51.447 Y63.952 E59.80837
M205 X30 Y30
G0 F5400 X50.881 Y63.952
M205 X15 Y15
G1 F1500 X53.387 Y61.446 E59.9012
M205 X30 Y30
G0 F5400 X53.387 Y60.881
M205 X15 Y15
G1 F1500 X50.671 Y63.597 E60.0018
M205 X30 Y30
G0 F5400 X50.671 Y63.031
M205 X15 Y15
G1 F1500 X53.387 Y60.315 E60.10241
M205 X30 Y30
G0 F5400 X53.387 Y59.749
M205 X15 Y15
G1 F1500 X50.671 Y62.465 E60.20301
M205 X30 Y30
G0 F5400 X50.671 Y61.9
M205 X15 Y15
G1 F1500 X53.387 Y59.184 E60.30362
M205 X30 Y30
G0 F5400 X53.387 Y58.618
M205 X15 Y15
G1 F1500 X50.671 Y61.334 E60.40422
M205 X30 Y30
G0 F5400 X50.671 Y60.768
M205 X15 Y15
G1 F1500 X53.387 Y58.052 E60.50483
M205 X30 Y30
G0 F5400 X53.387 Y57.487
M205 X15 Y15
G1 F1500 X50.671 Y60.203 E60.60543
M205 X30 Y30
G0 F5400 X50.671 Y59.637
M205 X15 Y15
G1 F1500 X53.387 Y56.921 E60.70604
M205 X30 Y30
G0 F5400 X53.387 Y56.355
M205 X15 Y15
G1 F1500 X50.671 Y59.071 E60.80664
M205 X30 Y30
G0 F5400 X50.671 Y58.506
M205 X15 Y15
G1 F1500 X53.387 Y55.79 E60.90725
M205 X30 Y30
