;FLAVOR:Marlin
;TIME:5614
;Filament used: 4.10082m
;Layer height: 0.15
;MINX:85.349
;MINY:34.324
;MINZ:0.1
;MAXX:131.651
;MAXY:93.786
;MAXZ:22.15
;Generated with Cura_SteamEngine 4.5.0
M140 S69
M105
M190 S69
M82 ;absolute extrusion mode
;Gcode by Cura
G90
M106 S255
G28 X Y
M109 R195
G28
M104 S195
G29
M107
G1 X100 Y10 F3000
G1 Z0.5
M109 S195
M82
G92 E0
G1 F200 E10
G92 E0
G1 Z3
G1 X120 Y10
G1 Z0.5
G92 E0
G1 F200 E10
G92 E0
G1 Z3
G1 F6000
G92 E0
G92 E0
G1 F1800 E-3.5
;LAYER_COUNT:148
;LAYER:0
M106 S255
M205 X30 Y30
G1 F180 Z1.1
G0 F3600 X87.062 Y45.798 Z1.1
M205 X15 Y15
;TYPE:SKIRT
G1 F180 Z0.1
G1 F1800 E0
G1 F1500 X88.038 Y44.261 E0.03164
G1 X89.201 Y42.87 E0.06315
G1 X90.548 Y41.631 E0.09496
G1 X92.045 Y40.58 E0.12674
G1 X92.444 Y40.346 E0.13478
G1 X94.304 Y36.551 E0.20823
G1 X94.582 Y36.075 E0.21781
G1 X94.925 Y35.645 E0.22737
G1 X95.454 Y35.17 E0.23972
G1 X96.055 Y34.775 E0.25222
G1 X96.558 Y34.551 E0.26179
G1 X97.088 Y34.401 E0.27136
G1 X97.851 Y34.324 E0.28469
G1 X119.167 Y34.324 E0.65513
G1 X119.717 Y34.364 E0.66471
G1 X120.255 Y34.483 E0.67429
G1 X120.77 Y34.679 E0.68386
G1 X121.287 Y34.968 E0.69415
G1 X121.731 Y35.295 E0.70374
G1 X122.123 Y35.682 E0.71331
G1 X122.455 Y36.121 E0.72288
G1 X124.556 Y40.346 E0.80488
G1 X125.951 Y41.246 E0.83373
G1 X127.328 Y42.399 E0.86494
G1 X128.568 Y43.747 E0.89677
G1 X128.875 Y44.142 E0.90546
G1 X129.619 Y45.243 E0.92856
G1 X130.462 Y46.86 E0.96025
G1 X131.087 Y48.569 E0.99187
G1 X131.484 Y50.344 E1.02348
G1 X131.646 Y52.161 E1.05518
G1 X131.649 Y52.661 E1.06387
G1 X131.569 Y53.994 E1.08708
G1 X131.256 Y55.785 E1.11867
G1 X130.714 Y57.519 E1.15024
G1 X130.522 Y57.988 E1.15905
G1 X129.938 Y59.185 E1.1822
G1 X128.962 Y60.722 E1.21384
G1 X127.799 Y62.113 E1.24535
G1 X126.452 Y63.352 E1.27715
G1 X126.056 Y63.659 E1.28586
G1 X124.953 Y64.404 E1.30899
G1 X123.339 Y65.246 E1.34063
G1 X121.63 Y65.871 E1.37225
G1 X120.375 Y66.161 E1.39464
G1 X121.055 Y66.293 E1.40667
G1 X121.547 Y66.423 E1.41552
G1 X122.802 Y66.847 E1.43854
G1 X124.452 Y67.622 E1.47022
G1 X125.991 Y68.608 E1.50198
G1 X126.391 Y68.915 E1.51074
G1 X127.388 Y69.791 E1.53381
G1 X128.611 Y71.132 E1.56535
G1 X128.917 Y71.531 E1.57409
G1 X129.655 Y72.634 E1.59715
G1 X130.491 Y74.254 E1.62883
G1 X131.109 Y75.971 E1.66055
G1 X131.497 Y77.743 E1.69207
G1 X131.564 Y78.245 E1.70087
G1 X131.651 Y79.575 E1.72403
G1 X131.566 Y81.395 E1.7557
G1 X131.5 Y81.897 E1.7645
G1 X131.24 Y83.199 E1.78757
G1 X130.69 Y84.926 E1.81907
G1 X129.916 Y86.574 E1.85071
G1 X129.666 Y87.008 E1.85941
G1 X128.928 Y88.114 E1.88252
G1 X128.623 Y88.512 E1.89123
G1 X127.747 Y89.51 E1.91431
G1 X126.403 Y90.734 E1.9459
G1 X126.004 Y91.041 E1.95465
G1 X124.901 Y91.778 E1.9777
G1 X123.282 Y92.615 E2.00938
G1 X122.813 Y92.809 E2.0182
G1 X121.562 Y93.232 E2.04115
G1 X119.794 Y93.619 E2.0726
G1 X119.295 Y93.686 E2.08135
G1 X117.906 Y93.778 E2.10554
G1 X99.351 Y93.786 E2.428
G1 X97.768 Y93.69 E2.45556
G1 X95.945 Y93.366 E2.48773
G1 X95.455 Y93.237 E2.49654
G1 X94.203 Y92.815 E2.5195
G1 X93.735 Y92.621 E2.5283
G1 X92.538 Y92.03 E2.5515
G1 X91.012 Y91.053 E2.58299
G1 X90.61 Y90.745 E2.59179
G1 X89.611 Y89.868 E2.6149
G1 X88.388 Y88.525 E2.64646
G1 X87.344 Y87.025 E2.67822
G1 X87.094 Y86.591 E2.68693
G1 X86.507 Y85.4 E2.71
G1 X85.891 Y83.688 E2.74162
G1 X85.503 Y81.916 E2.77314
G1 X85.436 Y81.414 E2.78195
G1 X85.349 Y80.085 E2.80509
G1 X85.434 Y78.265 E2.83675
G1 X85.499 Y77.763 E2.84555
G1 X85.759 Y76.46 E2.86864
G1 X86.31 Y74.733 E2.90014
G1 X87.085 Y73.085 E2.93179
G1 X88.071 Y71.546 E2.96356
G1 X88.377 Y71.147 E2.9723
G1 X89.253 Y70.149 E2.99537
G1 X90.597 Y68.925 E3.02696
G1 X90.995 Y68.619 E3.03569
G1 X92.1 Y67.88 E3.05879
G1 X93.721 Y67.044 E3.09049
G1 X95.434 Y66.428 E3.12212
G1 X96.614 Y66.159 E3.14315
G1 X95.999 Y66.04 E3.15404
G1 X94.265 Y65.498 E3.18561
G1 X93.796 Y65.306 E3.19442
G1 X92.597 Y64.721 E3.2176
G1 X91.062 Y63.745 E3.24922
G1 X89.67 Y62.582 E3.28074
G1 X88.432 Y61.236 E3.31252
G1 X88.125 Y60.84 E3.32123
G1 X87.38 Y59.737 E3.34436
G1 X86.537 Y58.121 E3.37603
G1 X85.912 Y56.41 E3.40769
G1 X85.515 Y54.635 E3.4393
G1 X85.354 Y52.815 E3.47105
G1 X85.431 Y50.989 E3.50281
G1 X85.744 Y49.198 E3.53441
G1 X86.286 Y47.464 E3.56598
G1 X86.478 Y46.995 E3.57479
G1 X87.062 Y45.798 E3.59793
M205 X30 Y30
G0 F3600 X87.421 Y45.973
M205 X15 Y15
G1 F1500 X88.372 Y44.482 E3.62867
G1 X89.504 Y43.132 E3.65928
G1 X90.814 Y41.93 E3.69018
G1 X92.269 Y40.911 E3.72105
G1 X92.744 Y40.641 E3.73054
G1 X94.663 Y36.727 E3.8063
G1 X94.928 Y36.278 E3.81536
G1 X95.258 Y35.875 E3.82441
G1 X95.692 Y35.492 E3.83447
G1 X96.269 Y35.115 E3.84645
G1 X96.747 Y34.908 E3.8555
G1 X97.251 Y34.777 E3.86455
G1 X97.851 Y34.724 E3.87502
G1 X119.167 Y34.724 E4.24546
G1 X119.687 Y34.764 E4.25452
G1 X120.194 Y34.883 E4.26357
G1 X120.677 Y35.078 E4.27262
G1 X121.074 Y35.307 E4.28059
G1 X121.493 Y35.617 E4.28965
G1 X121.859 Y35.988 E4.2987
G1 X122.164 Y36.41 E4.30775
G1 X124.251 Y40.632 E4.3896
G1 X125.729 Y41.578 E4.42009
G1 X127.066 Y42.702 E4.45045
G1 X128.268 Y44.013 E4.48136
G1 X129.287 Y45.467 E4.51221
G1 X130.104 Y47.039 E4.543
G1 X130.709 Y48.699 E4.57371
G1 X131.092 Y50.424 E4.60441
G1 X131.247 Y52.19 E4.63522
G1 X131.17 Y53.97 E4.66619
G1 X130.863 Y55.708 E4.69686
G1 X130.334 Y57.393 E4.72755
G1 X129.579 Y59.01 E4.75856
G1 X128.628 Y60.501 E4.78929
G1 X127.496 Y61.851 E4.81991
G1 X126.186 Y63.053 E4.85081
G1 X124.729 Y64.073 E4.88172
G1 X123.16 Y64.888 E4.91244
G1 X121.5 Y65.493 E4.94315
G1 X119.773 Y65.876 E4.97389
G1 X117.895 Y66.039 E5.00665
G1 X99.353 Y66.047 E5.32888
G1 X97.797 Y65.953 E5.35597
G1 X96.076 Y65.647 E5.38635
G1 X94.391 Y65.118 E5.41704
G1 X92.772 Y64.362 E5.44809
G1 X91.282 Y63.411 E5.47881
G1 X89.932 Y62.279 E5.50943
G1 X88.731 Y60.97 E5.5403
G1 X87.711 Y59.513 E5.57121
G1 X86.895 Y57.942 E5.60197
G1 X86.29 Y56.28 E5.63271
G1 X85.907 Y54.555 E5.66342
G1 X85.753 Y52.786 E5.69428
G1 X85.83 Y51.013 E5.72512
G1 X86.137 Y49.275 E5.75579
G1 X86.666 Y47.59 E5.78648
G1 X87.421 Y45.973 E5.81749
M205 X30 Y30
G0 F3600 X87.781 Y46.149
M205 X15 Y15
G1 F1500 X88.706 Y44.702 E5.84734
G1 X89.806 Y43.394 E5.87704
G1 X91.079 Y42.23 E5.90702
G1 X92.493 Y41.243 E5.93698
G1 X93.044 Y40.938 E5.94793
G1 X95.022 Y36.903 E6.02602
G1 X95.273 Y36.483 E6.03452
G1 X95.588 Y36.109 E6.04302
G1 X96.065 Y35.713 E6.0538
G1 X96.481 Y35.455 E6.0623
G1 X96.933 Y35.268 E6.0708
G1 X97.41 Y35.157 E6.07931
G1 X97.851 Y35.124 E6.087
G1 X119.167 Y35.124 E6.45744
G1 X120.13 Y35.283 E6.4744
G1 X120.764 Y35.584 E6.4866
G1 X121.253 Y35.939 E6.4971
G1 X121.592 Y36.292 E6.5056
G1 X121.958 Y36.864 E6.5174
G1 X123.953 Y40.932 E6.59614
G1 X124.445 Y41.202 E6.6059
G1 X125.507 Y41.911 E6.62809
G1 X126.804 Y43.004 E6.65756
G1 X127.969 Y44.278 E6.68757
G1 X128.956 Y45.691 E6.71752
G1 X129.746 Y47.217 E6.74738
G1 X130.33 Y48.83 E6.77719
G1 X130.7 Y50.504 E6.80699
G1 X130.848 Y52.219 E6.8369
G1 X130.771 Y53.946 E6.86694
G1 X130.47 Y55.632 E6.89671
G1 X129.954 Y57.267 E6.9265
G1 X129.219 Y58.834 E6.95658
G1 X128.294 Y60.281 E6.98643
G1 X127.194 Y61.589 E7.01613
G1 X125.921 Y62.753 E7.0461
G1 X124.505 Y63.741 E7.07611
G1 X122.982 Y64.53 E7.10592
G1 X121.369 Y65.114 E7.13573
G1 X119.693 Y65.485 E7.16556
G1 X117.867 Y65.64 E7.19741
G1 X99.353 Y65.647 E7.51915
G1 X97.823 Y65.554 E7.54579
G1 X96.152 Y65.254 E7.57529
G1 X94.517 Y64.738 E7.60509
G1 X92.948 Y64.002 E7.63521
G1 X91.503 Y63.078 E7.66501
G1 X90.194 Y61.977 E7.69474
G1 X89.03 Y60.705 E7.7247
G1 X88.043 Y59.289 E7.7547
G1 X87.253 Y57.764 E7.78455
G1 X86.668 Y56.149 E7.8144
G1 X86.299 Y54.474 E7.8442
G1 X86.152 Y52.758 E7.87413
G1 X86.229 Y51.037 E7.90407
G1 X86.53 Y49.351 E7.93384
G1 X87.046 Y47.716 E7.96363
G1 X87.781 Y46.149 E7.99371
M205 X30 Y30
G0 F3600 X88.14 Y46.324
M205 X15 Y15
G1 F1500 X89.04 Y44.923 E8.02265
G1 X90.108 Y43.656 E8.05145
G1 X91.345 Y42.529 E8.08053
G1 X92.717 Y41.574 E8.10958
G1 X93.344 Y41.234 E8.12197
G1 X95.381 Y37.08 E8.20237
G1 X95.617 Y36.69 E8.2103
G1 X95.917 Y36.347 E8.21822
G1 X96.303 Y36.035 E8.22684
G1 X96.692 Y35.797 E8.23477
G1 X97.116 Y35.63 E8.24269
G1 X97.563 Y35.54 E8.25061
G1 X119.167 Y35.524 E8.62605
G1 X120.061 Y35.682 E8.64183
G1 X120.551 Y35.923 E8.65132
G1 X121.011 Y36.259 E8.66122
G1 X121.32 Y36.594 E8.66914
G1 X121.598 Y37.04 E8.67827
G1 X123.653 Y41.231 E8.75939
G1 X124.223 Y41.535 E8.77062
G1 X125.285 Y42.244 E8.79281
G1 X126.542 Y43.306 E8.8214
G1 X127.67 Y44.544 E8.85051
G1 X128.624 Y45.915 E8.87954
G1 X129.388 Y47.396 E8.9085
G1 X129.952 Y48.961 E8.93741
G1 X130.308 Y50.585 E8.9663
G1 X130.449 Y52.247 E8.99529
G1 X130.371 Y53.922 E9.02443
G1 X130.078 Y55.556 E9.05328
G1 X129.575 Y57.141 E9.08217
G1 X128.86 Y58.659 E9.11133
G1 X127.96 Y60.06 E9.14027
G1 X126.892 Y61.327 E9.16907
G1 X125.655 Y62.454 E9.19815
G1 X124.281 Y63.41 E9.22724
G1 X122.803 Y64.172 E9.25614
G1 X121.238 Y64.736 E9.28505
G1 X119.612 Y65.093 E9.31398
G1 X117.838 Y65.241 E9.34491
G1 X99.353 Y65.247 E9.66615
G1 X97.849 Y65.154 E9.69234
G1 X96.228 Y64.862 E9.72097
G1 X94.643 Y64.359 E9.74986
G1 X93.123 Y63.643 E9.77906
G1 X91.723 Y62.744 E9.80798
G1 X90.456 Y61.675 E9.83679
G1 X89.33 Y60.439 E9.86584
G1 X88.374 Y59.065 E9.89493
G1 X87.611 Y57.585 E9.92387
G1 X87.046 Y56.019 E9.9528
G1 X86.691 Y54.394 E9.98171
G1 X86.551 Y52.73 E10.01073
G1 X86.629 Y51.061 E10.03976
G1 X86.922 Y49.427 E10.06861
G1 X87.425 Y47.842 E10.09751
G1 X88.14 Y46.324 E10.12667
M205 X30 Y30
G0 F3600 X88.5 Y46.499
M205 X15 Y15
G1 F1500 X89.373 Y45.143 E10.1547
G1 X90.41 Y43.918 E10.18259
G1 X91.61 Y42.828 E10.21076
G1 X92.941 Y41.905 E10.23891
G1 X93.645 Y41.532 E10.25276
G1 X95.741 Y37.256 E10.33551
G1 X95.96 Y36.899 E10.34279
G1 X96.406 Y36.456 E10.35372
G1 X96.9 Y36.14 E10.36391
G1 X97.294 Y35.996 E10.3712
G1 X97.851 Y35.924 E10.38096
G1 X119.167 Y35.924 E10.7514
G1 X119.986 Y36.082 E10.76589
G1 X120.435 Y36.323 E10.77475
G1 X120.767 Y36.578 E10.78202
G1 X121.044 Y36.893 E10.78931
G1 X121.239 Y37.216 E10.79587
G1 X123.355 Y41.53 E10.87937
G1 X124.001 Y41.867 E10.89203
G1 X125.063 Y42.576 E10.91423
G1 X126.28 Y43.609 E10.94197
G1 X127.371 Y44.809 E10.97015
G1 X128.293 Y46.139 E10.99827
G1 X129.03 Y47.574 E11.02631
G1 X129.574 Y49.091 E11.05432
G1 X129.916 Y50.665 E11.08231
G1 X130.05 Y52.276 E11.1104
G1 X129.972 Y53.898 E11.13862
G1 X129.685 Y55.48 E11.16656
G1 X129.195 Y57.015 E11.19457
G1 X128.5 Y58.484 E11.22281
G1 X127.627 Y59.84 E11.25083
G1 X126.59 Y61.065 E11.27873
G1 X125.39 Y62.155 E11.3069
G1 X124.057 Y63.078 E11.33508
G1 X122.625 Y63.814 E11.36306
G1 X121.108 Y64.358 E11.39106
G1 X119.532 Y64.701 E11.41909
G1 X117.81 Y64.842 E11.44912
G1 X99.353 Y64.847 E11.76987
G1 X97.875 Y64.755 E11.79561
G1 X96.304 Y64.469 E11.82336
G1 X94.769 Y63.979 E11.85136
G1 X93.298 Y63.283 E11.87964
G1 X91.944 Y62.41 E11.90764
G1 X90.718 Y61.372 E11.93555
G1 X89.629 Y60.173 E11.9637
G1 X88.706 Y58.841 E11.99186
G1 X87.969 Y57.407 E12.01988
G1 X87.424 Y55.888 E12.04793
G1 X87.083 Y54.314 E12.07592
G1 X86.95 Y52.702 E12.10403
G1 X87.028 Y51.085 E12.13216
G1 X87.315 Y49.503 E12.1601
G1 X87.805 Y47.968 E12.1881
G1 X88.5 Y46.499 E12.21635
M205 X30 Y30
G0 F3600 X88.859 Y46.675
M205 X15 Y15
G1 F1500 X89.707 Y45.364 E12.24348
G1 X90.713 Y44.18 E12.27048
G1 X91.876 Y43.127 E12.29774
G1 X93.165 Y42.237 E12.32497
G1 X93.944 Y41.83 E12.34024
G1 X96.1 Y37.432 E12.42536
G1 X96.301 Y37.111 E12.43194
G1 X96.78 Y36.678 E12.44316
G1 X97.106 Y36.485 E12.44975
G1 X97.466 Y36.366 E12.45634
G1 X97.851 Y36.324 E12.46307
G1 X119.167 Y36.324 E12.83351
G1 X119.904 Y36.482 E12.8466
G1 X120.222 Y36.661 E12.85295
G1 X120.52 Y36.896 E12.85954
G1 X120.88 Y37.392 E12.87019
G1 X123.057 Y41.83 E12.9561
G1 X123.566 Y42.078 E12.96594
G1 X124.84 Y42.909 E12.99237
G1 X126.018 Y43.911 E13.01925
G1 X127.072 Y45.075 E13.04654
G1 X127.961 Y46.363 E13.07373
G1 X128.673 Y47.753 E13.10087
G1 X129.196 Y49.222 E13.12797
G1 X129.524 Y50.745 E13.15505
G1 X129.651 Y52.304 E13.18223
G1 X129.573 Y53.874 E13.20955
G1 X129.292 Y55.404 E13.23658
G1 X128.815 Y56.889 E13.26369
G1 X128.141 Y58.308 E13.29099
G1 X127.293 Y59.619 E13.31812
G1 X126.287 Y60.803 E13.34512
G1 X125.124 Y61.856 E13.37239
G1 X123.833 Y62.747 E13.39965
G1 X122.446 Y63.457 E13.42672
G1 X120.977 Y63.98 E13.45382
G1 X119.451 Y64.309 E13.48095
G1 X117.782 Y64.443 E13.51005
G1 X99.353 Y64.447 E13.83032
G1 X97.901 Y64.356 E13.8556
G1 X96.38 Y64.076 E13.88248
G1 X94.895 Y63.599 E13.90958
G1 X93.474 Y62.924 E13.93692
G1 X92.165 Y62.077 E13.96402
G1 X90.98 Y61.07 E13.99104
G1 X89.928 Y59.908 E14.01828
G1 X89.037 Y58.617 E14.04554
G1 X88.326 Y57.228 E14.07266
G1 X87.803 Y55.757 E14.09979
G1 X87.475 Y54.233 E14.12688
G1 X87.349 Y52.673 E14.15408
G1 X87.427 Y51.109 E14.18129
G1 X87.708 Y49.579 E14.20833
G1 X88.185 Y48.094 E14.23543
G1 X88.859 Y46.675 E14.26273
M205 X30 Y30
G0 F3600 X89.219 Y46.85
M205 X15 Y15
G1 F1500 X90.041 Y45.584 E14.28896
G1 X91.015 Y44.442 E14.31505
G1 X92.142 Y43.426 E14.34142
G1 X93.389 Y42.568 E14.36772
G1 X94.244 Y42.126 E14.38445
G1 X96.459 Y37.608 E14.47189
G1 X96.641 Y37.327 E14.47771
G1 X97.018 Y36.999 E14.4864
G1 X97.308 Y36.834 E14.49219
G1 X97.629 Y36.742 E14.498
G1 X119.167 Y36.724 E14.87229
G1 X119.499 Y36.764 E14.87811
G1 X120.009 Y37 E14.88787
G1 X120.269 Y37.21 E14.89368
G1 X120.521 Y37.569 E14.9013
G1 X122.758 Y42.13 E14.98958
G1 X123.391 Y42.438 E15.00182
G1 X124.618 Y43.242 E15.02731
G1 X125.756 Y44.213 E15.05331
G1 X126.773 Y45.34 E15.07969
G1 X127.63 Y46.587 E15.10599
G1 X128.315 Y47.932 E15.13222
G1 X128.818 Y49.353 E15.15841
G1 X129.132 Y50.826 E15.18459
G1 X129.252 Y52.333 E15.21086
G1 X129.173 Y53.85 E15.23726
G1 X128.899 Y55.328 E15.26338
G1 X128.436 Y56.763 E15.28958
G1 X127.781 Y58.133 E15.31597
G1 X126.959 Y59.399 E15.34221
G1 X125.985 Y60.541 E15.36829
G1 X124.858 Y61.557 E15.39466
G1 X123.61 Y62.415 E15.42098
G1 X122.267 Y63.099 E15.44717
G1 X120.846 Y63.602 E15.47337
G1 X119.371 Y63.917 E15.49958
G1 X117.753 Y64.044 E15.52778
G1 X99.353 Y64.047 E15.84754
G1 X97.927 Y63.957 E15.87238
G1 X96.456 Y63.683 E15.89838
G1 X95.021 Y63.22 E15.92458
G1 X93.649 Y62.564 E15.95101
G1 X92.385 Y61.743 E15.9772
G1 X91.242 Y60.768 E16.00331
G1 X90.227 Y59.642 E16.02966
G1 X89.369 Y58.394 E16.05598
G1 X88.684 Y57.049 E16.08221
G1 X88.181 Y55.627 E16.10842
G1 X87.867 Y54.153 E16.13461
G1 X87.748 Y52.645 E16.1609
G1 X87.827 Y51.133 E16.18721
G1 X88.101 Y49.655 E16.21333
G1 X88.564 Y48.22 E16.23954
G1 X89.219 Y46.85 E16.26593
M205 X30 Y30
G0 F3600 X89.578 Y47.026
M205 X15 Y15
G1 F1500 X90.375 Y45.805 E16.29127
G1 X91.317 Y44.704 E16.31645
G1 X92.407 Y43.725 E16.34191
G1 X93.613 Y42.9 E16.3673
G1 X94.543 Y42.424 E16.38546
G1 X96.818 Y37.784 E16.47527
G1 X96.977 Y37.551 E16.48017
G1 X97.256 Y37.32 E16.48646
G1 X97.504 Y37.186 E16.49136
G1 X97.851 Y37.124 E16.49749
G1 X119.167 Y37.124 E16.86793
G1 X119.446 Y37.164 E16.87282
G1 X119.796 Y37.338 E16.87962
G1 X120.012 Y37.521 E16.88454
G1 X120.162 Y37.745 E16.88922
G1 X122.46 Y42.43 E16.97991
G1 X123.216 Y42.798 E16.99452
G1 X124.396 Y43.574 E17.01906
G1 X125.494 Y44.515 E17.04419
G1 X126.474 Y45.606 E17.06968
G1 X127.299 Y46.811 E17.09506
G1 X127.957 Y48.11 E17.12036
G1 X128.44 Y49.483 E17.14566
G1 X128.741 Y50.906 E17.17093
G1 X128.853 Y52.362 E17.19631
G1 X128.774 Y53.826 E17.22179
G1 X128.507 Y55.252 E17.247
G1 X128.056 Y56.637 E17.27231
G1 X127.422 Y57.957 E17.29776
G1 X126.625 Y59.178 E17.3231
G1 X125.683 Y60.279 E17.34828
G1 X124.593 Y61.258 E17.37374
G1 X123.386 Y62.084 E17.39916
G1 X122.089 Y62.741 E17.42443
G1 X120.716 Y63.224 E17.44972
G1 X119.29 Y63.526 E17.47505
G1 X117.725 Y63.645 E17.50233
