;FLAVOR:Marlin
;TIME:1169
;Filament used: 0.878061m
;Layer height: 0.15
;MINX:84.868
;MINY:94.993
;MINZ:0.2
;MAXX:126.132
;MAXY:116.007
;MAXZ:11.45
;Generated with Cura_SteamEngine 4.4.0
M140 S65
M105
M190 S65
M82 ;absolute extrusion mode
;Gcode by Cura
G90
;M106 S255
G28
M104 S210
M107
G1 X100 Y20 F3000
G1 Z0.5
M109 S210
M82
G92 E0
G1 F200 E10
G92 E0
G1 Z3
G1 F6000
G92 E0
G92 E0
G1 F3000 E-3.5
;LAYER_COUNT:76
;LAYER:0
M107
M205 X30 Y30
G1 F600 Z1.2
G0 F3600 X85.717 Y97.92 Z1.2
M205 X20 Y20
;TYPE:SKIRT
G1 F600 Z0.2
G1 F3000 E0
G1 F1800 X86.017 Y97.688 E0.01261
G1 X86.358 Y97.524 E0.0252
G1 X86.727 Y97.435 E0.03782
G1 X86.99 Y97.42 E0.04659
G1 X98.278 Y97.593 E0.42207
G1 X98.654 Y97.639 E0.43467
G1 X99.012 Y97.762 E0.44726
G1 X99.337 Y97.958 E0.45988
G1 X99.55 Y98.148 E0.46938
G1 X99.664 Y98.267 E0.47486
G1 X99.896 Y98.567 E0.48747
G1 X100.06 Y98.908 E0.50006
G1 X100.149 Y99.277 E0.51268
G1 X100.164 Y99.539 E0.52141
G1 X100.149 Y100.506 E0.55358
G1 X113.831 Y100.718 E1.0087
G1 X113.891 Y96.879 E1.1364
G1 X113.937 Y96.503 E1.149
G1 X114.06 Y96.144 E1.16162
G1 X114.256 Y95.82 E1.17421
G1 X114.446 Y95.607 E1.18371
G1 X114.565 Y95.493 E1.18919
G1 X114.865 Y95.261 E1.2018
G1 X115.206 Y95.097 E1.21439
G1 X115.575 Y95.008 E1.22701
G1 X115.838 Y94.993 E1.23577
G1 X124.246 Y95.122 E1.51546
G1 X124.622 Y95.168 E1.52805
G1 X124.98 Y95.291 E1.54065
G1 X125.305 Y95.487 E1.55327
G1 X125.518 Y95.677 E1.56276
G1 X125.632 Y95.796 E1.56824
G1 X125.864 Y96.096 E1.58086
G1 X126.028 Y96.437 E1.59344
G1 X126.117 Y96.806 E1.60607
G1 X126.132 Y97.069 E1.61483
G1 X126.046 Y102.6 E1.79881
G1 X126 Y102.976 E1.81141
G1 X125.877 Y103.334 E1.824
G1 X125.681 Y103.659 E1.83662
G1 X125.491 Y103.872 E1.84612
G1 X125.372 Y103.986 E1.8516
G1 X125.072 Y104.218 E1.86421
G1 X124.731 Y104.382 E1.8768
G1 X124.362 Y104.471 E1.88942
G1 X124.099 Y104.486 E1.89818
G1 X118.459 Y104.4 E2.08579
G1 X118.426 Y106.559 E2.15761
G1 X124.067 Y106.645 E2.34525
G1 X124.443 Y106.691 E2.35785
G1 X124.801 Y106.814 E2.37044
G1 X125.126 Y107.01 E2.38307
G1 X125.339 Y107.2 E2.39256
G1 X125.453 Y107.319 E2.39804
G1 X125.685 Y107.619 E2.41065
G1 X125.849 Y107.96 E2.42324
G1 X125.938 Y108.329 E2.43586
G1 X125.953 Y108.592 E2.44463
G1 X125.868 Y114.121 E2.62854
G1 X125.822 Y114.497 E2.64114
G1 X125.699 Y114.855 E2.65373
G1 X125.503 Y115.18 E2.66635
G1 X125.313 Y115.393 E2.67585
G1 X125.194 Y115.507 E2.68133
G1 X124.894 Y115.739 E2.69394
G1 X124.553 Y115.903 E2.70653
G1 X124.184 Y115.992 E2.71915
G1 X123.921 Y116.007 E2.72791
G1 X115.513 Y115.878 E3.0076
G1 X115.137 Y115.832 E3.0202
G1 X114.779 Y115.709 E3.03279
G1 X114.454 Y115.513 E3.04541
G1 X114.241 Y115.323 E3.0549
G1 X114.127 Y115.204 E3.06039
G1 X113.895 Y114.904 E3.073
G1 X113.731 Y114.563 E3.08558
G1 X113.642 Y114.194 E3.09821
G1 X113.627 Y113.931 E3.10697
G1 X113.686 Y110.086 E3.23487
G1 X100.005 Y109.875 E3.68996
G1 X99.99 Y110.829 E3.72169
G1 X99.944 Y111.206 E3.73432
G1 X99.821 Y111.564 E3.74691
G1 X99.625 Y111.888 E3.75951
G1 X99.435 Y112.102 E3.76903
G1 X99.316 Y112.216 E3.77451
G1 X99.016 Y112.448 E3.78712
G1 X98.675 Y112.612 E3.79971
G1 X98.306 Y112.701 E3.81233
G1 X98.043 Y112.716 E3.82109
G1 X86.754 Y112.543 E4.19661
G1 X86.378 Y112.497 E4.20921
G1 X86.02 Y112.374 E4.2218
G1 X85.695 Y112.178 E4.23442
G1 X85.482 Y111.988 E4.24392
G1 X85.368 Y111.869 E4.2494
G1 X85.136 Y111.569 E4.26201
G1 X84.972 Y111.228 E4.2746
G1 X84.883 Y110.859 E4.28722
G1 X84.868 Y110.596 E4.29598
G1 X85.043 Y99.306 E4.67154
G1 X85.089 Y98.93 E4.68413
G1 X85.212 Y98.572 E4.69672
G1 X85.408 Y98.247 E4.70935
G1 X85.598 Y98.034 E4.71884
G1 X85.717 Y97.92 E4.72432
M205 X30 Y30
G0 F3600 X85.994 Y98.209
M205 X20 Y20
G1 F1800 X86.261 Y98.008 E4.73544
G1 X86.568 Y97.877 E4.74654
G1 X86.983 Y97.82 E4.76047
G1 X98.271 Y97.993 E5.13596
G1 X98.602 Y98.038 E5.14707
G1 X98.913 Y98.16 E5.15818
G1 X99.261 Y98.425 E5.17273
G1 X99.375 Y98.544 E5.17821
G1 X99.576 Y98.811 E5.18932
G1 X99.707 Y99.118 E5.20042
G1 X99.764 Y99.533 E5.21436
G1 X99.743 Y100.9 E5.25983
G1 X114.225 Y101.124 E5.74156
G1 X114.291 Y96.885 E5.88257
G1 X114.336 Y96.554 E5.89368
G1 X114.458 Y96.243 E5.90479
G1 X114.723 Y95.896 E5.91931
G1 X114.842 Y95.782 E5.92479
G1 X115.109 Y95.581 E5.93591
G1 X115.416 Y95.45 E5.94701
G1 X115.831 Y95.393 E5.96094
G1 X124.239 Y95.522 E6.24063
G1 X124.571 Y95.567 E6.25177
G1 X124.881 Y95.689 E6.26285
G1 X125.229 Y95.954 E6.2774
G1 X125.343 Y96.073 E6.28288
G1 X125.544 Y96.34 E6.29399
G1 X125.675 Y96.647 E6.3051
G1 X125.732 Y97.063 E6.31906
G1 X125.646 Y102.594 E6.50305
G1 X125.601 Y102.925 E6.51416
G1 X125.479 Y103.236 E6.52527
G1 X125.214 Y103.583 E6.53979
G1 X125.095 Y103.697 E6.54527
G1 X124.828 Y103.898 E6.55639
G1 X124.521 Y104.029 E6.56749
G1 X124.106 Y104.086 E6.58142
G1 X118.065 Y103.993 E6.78237
G1 X118.02 Y106.952 E6.8808
G1 X124.06 Y107.045 E7.08171
G1 X124.391 Y107.09 E7.09282
G1 X124.702 Y107.212 E7.10393
G1 X125.05 Y107.477 E7.11848
G1 X125.164 Y107.596 E7.12396
G1 X125.365 Y107.863 E7.13508
G1 X125.496 Y108.17 E7.14618
G1 X125.553 Y108.586 E7.16014
G1 X125.468 Y114.115 E7.34406
G1 X125.423 Y114.446 E7.35517
G1 X125.301 Y114.757 E7.36628
G1 X125.036 Y115.104 E7.38081
G1 X124.917 Y115.218 E7.38629
G1 X124.65 Y115.419 E7.3974
G1 X124.343 Y115.55 E7.4085
G1 X123.928 Y115.607 E7.42244
G1 X115.52 Y115.478 E7.70212
G1 X115.188 Y115.433 E7.71326
G1 X114.878 Y115.311 E7.72434
G1 X114.53 Y115.046 E7.73889
G1 X114.416 Y114.927 E7.74437
G1 X114.215 Y114.66 E7.75549
G1 X114.084 Y114.353 E7.76659
G1 X114.027 Y113.937 E7.78056
G1 X114.092 Y109.692 E7.92176
G1 X99.611 Y109.469 E8.40346
G1 X99.59 Y110.823 E8.4485
G1 X99.545 Y111.154 E8.45961
G1 X99.423 Y111.465 E8.47072
G1 X99.158 Y111.813 E8.48527
G1 X99.039 Y111.927 E8.49075
G1 X98.772 Y112.128 E8.50187
G1 X98.465 Y112.259 E8.51297
G1 X98.05 Y112.316 E8.5269
G1 X86.761 Y112.143 E8.90242
G1 X86.43 Y112.098 E8.91353
G1 X86.119 Y111.976 E8.92464
G1 X85.771 Y111.711 E8.93919
G1 X85.657 Y111.592 E8.94467
G1 X85.456 Y111.325 E8.95578
G1 X85.325 Y111.018 E8.96689
G1 X85.268 Y110.602 E8.98085
G1 X85.443 Y99.312 E9.3564
G1 X85.488 Y98.981 E9.36751
G1 X85.61 Y98.67 E9.37862
G1 X85.875 Y98.323 E9.39315
G1 X85.994 Y98.209 E9.39863
M205 X30 Y30
G0 F3600 X86.27 Y98.498
M205 X20 Y20
G1 F1800 X86.499 Y98.333 E9.40802
G1 X86.766 Y98.239 E9.41743
G1 X86.977 Y98.22 E9.42448
G1 X98.265 Y98.393 E9.79996
G1 X98.544 Y98.437 E9.80936
G1 X98.799 Y98.557 E9.81873
G1 X98.972 Y98.701 E9.82622
G1 X99.086 Y98.82 E9.8317
G1 X99.251 Y99.049 E9.84108
G1 X99.345 Y99.316 E9.8505
G1 X99.364 Y99.527 E9.85755
G1 X99.337 Y101.293 E9.91629
G1 X114.619 Y101.53 E10.42463
G1 X114.691 Y96.891 E10.57894
G1 X114.735 Y96.613 E10.58831
G1 X114.856 Y96.358 E10.59769
G1 X114.999 Y96.185 E10.60516
G1 X115.118 Y96.071 E10.61064
G1 X115.347 Y95.906 E10.62003
G1 X115.614 Y95.812 E10.62944
G1 X115.825 Y95.793 E10.63649
G1 X124.233 Y95.922 E10.91617
G1 X124.512 Y95.966 E10.92557
G1 X124.767 Y96.086 E10.93494
G1 X124.94 Y96.23 E10.94243
G1 X125.054 Y96.349 E10.94791
G1 X125.219 Y96.578 E10.9573
G1 X125.313 Y96.845 E10.96671
G1 X125.332 Y97.057 E10.97379
G1 X125.246 Y102.588 E11.15777
G1 X125.202 Y102.866 E11.16714
G1 X125.082 Y103.121 E11.17651
G1 X124.938 Y103.294 E11.184
G1 X124.819 Y103.408 E11.18948
G1 X124.59 Y103.573 E11.19886
G1 X124.323 Y103.667 E11.20828
G1 X124.112 Y103.686 E11.21533
G1 X117.672 Y103.587 E11.42955
G1 X117.613 Y107.346 E11.55459
G1 X124.054 Y107.445 E11.76884
G1 X124.333 Y107.489 E11.77823
G1 X124.588 Y107.609 E11.78761
G1 X124.761 Y107.753 E11.79509
G1 X124.875 Y107.872 E11.80058
G1 X125.04 Y108.101 E11.80996
G1 X125.134 Y108.368 E11.81938
G1 X125.153 Y108.579 E11.82642
G1 X125.068 Y114.108 E12.01034
G1 X125.024 Y114.387 E12.01974
G1 X124.904 Y114.642 E12.02911
G1 X124.76 Y114.815 E12.0366
G1 X124.641 Y114.929 E12.04208
G1 X124.412 Y115.094 E12.05146
G1 X124.145 Y115.188 E12.06088
G1 X123.934 Y115.207 E12.06792
G1 X115.526 Y115.078 E12.34761
G1 X115.247 Y115.034 E12.357
G1 X114.992 Y114.914 E12.36638
G1 X114.819 Y114.77 E12.37386
G1 X114.705 Y114.651 E12.37934
G1 X114.54 Y114.422 E12.38873
G1 X114.446 Y114.155 E12.39815
G1 X114.427 Y113.944 E12.40519
G1 X114.499 Y109.299 E12.5597
G1 X99.217 Y109.062 E13.06805
G1 X99.19 Y110.817 E13.12643
G1 X99.146 Y111.096 E13.13582
G1 X99.026 Y111.351 E13.14519
G1 X98.882 Y111.524 E13.15268
G1 X98.763 Y111.638 E13.15816
G1 X98.534 Y111.803 E13.16755
G1 X98.267 Y111.897 E13.17696
G1 X98.056 Y111.916 E13.18401
G1 X86.767 Y111.743 E13.55953
G1 X86.488 Y111.699 E13.56892
G1 X86.233 Y111.579 E13.5783
G1 X86.06 Y111.435 E13.58578
G1 X85.946 Y111.316 E13.59126
G1 X85.781 Y111.087 E13.60065
G1 X85.687 Y110.82 E13.61007
G1 X85.668 Y110.609 E13.61711
G1 X85.843 Y99.319 E13.99266
G1 X85.887 Y99.04 E14.00206
G1 X86.007 Y98.785 E14.01143
G1 X86.151 Y98.612 E14.01892
G1 X86.27 Y98.498 E14.0244
M205 X30 Y30
G0 F3600 X86.547 Y98.787
M205 X20 Y20
G1 F1800 X86.729 Y98.667 E14.03165
G1 X86.971 Y98.62 E14.03985
G1 X98.259 Y98.793 E14.41533
G1 X98.473 Y98.836 E14.42259
G1 X98.683 Y98.978 E14.43103
G1 X98.797 Y99.097 E14.43651
G1 X98.917 Y99.279 E14.44376
G1 X98.964 Y99.521 E14.45196
G1 X98.931 Y101.687 E14.52401
G1 X115.012 Y101.937 E15.05893
G1 X115.091 Y96.898 E15.22655
G1 X115.134 Y96.684 E15.23381
G1 X115.276 Y96.474 E15.24224
G1 X115.395 Y96.36 E15.24772
G1 X115.577 Y96.24 E15.25497
G1 X115.819 Y96.193 E15.26317
G1 X124.227 Y96.322 E15.54285
G1 X124.441 Y96.365 E15.55011
G1 X124.651 Y96.507 E15.55854
G1 X124.765 Y96.626 E15.56402
G1 X124.885 Y96.808 E15.57128
G1 X124.932 Y97.05 E15.57947
G1 X124.846 Y102.581 E15.76346
G1 X124.803 Y102.795 E15.77072
G1 X124.661 Y103.005 E15.77915
G1 X124.542 Y103.119 E15.78463
G1 X124.36 Y103.239 E15.79188
G1 X124.118 Y103.286 E15.80008
G1 X117.278 Y103.181 E16.02761
G1 X117.207 Y107.74 E16.17926
G1 X124.048 Y107.845 E16.40682
G1 X124.262 Y107.888 E16.41408
G1 X124.472 Y108.03 E16.42251
G1 X124.586 Y108.149 E16.42799
G1 X124.706 Y108.331 E16.43524
G1 X124.753 Y108.573 E16.44344
G1 X124.668 Y114.102 E16.62736
G1 X124.625 Y114.316 E16.63462
G1 X124.483 Y114.526 E16.64305
G1 X124.364 Y114.64 E16.64853
G1 X124.182 Y114.76 E16.65578
G1 X123.94 Y114.807 E16.66398
G1 X115.532 Y114.678 E16.94366
G1 X115.318 Y114.635 E16.95092
G1 X115.108 Y114.493 E16.95936
G1 X114.994 Y114.374 E16.96484
G1 X114.874 Y114.192 E16.97209
G1 X114.827 Y113.95 E16.98029
G1 X114.905 Y108.905 E17.1481
G1 X98.823 Y108.656 E17.68306
G1 X98.79 Y110.811 E17.75474
G1 X98.747 Y111.025 E17.762
G1 X98.605 Y111.235 E17.77043
G1 X98.486 Y111.349 E17.77591
G1 X98.304 Y111.469 E17.78317
G1 X98.062 Y111.516 E17.79136
G1 X86.773 Y111.343 E18.16688
G1 X86.559 Y111.3 E18.17414
G1 X86.349 Y111.158 E18.18257
G1 X86.235 Y111.039 E18.18806
G1 X86.115 Y110.857 E18.19531
G1 X86.068 Y110.615 E18.20351
G1 X86.243 Y99.325 E18.57906
G1 X86.286 Y99.111 E18.58632
G1 X86.428 Y98.901 E18.59475
G1 X86.547 Y98.787 E18.60023
M205 X30 Y30
G0 F3600 X86.824 Y99.076
M205 X20 Y20
G1 F1800 X86.965 Y99.02 E18.60528
G1 X98.253 Y99.193 E18.98076
G1 X98.394 Y99.255 E18.98588
G1 X98.508 Y99.374 E18.99136
G1 X98.564 Y99.515 E18.99641
G1 X98.525 Y102.081 E19.08177
G1 X115.406 Y102.343 E19.6433
G1 X115.491 Y96.904 E19.82422
G1 X115.553 Y96.763 E19.82934
G1 X115.672 Y96.649 E19.83483
G1 X115.813 Y96.593 E19.83987
G1 X124.221 Y96.722 E20.11956
G1 X124.362 Y96.784 E20.12468
G1 X124.476 Y96.903 E20.13016
G1 X124.532 Y97.044 E20.13521
G1 X124.446 Y102.575 E20.31919
G1 X124.384 Y102.716 E20.32431
G1 X124.265 Y102.83 E20.32979
G1 X124.124 Y102.886 E20.33484
G1 X116.884 Y102.775 E20.57567
G1 X116.801 Y108.134 E20.75393
G1 X124.042 Y108.245 E20.9948
G1 X124.183 Y108.307 E20.99992
G1 X124.297 Y108.426 E21.0054
G1 X124.353 Y108.567 E21.01045
G1 X124.268 Y114.096 E21.19437
G1 X124.206 Y114.237 E21.19949
G1 X124.087 Y114.351 E21.20497
G1 X123.946 Y114.407 E21.21002
G1 X115.538 Y114.278 E21.4897
G1 X115.397 Y114.216 E21.49482
G1 X115.283 Y114.097 E21.5003
G1 X115.227 Y113.956 E21.50535
G1 X115.311 Y108.511 E21.68647
G1 X98.429 Y108.25 E22.24804
G1 X98.39 Y110.805 E22.33303
G1 X98.328 Y110.946 E22.33815
G1 X98.209 Y111.06 E22.34363
G1 X98.068 Y111.116 E22.34868
G1 X86.779 Y110.943 E22.7242
G1 X86.638 Y110.881 E22.72932
G1 X86.524 Y110.762 E22.7348
G1 X86.468 Y110.621 E22.73985
G1 X86.643 Y99.331 E23.1154
G1 X86.705 Y99.19 E23.12052
G1 X86.824 Y99.076 E23.126
M205 X30 Y30
G1 F3000 E19.626
G1 F600 Z1.2
;MESH:CreeperNEW.stl
G0 F3600 X116.49 Y102.365 Z1.2
M205 X20 Y20
;TYPE:WALL-OUTER
G1 F600 Z0.2
G1 F3000 E23.126
G1 F1800 X116.398 Y108.328 E23.32436
G1 X116.395 Y108.528 E23.33101
G1 X116.595 Y108.531 E23.33532
G1 X123.752 Y108.641 E23.57339
G1 X123.952 Y108.644 E23.58004
G1 X123.949 Y108.844 E23.58435
G1 X123.869 Y114.006 E23.75606
G1 X115.828 Y113.882 E24.02353
G1 X115.628 Y113.879 E24.03019
G1 X115.631 Y113.679 E24.03449
G1 X115.714 Y108.317 E24.21286
G1 X115.717 Y108.117 E24.21951
G1 X115.518 Y108.114 E24.22613
G1 X98.234 Y107.847 E24.80107
G1 X98.035 Y107.844 E24.80768
G1 X98.033 Y108.043 E24.81196
G1 X98.032 Y108.044 E24.81201
G1 X97.994 Y110.515 E24.8942
G1 X97.993 Y110.516 E24.89425
G1 X97.991 Y110.715 E24.90087
G1 X97.792 Y110.712 E24.90514
G1 X87.068 Y110.547 E25.26187
G1 X86.869 Y110.544 E25.26849
G1 X86.872 Y110.345 E25.27277
G1 X87.042 Y99.421 E25.63615
G1 X98.163 Y99.592 E26.00608
G1 X98.119 Y102.475 E26.10198
G1 X115.8 Y102.749 E26.69012
G1 X115.89 Y96.994 E26.88155
G1 X123.931 Y97.118 E27.14903
G1 X124.131 Y97.121 E27.15568
G1 X124.128 Y97.321 E27.15999
G1 X124.047 Y102.485 E27.33177
G1 X116.76 Y102.373 E27.57416
G1 X116.49 Y102.365 E27.58315
M205 X30 Y30
G0 F3600 X116.487 Y102.565
G0 X116.387 Y102.563
G0 X116.104 Y108.924
M205 X20 Y20
;TYPE:WALL-INNER
G1 F1800 X123.347 Y109.035 E27.82408
G1 X123.546 Y109.038 E27.8307
G1 X123.543 Y109.237 E27.83498
G1 X123.475 Y113.6 E27.98011
G1 X116.034 Y113.485 E28.22763
G1 X116.104 Y108.924 E28.37935
M205 X30 Y30
G0 F3600 X116.007 Y107.721
M205 X20 Y20
G1 F1800 X97.839 Y107.441 E28.98369
G1 X97.641 Y107.438 E28.99028
G1 X97.639 Y107.636 E28.99453
G1 X97.638 Y107.637 E28.99458
G1 X97.6 Y110.11 E29.07684
G1 X97.599 Y110.111 E29.07689
G1 X97.597 Y110.309 E29.08348
G1 X97.399 Y110.306 E29.08773
G1 X87.473 Y110.153 E29.41791
G1 X87.275 Y110.15 E29.4245
G1 X87.278 Y109.952 E29.42876
G1 X87.436 Y99.827 E29.76556
G1 X97.757 Y99.986 E30.10888
G1 X97.713 Y102.869 E30.20478
G1 X115.88 Y103.15 E30.80908
G1 X116.078 Y103.153 E30.81567
G1 X116.075 Y103.352 E30.82229
G1 X116.007 Y107.721 E30.96762
M205 X30 Y30
G0 F3600 X116.213 Y101.956
M205 X20 Y20
G1 F1800 X116.284 Y97.4 E31.11917
G1 X123.526 Y97.512 E31.36007
G1 X123.725 Y97.515 E31.36669
G1 X123.722 Y97.714 E31.37097
G1 X123.653 Y102.079 E31.51617
G1 X116.772 Y101.973 E31.74506
G1 X116.213 Y101.956 E31.76366
M205 X30 Y30
G0 F3600 X116.609 Y101.578
M205 X20 Y20
;TYPE:SKIN
G1 F1800 X116.668 Y97.796 E31.88947
G1 X123.329 Y97.899 E32.11104
G1 X123.269 Y101.683 E32.23691
G1 X116.784 Y101.583 E32.45263
G1 X116.609 Y101.578 E32.45845
M205 X30 Y30
G0 F3600 X116.797 Y100.958
M205 X20 Y20
G1 F1800 X117.248 Y101.409 E32.47967
M205 X30 Y30
G0 F3600 X117.823 Y101.418
M205 X20 Y20
G1 F1800 X116.806 Y100.401 E32.5275
M205 X30 Y30
G0 F3600 X116.815 Y99.844
M205 X20 Y20
G1 F1800 X118.397 Y101.427 E32.60194
M205 X30 Y30
G0 F3600 X118.972 Y101.436
M205 X20 Y20
G1 F1800 X116.823 Y99.287 E32.70302
M205 X30 Y30
G0 F3600 X116.832 Y98.73
M205 X20 Y20
G1 F1800 X119.547 Y101.445 E32.83073
M205 X30 Y30
G0 F3600 X120.121 Y101.454
M205 X20 Y20
G1 F1800 X116.84 Y98.173 E32.98506
M205 X30 Y30
G0 F3600 X117.218 Y97.985
M205 X20 Y20
G1 F1800 X120.696 Y101.462 E33.14863
M205 X30 Y30
G0 F3600 X121.27 Y101.471
M205 X20 Y20
G1 F1800 X117.792 Y97.993 E33.31222
M205 X30 Y30
G0 F3600 X118.367 Y98.002
M205 X20 Y20
G1 F1800 X121.845 Y101.48 E33.47582
M205 X30 Y30
G0 F3600 X122.419 Y101.489
M205 X20 Y20
G1 F1800 X118.941 Y98.011 E33.63941
M205 X30 Y30
G0 F3600 X119.516 Y98.02
M205 X20 Y20
G1 F1800 X122.994 Y101.498 E33.803
M205 X30 Y30
G0 F3600 X123.098 Y101.037
M205 X20 Y20
G1 F1800 X120.09 Y98.029 E33.94449
M205 X30 Y30
G0 F3600 X120.665 Y98.038
M205 X20 Y20
G1 F1800 X123.107 Y100.479 E34.05933
M205 X30 Y30
