;FLAVOR:Marlin
;TIME:4283
;Filament used: 3.46889m
;Layer height: 0.15
;MINX:63.7
;MINY:75.701
;MINZ:0.2
;MAXX:147.299
;MAXY:135.297
;MAXZ:11.9
;Generated with Cura_SteamEngine 4.4.0
M140 S65
M105
M190 S65
M82 ;absolute extrusion mode
;Gcode by Cura
G90
;M106 S255
G28
M104 S210
M107
G1 X100 Y20 F3000
G1 Z0.5
M109 S210
M82
G92 E0
G1 F200 E10
G92 E0
G1 Z3
G1 F6000
G92 E0
G92 E0
G1 F3000 E-3.5
;LAYER_COUNT:79
;LAYER:0
M107
M205 X30 Y30
G1 F600 Z1.2
G0 F3600 X96.472 Y85.217 Z1.2
M205 X20 Y20
;TYPE:SKIRT
G1 F600 Z0.2
G1 F3000 E0
G1 F1500 X96.062 Y85.801 E0.02373
G1 X95.732 Y86.437 E0.04756
G1 X95.639 Y86.7 E0.05684
G1 X105.361 Y86.7 E0.3802
G1 X105.265 Y86.431 E0.3897
G1 X104.938 Y85.801 E0.41331
G1 X104.529 Y85.217 E0.43702
G1 X104.047 Y84.702 E0.46048
G1 X103.503 Y84.26 E0.48379
G1 X102.885 Y83.884 E0.50785
G1 X102.247 Y83.606 E0.531
G1 X101.552 Y83.412 E0.555
G1 X100.855 Y83.316 E0.5784
G1 X100.145 Y83.316 E0.60202
G1 X99.448 Y83.412 E0.62542
G1 X98.756 Y83.605 E0.64931
G1 X98.11 Y83.887 E0.67276
G1 X97.49 Y84.262 E0.69685
G1 X96.957 Y84.697 E0.71974
G1 X96.472 Y85.217 E0.74339
M205 X30 Y30
G0 F3600 X96.16 Y84.965
M205 X20 Y20
G1 F1500 X95.717 Y85.596 E0.76903
G1 X95.365 Y86.276 E0.7945
G1 X95.111 Y86.99 E0.8197
G1 X95.088 Y87.1 E0.82344
G1 X105.911 Y87.1 E1.18342
G1 X105.888 Y86.988 E1.18722
G1 X105.633 Y86.272 E1.2125
G1 X105.281 Y85.593 E1.23794
G1 X104.84 Y84.965 E1.26346
G1 X104.315 Y84.403 E1.28904
G1 X103.738 Y83.934 E1.31377
G1 X103.072 Y83.529 E1.33969
G1 X102.376 Y83.226 E1.36494
G1 X101.641 Y83.021 E1.39032
G1 X100.881 Y82.916 E1.41584
G1 X100.119 Y82.916 E1.44118
G1 X99.359 Y83.021 E1.4667
G1 X98.624 Y83.226 E1.49208
G1 X97.93 Y83.529 E1.51727
G1 X97.257 Y83.936 E1.54343
G1 X96.686 Y84.403 E1.56796
G1 X96.16 Y84.965 E1.59356
M205 X30 Y30
G0 F3600 X95.845 Y84.717
M205 X20 Y20
G1 F1500 X95.377 Y85.383 E1.62064
G1 X94.996 Y86.118 E1.64817
G1 X94.726 Y86.877 E1.67497
G1 X94.596 Y87.5 E1.69613
G1 X106.403 Y87.5 E2.08884
G1 X106.273 Y86.876 E2.11004
G1 X106.002 Y86.114 E2.13693
G1 X105.621 Y85.381 E2.16441
G1 X105.155 Y84.717 E2.19139
G1 X104.589 Y84.112 E2.21895
G1 X103.969 Y83.607 E2.24554
G1 X103.256 Y83.174 E2.27329
G1 X102.509 Y82.848 E2.3004
G1 X101.721 Y82.628 E2.32761
G1 X100.906 Y82.516 E2.35497
G1 X100.094 Y82.516 E2.38198
G1 X99.279 Y82.628 E2.40934
G1 X98.491 Y82.848 E2.43655
G1 X97.738 Y83.177 E2.46388
G1 X97.033 Y83.603 E2.49128
G1 X96.41 Y84.112 E2.51804
G1 X95.845 Y84.717 E2.54557
M205 X30 Y30
G0 F3600 X95.537 Y84.46
M205 X20 Y20
G1 F1500 X95.034 Y85.176 E2.57467
G1 X94.628 Y85.96 E2.60404
G1 X94.34 Y86.77 E2.63263
G1 X94.162 Y87.624 E2.66164
G1 X94.143 Y87.9 E2.67085
G1 X106.858 Y87.9 E3.09375
G1 X106.838 Y87.624 E3.10295
G1 X106.659 Y86.767 E3.13207
G1 X106.371 Y85.958 E3.16063
G1 X105.964 Y85.173 E3.19004
G1 X105.463 Y84.46 E3.21903
G1 X104.868 Y83.823 E3.24802
G1 X104.199 Y83.279 E3.2767
G1 X103.437 Y82.816 E3.30635
G1 X102.647 Y82.472 E3.33501
G1 X101.796 Y82.234 E3.3644
G1 X100.94 Y82.116 E3.39314
G1 X100.06 Y82.116 E3.42241
G1 X99.204 Y82.234 E3.45115
G1 X98.353 Y82.472 E3.48054
G1 X97.557 Y82.819 E3.50942
G1 X96.8 Y83.277 E3.53885
G1 X96.134 Y83.821 E3.56745
G1 X95.537 Y84.46 E3.59654
M205 X30 Y30
G0 F3600 X95.225 Y84.208
M205 X20 Y20
G1 F1500 X94.691 Y84.969 E3.62746
G1 X94.26 Y85.802 E3.65865
G1 X93.955 Y86.658 E3.68888
G1 X93.764 Y87.573 E3.71997
G1 X93.715 Y88.3 E3.7442
G1 X107.287 Y88.3 E4.19561
G1 X107.236 Y87.573 E4.21985
G1 X107.044 Y86.655 E4.25104
G1 X106.739 Y85.8 E4.28123
G1 X106.307 Y84.966 E4.31247
G1 X105.775 Y84.208 E4.34327
G1 X105.136 Y83.524 E4.37441
G1 X104.434 Y82.953 E4.4045
G1 X103.621 Y82.459 E4.43614
G1 X102.786 Y82.096 E4.46643
G1 X101.876 Y81.842 E4.49785
G1 X100.966 Y81.716 E4.52841
G1 X100.034 Y81.716 E4.5594
G1 X99.124 Y81.842 E4.58996
G1 X98.214 Y82.096 E4.62138
G1 X97.377 Y82.46 E4.65174
G1 X96.566 Y82.951 E4.68327
G1 X95.862 Y83.526 E4.71351
G1 X95.225 Y84.208 E4.74454
M205 X30 Y30
G1 F3000 E1.24454
G1 F600 Z1.2
G0 F3600 X91.958 Y81.258 Z1.2
M205 X20 Y20
G1 F600 Z0.2
G1 F3000 E4.74454
G1 F1500 X91.965 Y81.25 E4.7449
G1 X92.354 Y80.813 E4.76436
G1 X92.361 Y80.805 E4.76471
G1 X92.78 Y80.385 E4.78444
G1 X92.788 Y80.377 E4.78482
G1 X93.241 Y79.97 E4.80507
G1 X93.25 Y79.963 E4.80545
G1 X93.715 Y79.59 E4.82528
G1 X93.723 Y79.584 E4.82561
G1 X94.198 Y79.243 E4.84506
G1 X94.207 Y79.236 E4.84544
G1 X94.718 Y78.91 E4.8656
G1 X94.727 Y78.905 E4.86594
G1 X95.245 Y78.61 E4.88577
G1 X95.255 Y78.605 E4.88614
G1 X95.779 Y78.346 E4.90558
G1 X95.788 Y78.342 E4.90591
G1 X96.338 Y78.103 E4.92586
G1 X96.349 Y78.098 E4.92626
G1 X96.916 Y77.89 E4.94634
G1 X96.926 Y77.887 E4.94669
G1 X97.491 Y77.713 E4.96635
G1 X97.501 Y77.71 E4.9667
G1 X98.081 Y77.564 E4.98659
G1 X98.093 Y77.562 E4.987
G1 X98.671 Y77.452 E5.00657
G1 X98.68 Y77.45 E5.00688
G1 X99.276 Y77.367 E5.02689
G1 X99.288 Y77.366 E5.02729
G1 X99.874 Y77.319 E5.04684
G1 X99.884 Y77.318 E5.04718
G1 X100.485 Y77.301 E5.06717
G1 X100.496 Y77.301 E5.06754
G1 X101.094 Y77.315 E5.08744
G1 X101.105 Y77.316 E5.0878
G1 X101.69 Y77.362 E5.10732
G1 X101.701 Y77.363 E5.10769
G1 X102.299 Y77.445 E5.12776
G1 X102.309 Y77.447 E5.1281
G1 X102.887 Y77.557 E5.14767
G1 X102.898 Y77.559 E5.14804
G1 X103.48 Y77.703 E5.16798
G1 X103.491 Y77.706 E5.16836
G1 X104.055 Y77.88 E5.188
G1 X104.064 Y77.883 E5.18831
G1 X104.63 Y78.089 E5.20834
G1 X104.641 Y78.093 E5.20873
G1 X105.192 Y78.33 E5.22868
G1 X105.202 Y78.335 E5.22905
G1 X105.726 Y78.594 E5.2485
G1 X105.736 Y78.599 E5.24887
G1 X106.264 Y78.898 E5.26905
G1 X106.272 Y78.903 E5.26936
G1 X106.776 Y79.223 E5.28922
G1 X106.786 Y79.23 E5.28963
G1 X107.261 Y79.571 E5.30907
G1 X107.269 Y79.577 E5.30941
G1 X107.742 Y79.958 E5.32961
G1 X107.75 Y79.965 E5.32996
G1 X108.187 Y80.354 E5.34942
G1 X108.195 Y80.361 E5.34977
G1 X108.615 Y80.78 E5.36951
G1 X108.623 Y80.788 E5.36988
G1 X109.03 Y81.241 E5.39014
G1 X109.037 Y81.25 E5.39052
G1 X109.404 Y81.707 E5.41001
G1 X109.41 Y81.715 E5.41034
G1 X109.757 Y82.198 E5.43012
G1 X109.764 Y82.207 E5.4305
G1 X110.09 Y82.718 E5.45066
G1 X110.095 Y82.727 E5.45101
G1 X110.39 Y83.245 E5.47083
G1 X110.395 Y83.255 E5.4712
G1 X110.654 Y83.779 E5.49064
G1 X110.658 Y83.788 E5.49097
G1 X110.895 Y84.333 E5.51074
G1 X110.9 Y84.344 E5.51114
G1 X111.11 Y84.914 E5.53134
G1 X111.113 Y84.924 E5.53169
G1 X111.285 Y85.483 E5.55114
G1 X111.288 Y85.493 E5.55149
G1 X111.434 Y86.071 E5.57132
G1 X111.436 Y86.082 E5.57169
G1 X111.518 Y86.508 E5.58612
G1 X111.774 Y85.583 E5.61804
G1 X111.781 Y85.562 E5.61878
G1 X112.142 Y84.657 E5.65119
G1 X112.151 Y84.638 E5.65189
G1 X112.603 Y83.782 E5.68408
G1 X112.614 Y83.763 E5.68481
G1 X113.169 Y82.94 E5.71783
G1 X113.182 Y82.923 E5.71854
G1 X113.802 Y82.192 E5.75042
G1 X113.818 Y82.176 E5.75117
G1 X114.526 Y81.506 E5.78359
G1 X114.542 Y81.492 E5.7843
G1 X115.323 Y80.896 E5.81698
G1 X115.34 Y80.884 E5.81767
G1 X116.168 Y80.383 E5.84986
G1 X116.188 Y80.373 E5.8506
G1 X117.065 Y79.966 E5.88276
G1 X117.085 Y79.957 E5.88349
G1 X118.023 Y79.642 E5.9164
G1 X118.044 Y79.637 E5.91711
G1 X118.986 Y79.428 E5.94921
G1 X119.007 Y79.424 E5.94992
G1 X119.982 Y79.316 E5.98255
G1 X120.003 Y79.315 E5.98325
G1 X120.971 Y79.312 E6.01544
G1 X120.993 Y79.313 E6.01617
G1 X121.97 Y79.418 E6.04886
G1 X121.992 Y79.422 E6.0496
G1 X122.933 Y79.629 E6.08165
G1 X122.953 Y79.634 E6.08233
G1 X123.884 Y79.945 E6.11498
G1 X123.905 Y79.953 E6.11573
G1 X124.795 Y80.364 E6.14833
G1 X124.814 Y80.374 E6.14905
G1 X125.641 Y80.87 E6.18112
G1 X125.659 Y80.883 E6.18186
G1 X126.439 Y81.476 E6.21445
G1 X126.455 Y81.489 E6.21513
G1 X127.16 Y82.153 E6.24734
G1 X127.175 Y82.169 E6.24807
G1 X127.812 Y82.917 E6.28075
G1 X127.825 Y82.934 E6.28146
G1 X128.364 Y83.726 E6.31333
G1 X128.376 Y83.745 E6.31407
G1 X128.839 Y84.617 E6.34691
G1 X128.848 Y84.637 E6.34764
G1 X129.209 Y85.54 E6.37999
G1 X129.216 Y85.56 E6.38069
G1 X129.482 Y86.51 E6.4135
G1 X129.486 Y86.532 E6.41425
G1 X129.64 Y87.472 E6.44593
G1 X129.643 Y87.493 E6.44663
G1 X129.691 Y88.357 E6.47541
G1 X129.645 Y88.484 E6.47991
G1 X129.7 Y88.617 E6.48469
G1 X129.7 Y89.3 E6.50741
G1 X144.494 Y89.3 E6.99946
G1 X144.522 Y89.302 E7.00039
G1 X144.805 Y89.342 E7.0099
G1 X144.858 Y89.357 E7.01173
G1 X145.091 Y89.46 E7.02021
G1 X145.134 Y89.486 E7.02188
G1 X145.342 Y89.65 E7.03069
G1 X145.378 Y89.687 E7.0324
G1 X145.532 Y89.893 E7.04096
G1 X145.558 Y89.94 E7.04275
G1 X145.655 Y90.186 E7.05154
G1 X145.669 Y90.254 E7.05385
G1 X145.7 Y91.478 E7.09457
G1 X145.698 Y91.51 E7.09564
G1 X145.659 Y91.796 E7.10524
G1 X145.645 Y91.848 E7.10703
G1 X145.542 Y92.088 E7.11572
G1 X145.515 Y92.133 E7.11746
G1 X145.353 Y92.339 E7.12618
G1 X145.316 Y92.375 E7.1279
G1 X145.109 Y92.531 E7.13652
G1 X145.063 Y92.557 E7.13827
G1 X144.816 Y92.655 E7.14711
G1 X144.767 Y92.667 E7.14879
G1 X144.519 Y92.698 E7.1571
G1 X144.494 Y92.7 E7.15794
G1 X141.7 Y92.7 E7.25087
G1 X141.7 Y100.383 E7.5064
G1 X141.641 Y100.524 E7.51149
G1 X141.524 Y100.641 E7.51699
G1 X141.383 Y100.7 E7.52207
G1 X138.617 Y100.7 E7.61407
G1 X138.476 Y100.641 E7.61916
G1 X138.359 Y100.524 E7.62466
G1 X138.3 Y100.383 E7.62974
G1 X138.3 Y92.7 E7.88528
G1 X129.7 Y92.7 E8.17132
G1 X129.7 Y113.282 E8.85588
G1 X129.651 Y114.911 E8.91008
G1 X129.65 Y114.926 E8.91058
G1 X129.498 Y116.346 E8.95808
G1 X129.496 Y116.36 E8.95855
G1 X129.242 Y117.776 E9.0064
G1 X129.239 Y117.79 E9.00688
G1 X128.892 Y119.158 E9.05382
G1 X128.888 Y119.172 E9.0543
G1 X128.437 Y120.533 E9.10199
G1 X128.432 Y120.547 E9.10248
G1 X127.878 Y121.882 E9.15056
G1 X127.872 Y121.894 E9.151
G1 X127.238 Y123.166 E9.19828
G1 X127.231 Y123.179 E9.19877
G1 X126.507 Y124.4 E9.24598
G1 X126.499 Y124.412 E9.24646
G1 X125.682 Y125.591 E9.29417
G1 X125.674 Y125.603 E9.29465
G1 X124.768 Y126.724 E9.34259
G1 X124.759 Y126.734 E9.34303
G1 X123.804 Y127.762 E9.3897
G1 X123.793 Y127.772 E9.3902
G1 X122.741 Y128.753 E9.43804
G1 X122.731 Y128.763 E9.43851
G1 X121.608 Y129.669 E9.4865
G1 X121.596 Y129.677 E9.48698
G1 X120.437 Y130.483 E9.53393
G1 X120.425 Y130.491 E9.53441
G1 X119.212 Y131.212 E9.58135
G1 X119.199 Y131.219 E9.58184
G1 X117.894 Y131.872 E9.63037
G1 X117.882 Y131.878 E9.63082
G1 X116.572 Y132.422 E9.678
G1 X116.558 Y132.427 E9.67849
G1 X115.22 Y132.872 E9.72539
G1 X115.207 Y132.876 E9.72584
G1 X113.801 Y133.238 E9.77413
G1 X113.786 Y133.241 E9.77464
G1 X112.384 Y133.492 E9.82201
G1 X112.37 Y133.494 E9.82248
G1 X110.951 Y133.647 E9.86995
G1 X110.937 Y133.648 E9.87042
G1 X109.528 Y133.698 E9.91731
G1 X109.514 Y133.698 E9.91778
G1 X108.071 Y133.649 E9.9658
G1 X108.057 Y133.648 E9.96627
G1 X106.637 Y133.495 E10.01377
G1 X106.623 Y133.493 E10.01424
G1 X105.218 Y133.24 E10.06172
G1 X105.204 Y133.237 E10.0622
G1 X103.836 Y132.89 E10.10914
G1 X103.822 Y132.886 E10.10962
G1 X102.448 Y132.43 E10.15777
G1 X102.434 Y132.425 E10.15827
G1 X101.118 Y131.878 E10.20567
G1 X101.106 Y131.872 E10.20612
G1 X99.844 Y131.243 E10.25302
G1 X99.831 Y131.236 E10.25351
G1 X98.581 Y130.495 E10.30184
G1 X98.569 Y130.487 E10.30232
G1 X97.409 Y129.682 E10.34928
G1 X97.397 Y129.674 E10.34976
G1 X96.288 Y128.779 E10.39716
G1 X96.278 Y128.77 E10.39761
G1 X95.224 Y127.791 E10.44545
G1 X95.214 Y127.78 E10.44595
G1 X94.246 Y126.74 E10.4932
G1 X94.236 Y126.73 E10.49367
G1 X93.342 Y125.621 E10.54105
G1 X93.334 Y125.609 E10.54153
G1 X92.514 Y124.433 E10.58921
G1 X92.506 Y124.421 E10.58969
G1 X91.772 Y123.185 E10.6375
G1 X91.765 Y123.172 E10.638
G1 X91.131 Y121.9 E10.68527
G1 X91.125 Y121.888 E10.68571
G1 X90.584 Y120.586 E10.73261
G1 X90.579 Y120.572 E10.7331
G1 X90.119 Y119.195 E10.78139
G1 X90.115 Y119.182 E10.78184
G1 X89.761 Y117.798 E10.82935
G1 X89.758 Y117.783 E10.82986
G1 X89.508 Y116.384 E10.87713
G1 X89.506 Y116.37 E10.8776
G1 X89.355 Y114.961 E10.92473
G1 X89.354 Y114.948 E10.92517
G1 X89.3 Y113.514 E10.9729
G1 X89.3 Y113.506 E10.97316
G1 X89.299 Y92.7 E11.66517
G1 X79.7 Y92.7 E11.98444
G1 X79.7 Y101.404 E12.27393
G1 X79.699 Y101.428 E12.27473
G1 X79.655 Y101.799 E12.28716
G1 X79.634 Y101.866 E12.28949
G1 X79.456 Y102.214 E12.30249
G1 X79.407 Y102.276 E12.30512
G1 X79.11 Y102.526 E12.31803
G1 X79.043 Y102.563 E12.32058
G1 X78.679 Y102.681 E12.33331
G1 X78.619 Y102.691 E12.33533
G1 X77.524 Y102.7 E12.37175
G1 X77.481 Y102.696 E12.37319
G1 X77.057 Y102.608 E12.38759
G1 X76.983 Y102.576 E12.39027
G1 X76.668 Y102.356 E12.40305
G1 X76.615 Y102.3 E12.40562
G1 X76.404 Y101.971 E12.41862
G1 X76.376 Y101.901 E12.42112
G1 X76.304 Y101.527 E12.43379
G1 X76.3 Y101.489 E12.43506
G1 X76.3 Y92.7 E12.72738
G1 X68.7 Y92.7 E12.98016
G1 X68.7 Y103.489 E13.33901
G1 X68.696 Y103.531 E13.34041
G1 X68.608 Y103.944 E13.35445
G1 X68.576 Y104.016 E13.35707
G1 X68.357 Y104.331 E13.36983
G1 X68.301 Y104.385 E13.37242
G1 X67.972 Y104.596 E13.38542
G1 X67.902 Y104.624 E13.38793
G1 X67.527 Y104.696 E13.40063
G1 X67.489 Y104.7 E13.4019
G1 X66.521 Y104.7 E13.4341
G1 X66.483 Y104.696 E13.43537
G1 X66.069 Y104.615 E13.4494
G1 X65.985 Y104.577 E13.45246
G1 X65.6 Y104.28 E13.46864
G1 X65.543 Y104.211 E13.47161
G1 X65.353 Y103.828 E13.48583
G1 X65.334 Y103.765 E13.48802
G1 X65.302 Y103.525 E13.49607
G1 X65.3 Y103.499 E13.49694
G1 X65.3 Y90.506 E13.92909
G1 X65.302 Y90.478 E13.93002
G1 X65.341 Y90.201 E13.93933
G1 X65.355 Y90.15 E13.94109
G1 X65.458 Y89.912 E13.94971
G1 X65.485 Y89.867 E13.95146
G1 X65.647 Y89.661 E13.96017
G1 X65.684 Y89.625 E13.96189
G1 X65.891 Y89.469 E13.97051
G1 X65.939 Y89.442 E13.97234
G1 X66.186 Y89.347 E13.98115
G1 X66.244 Y89.334 E13.98312
G1 X66.745 Y89.3 E13.99983
G1 X89.3 Y89.3 E14.75001
G1 X89.3 Y88.617 E14.77272
G1 X89.351 Y88.496 E14.77709
G1 X89.303 Y88.369 E14.78161
G1 X89.361 Y87.317 E14.81665
G1 X89.363 Y87.301 E14.81719
G1 X89.443 Y86.71 E14.83702
G1 X89.445 Y86.7 E14.83736
G1 X89.557 Y86.113 E14.85724
G1 X89.559 Y86.102 E14.85761
G1 X89.702 Y85.525 E14.87738
G1 X89.705 Y85.514 E14.87776
G1 X89.88 Y84.945 E14.89756
G1 X89.883 Y84.936 E14.89788
G1 X90.091 Y84.364 E14.91812
G1 X90.33 Y83.808 E14.93825
G1 X90.335 Y83.798 E14.93862
G1 X90.594 Y83.274 E14.95806
G1 X90.599 Y83.265 E14.9584
G1 X90.893 Y82.745 E14.97827
G1 X90.898 Y82.736 E14.97861
G1 X91.222 Y82.225 E14.99874
G1 X91.229 Y82.215 E14.99914
G1 X91.571 Y81.739 E15.01864
G1 X91.577 Y81.731 E15.01897
G1 X91.958 Y81.258 E15.03917
M205 X30 Y30
G0 F3600 X91.647 Y81.007
M205 X20 Y20
G1 F1500 X91.666 Y80.984 E15.04016
G1 X92.055 Y80.547 E15.05962
G1 X92.078 Y80.522 E15.06075
G1 X92.497 Y80.102 E15.08049
G1 X92.521 Y80.08 E15.08157
G1 X92.974 Y79.673 E15.10182
G1 X93 Y79.651 E15.10296
G1 X93.465 Y79.278 E15.12278
G1 X93.49 Y79.259 E15.12383
G1 X93.965 Y78.918 E15.14328
G1 X93.992 Y78.899 E15.14437
G1 X94.503 Y78.573 E15.16453
G1 X94.529 Y78.558 E15.16553
G1 X95.047 Y78.263 E15.18536
G1 X95.078 Y78.246 E15.18653
G1 X95.602 Y77.987 E15.20598
G1 X95.629 Y77.975 E15.20696
G1 X96.179 Y77.736 E15.2269
G1 X96.211 Y77.723 E15.22805
G1 X96.778 Y77.515 E15.24814
G1 X96.808 Y77.505 E15.24919
G1 X97.373 Y77.331 E15.26885
G1 X97.404 Y77.322 E15.26993
G1 X97.984 Y77.176 E15.28982
G1 X98.018 Y77.169 E15.29098
G1 X98.596 Y77.059 E15.31054
G1 X98.625 Y77.054 E15.31152
G1 X99.221 Y76.971 E15.33154
G1 X99.256 Y76.967 E15.33271
G1 X99.842 Y76.92 E15.35226
G1 X99.873 Y76.918 E15.3533
G1 X100.474 Y76.901 E15.37329
G1 X100.505 Y76.901 E15.37432
G1 X101.103 Y76.915 E15.39422
G1 X101.136 Y76.917 E15.39532
G1 X101.721 Y76.963 E15.41484
G1 X101.756 Y76.967 E15.41601
G1 X102.354 Y77.049 E15.43608
G1 X102.384 Y77.054 E15.4371
G1 X102.962 Y77.164 E15.45666
G1 X102.994 Y77.171 E15.45775
G1 X103.576 Y77.315 E15.4777
G1 X103.609 Y77.324 E15.47883
G1 X104.173 Y77.498 E15.49846
G1 X104.201 Y77.507 E15.49944
G1 X104.767 Y77.713 E15.51948
G1 X104.799 Y77.726 E15.52062
G1 X105.35 Y77.963 E15.54057
G1 X105.379 Y77.976 E15.54163
G1 X105.903 Y78.235 E15.56107
G1 X105.933 Y78.251 E15.5622
G1 X106.461 Y78.55 E15.58238
G1 X106.487 Y78.565 E15.58338
G1 X106.991 Y78.885 E15.60324
G1 X107.019 Y78.905 E15.60438
G1 X107.494 Y79.246 E15.62383
G1 X107.52 Y79.266 E15.62492
G1 X107.993 Y79.647 E15.64512
G1 X108.016 Y79.666 E15.64612
G1 X108.453 Y80.055 E15.66558
G1 X108.478 Y80.078 E15.66671
G1 X108.898 Y80.497 E15.68644
G1 X108.92 Y80.521 E15.68752
