;FLAVOR:Marlin
;TIME:436
;Filament used: 0.213549m
;Layer height: 0.15
;MINX:62.694
;MINY:102.801
;MINZ:0.1
;MAXX:90.306
;MAXY:131.199
;MAXZ:5.9
;Generated with Cura_SteamEngine 4.5.0
M140 S67
M105
M190 S67
M82 ;absolute extrusion mode
;Gcode by Cura
G90
M106 S255
G28 X Y
M109 R195
G28
M104 S191
G29
M107
G1 X100 Y10 F3000
G1 Z0.5
M109 S191
M82
G92 E0
G1 F200 E10
G92 E0
G1 Z3
G1 F6000
G92 E0
G92 E0
G1 F1200 E-3.5
;LAYER_COUNT:33
;LAYER:0
M106 S255
M205 X30 Y30
G1 F120 Z1.1
G0 F3600 X74.749 Y103.363 Z1.1
M205 X15 Y15
;TYPE:SKIRT
G1 F120 Z0.1
G1 F1200 E0
G1 F1500 X75.169 Y103.111 E0.00815
G1 X75.624 Y102.931 E0.01628
G1 X76.102 Y102.827 E0.02442
G1 X76.663 Y102.801 E0.03376
G1 X77.626 Y102.96 E0.04999
G1 X78.075 Y103.154 E0.05812
G1 X78.487 Y103.419 E0.06627
G1 X80.737 Y105.637 E0.11881
G1 X81.054 Y106.01 E0.12695
G1 X81.305 Y106.43 E0.13509
G1 X81.485 Y106.886 E0.14324
G1 X81.588 Y107.364 E0.15137
G1 X81.614 Y107.922 E0.16066
G1 X81.574 Y108.41 E0.16881
G1 X81.455 Y108.885 E0.17695
G1 X81.261 Y109.334 E0.18508
G1 X80.909 Y109.845 E0.1954
G1 X81.86 Y110.018 E0.21148
G1 X82.309 Y110.212 E0.21961
G1 X82.721 Y110.477 E0.22776
G1 X84.26 Y111.976 E0.26348
G1 X84.627 Y112.432 E0.27322
G1 X85.088 Y112.248 E0.28147
G1 X85.566 Y112.144 E0.28961
G1 X86.727 Y112.118 E0.30892
G1 X87.215 Y112.158 E0.31706
G1 X87.69 Y112.277 E0.32521
G1 X88.139 Y112.471 E0.33334
G1 X88.551 Y112.736 E0.34149
G1 X88.965 Y113.114 E0.35081
G1 X89.282 Y113.487 E0.35895
G1 X89.534 Y113.907 E0.3671
G1 X89.714 Y114.362 E0.37523
G1 X89.818 Y114.84 E0.38337
G1 X89.844 Y115.319 E0.39135
G1 X89.996 Y115.572 E0.39625
G1 X90.176 Y116.027 E0.40439
G1 X90.28 Y116.505 E0.41253
G1 X90.306 Y124.666 E0.54825
G1 X90.266 Y125.154 E0.55639
G1 X90.147 Y125.629 E0.56453
G1 X89.953 Y126.078 E0.57267
G1 X89.688 Y126.49 E0.58081
G1 X89.31 Y126.904 E0.59014
G1 X88.937 Y127.221 E0.59828
G1 X88.517 Y127.473 E0.60642
G1 X88.062 Y127.653 E0.61456
G1 X87.584 Y127.757 E0.62269
G1 X81.187 Y127.783 E0.72908
G1 X81.001 Y128.072 E0.73479
G1 X78.782 Y130.323 E0.78736
G1 X78.408 Y130.639 E0.7955
G1 X77.988 Y130.891 E0.80365
G1 X77.533 Y131.07 E0.81178
G1 X77.054 Y131.173 E0.81992
G1 X76.497 Y131.199 E0.8292
G1 X76.009 Y131.159 E0.83734
G1 X75.534 Y131.04 E0.84548
G1 X75.085 Y130.846 E0.85362
G1 X74.673 Y130.581 E0.86176
G1 X72.423 Y128.371 E0.91421
G1 X72.106 Y127.998 E0.92235
G1 X71.977 Y127.783 E0.92652
G1 X65.811 Y127.783 E1.02906
G1 X65.323 Y127.743 E1.03721
G1 X64.848 Y127.624 E1.04535
G1 X64.399 Y127.43 E1.05348
G1 X63.987 Y127.165 E1.06163
G1 X63.573 Y126.787 E1.07095
G1 X63.256 Y126.414 E1.07909
G1 X63.004 Y125.994 E1.08724
G1 X62.824 Y125.539 E1.09538
G1 X62.72 Y125.061 E1.10351
G1 X62.694 Y116.9 E1.23923
G1 X62.734 Y116.412 E1.24737
G1 X62.853 Y115.937 E1.25552
G1 X63.047 Y115.488 E1.26365
G1 X63.312 Y115.076 E1.2718
G1 X63.69 Y114.662 E1.28112
G1 X64.063 Y114.345 E1.28926
G1 X64.483 Y114.093 E1.29741
G1 X64.938 Y113.913 E1.30554
G1 X65.416 Y113.809 E1.31368
G1 X68.045 Y113.783 E1.3574
G1 X68.178 Y113.137 E1.36837
G1 X68.372 Y112.688 E1.3765
G1 X68.637 Y112.276 E1.38465
G1 X70.143 Y110.735 E1.42048
G1 X70.517 Y110.419 E1.42863
G1 X70.937 Y110.167 E1.43677
G1 X71.392 Y109.987 E1.44491
G1 X71.87 Y109.884 E1.45304
G1 X72.251 Y109.838 E1.45942
G1 X71.858 Y109.252 E1.47116
G1 X71.677 Y108.798 E1.47928
G1 X71.573 Y108.319 E1.48744
G1 X71.546 Y107.756 E1.49681
G1 X71.586 Y107.268 E1.50495
G1 X71.705 Y106.793 E1.51309
G1 X71.899 Y106.344 E1.52123
G1 X72.164 Y105.932 E1.52938
G1 X73.001 Y105.054 E1.54955
G1 X74.376 Y103.68 E1.58187
G1 X74.749 Y103.363 E1.59001
M205 X30 Y30
G0 F3600 X75.008 Y103.67
M205 X15 Y15
G1 F1500 X75.403 Y103.443 E1.59759
G1 X75.831 Y103.288 E1.60516
G1 X76.497 Y103.201 E1.61633
G1 X77.117 Y103.241 E1.62666
G1 X77.557 Y103.359 E1.63424
G1 X77.969 Y103.553 E1.64181
G1 X78.503 Y103.964 E1.65302
G1 X80.454 Y105.919 E1.69895
G1 X80.747 Y106.269 E1.70654
G1 X80.974 Y106.664 E1.71412
G1 X81.128 Y107.093 E1.7217
G1 X81.214 Y107.756 E1.73282
G1 X81.174 Y108.376 E1.74315
G1 X81.056 Y108.816 E1.75072
G1 X80.862 Y109.228 E1.7583
G1 X80.49 Y109.71 E1.76842
G1 X80.496 Y110.209 E1.77672
G1 X80.585 Y110.278 E1.77859
G1 X80.897 Y110.259 E1.78379
G1 X81.351 Y110.299 E1.79137
G1 X81.791 Y110.417 E1.79895
G1 X82.203 Y110.611 E1.80652
G1 X82.733 Y111.018 E1.81763
G1 X83.977 Y112.259 E1.84685
G1 X84.27 Y112.608 E1.85443
G1 X84.485 Y112.98 E1.86158
G1 X84.867 Y112.76 E1.86891
G1 X85.295 Y112.605 E1.87648
G1 X85.961 Y112.518 E1.88765
G1 X86.727 Y112.518 E1.90039
G1 X87.181 Y112.558 E1.90797
G1 X87.621 Y112.676 E1.91554
G1 X88.033 Y112.87 E1.92312
G1 X88.565 Y113.28 E1.93428
G1 X88.975 Y113.746 E1.94461
G1 X89.202 Y114.141 E1.95218
G1 X89.357 Y114.569 E1.95975
G1 X89.444 Y115.235 E1.97092
G1 X89.444 Y115.423 E1.97405
G1 X89.664 Y115.806 E1.98139
G1 X89.819 Y116.234 E1.98896
G1 X89.906 Y116.9 E2.00013
G1 X89.906 Y124.666 E2.12928
G1 X89.866 Y125.12 E2.13686
G1 X89.748 Y125.56 E2.14444
G1 X89.554 Y125.972 E2.15201
G1 X89.144 Y126.504 E2.16318
G1 X88.678 Y126.914 E2.1735
G1 X88.283 Y127.141 E2.18108
G1 X87.855 Y127.296 E2.18865
G1 X87.189 Y127.383 E2.19982
G1 X80.948 Y127.383 E2.30361
G1 X80.867 Y127.554 E2.30675
G1 X80.455 Y128.089 E2.31798
G1 X78.499 Y130.04 E2.36393
G1 X78.15 Y130.332 E2.3715
G1 X77.754 Y130.559 E2.37909
G1 X77.326 Y130.713 E2.38665
G1 X76.663 Y130.799 E2.39777
G1 X76.043 Y130.759 E2.4081
G1 X75.603 Y130.641 E2.41568
G1 X75.191 Y130.447 E2.42325
G1 X74.66 Y130.039 E2.43439
G1 X72.706 Y128.088 E2.48031
G1 X72.413 Y127.739 E2.48788
G1 X72.208 Y127.383 E2.49472
G1 X65.811 Y127.383 E2.6011
G1 X65.357 Y127.343 E2.60868
G1 X64.917 Y127.225 E2.61625
G1 X64.505 Y127.031 E2.62383
G1 X63.973 Y126.621 E2.635
G1 X63.563 Y126.155 E2.64532
G1 X63.336 Y125.76 E2.65289
G1 X63.181 Y125.332 E2.66046
G1 X63.094 Y124.666 E2.67163
G1 X63.094 Y116.9 E2.80078
G1 X63.134 Y116.446 E2.80836
G1 X63.252 Y116.006 E2.81594
G1 X63.446 Y115.594 E2.82351
G1 X63.856 Y115.062 E2.83468
G1 X64.322 Y114.652 E2.845
G1 X64.717 Y114.425 E2.85258
G1 X65.145 Y114.27 E2.86015
G1 X65.811 Y114.183 E2.87132
G1 X68.419 Y114.183 E2.91469
G1 X68.459 Y113.646 E2.92365
G1 X68.577 Y113.206 E2.93122
G1 X68.771 Y112.794 E2.93879
G1 X69.182 Y112.26 E2.95
G1 X70.426 Y111.018 E2.97923
G1 X70.775 Y110.726 E2.9868
G1 X71.17 Y110.499 E2.99438
G1 X71.599 Y110.344 E3.00196
G1 X72.263 Y110.258 E3.0131
G1 X72.58 Y110.271 E3.01837
G1 X72.67 Y110.195 E3.02033
G1 X72.663 Y109.706 E3.02847
G1 X72.416 Y109.413 E3.03484
G1 X72.189 Y109.018 E3.04242
G1 X72.033 Y108.59 E3.04999
G1 X71.946 Y107.921 E3.06121
G1 X71.986 Y107.302 E3.07153
G1 X72.104 Y106.862 E3.0791
G1 X72.298 Y106.45 E3.08668
G1 X72.701 Y105.924 E3.09769
G1 X73.285 Y105.336 E3.11148
G1 X74.659 Y103.963 E3.14378
G1 X75.008 Y103.67 E3.15136
M205 X30 Y30
G0 F3600 X75.265 Y103.979
M205 X15 Y15
G1 F1500 X75.632 Y103.778 E3.15832
G1 X76.032 Y103.651 E3.1653
G1 X76.663 Y103.601 E3.17582
G1 X77.482 Y103.759 E3.18969
G1 X77.854 Y103.952 E3.19666
G1 X78.22 Y104.247 E3.20448
G1 X80.171 Y106.202 E3.25041
G1 X80.438 Y106.525 E3.25738
G1 X80.638 Y106.894 E3.26436
G1 X80.765 Y107.293 E3.27132
G1 X80.814 Y107.922 E3.28182
G1 X80.774 Y108.339 E3.28878
G1 X80.656 Y108.741 E3.29575
G1 X80.463 Y109.113 E3.30272
G1 X80.079 Y109.568 E3.31262
G1 X80.111 Y110.034 E3.32039
G1 X80.078 Y110.378 E3.32614
G1 X80.441 Y110.69 E3.3341
G1 X80.897 Y110.659 E3.3417
G1 X81.314 Y110.699 E3.34866
G1 X81.716 Y110.817 E3.35563
G1 X82.088 Y111.01 E3.3626
G1 X82.451 Y111.301 E3.37034
G1 X83.695 Y112.542 E3.39956
G1 X83.962 Y112.865 E3.40653
G1 X84.163 Y113.233 E3.4135
G1 X84.283 Y113.562 E3.41932
G1 X84.344 Y113.623 E3.42076
G1 X84.729 Y113.296 E3.42916
G1 X85.096 Y113.095 E3.43612
G1 X85.496 Y112.968 E3.4431
G1 X85.961 Y112.918 E3.45088
G1 X86.727 Y112.918 E3.46361
G1 X87.144 Y112.958 E3.47058
G1 X87.546 Y113.076 E3.47755
G1 X87.918 Y113.269 E3.48452
G1 X88.4 Y113.679 E3.49504
G1 X88.666 Y114.003 E3.50201
G1 X88.867 Y114.37 E3.50897
G1 X88.994 Y114.77 E3.51595
G1 X89.044 Y115.566 E3.52921
G1 X89.329 Y116.035 E3.53834
G1 X89.456 Y116.435 E3.54532
G1 X89.506 Y116.9 E3.5531
G1 X89.506 Y124.666 E3.68225
G1 X89.466 Y125.083 E3.68921
G1 X89.348 Y125.485 E3.69618
G1 X89.155 Y125.857 E3.70315
G1 X88.745 Y126.339 E3.71367
G1 X88.421 Y126.605 E3.72064
G1 X88.054 Y126.806 E3.7276
G1 X87.654 Y126.933 E3.73458
G1 X87.189 Y126.983 E3.74236
G1 X80.686 Y126.983 E3.8505
G1 X80.468 Y127.439 E3.85891
G1 X80.173 Y127.806 E3.86674
G1 X78.217 Y129.757 E3.91268
G1 X77.893 Y130.023 E3.91966
G1 X77.525 Y130.223 E3.92662
G1 X77.126 Y130.35 E3.93358
G1 X76.497 Y130.399 E3.94408
G1 X76.08 Y130.359 E3.95104
G1 X75.678 Y130.241 E3.95801
G1 X75.306 Y130.048 E3.96498
G1 X74.943 Y129.756 E3.97273
G1 X72.989 Y127.805 E4.01865
G1 X72.722 Y127.482 E4.02562
G1 X72.479 Y126.983 E4.03485
G1 X65.811 Y126.983 E4.14574
G1 X65.394 Y126.943 E4.1527
G1 X64.992 Y126.825 E4.15967
G1 X64.62 Y126.632 E4.16664
G1 X64.138 Y126.222 E4.17716
G1 X63.872 Y125.898 E4.18413
G1 X63.671 Y125.531 E4.19109
G1 X63.544 Y125.131 E4.19807
G1 X63.494 Y124.666 E4.20585
G1 X63.494 Y116.9 E4.335
G1 X63.534 Y116.483 E4.34196
G1 X63.652 Y116.081 E4.34893
G1 X63.845 Y115.709 E4.3559
G1 X64.255 Y115.227 E4.36642
G1 X64.579 Y114.961 E4.3734
G1 X64.946 Y114.76 E4.38035
G1 X65.346 Y114.633 E4.38733
G1 X65.811 Y114.583 E4.39511
G1 X68.853 Y114.583 E4.4457
G1 X68.819 Y114.1 E4.45375
G1 X68.859 Y113.683 E4.46072
G1 X68.977 Y113.281 E4.46769
G1 X69.17 Y112.909 E4.47466
G1 X69.465 Y112.543 E4.48247
G1 X70.709 Y111.301 E4.51171
G1 X71.032 Y111.035 E4.51867
G1 X71.4 Y110.834 E4.52564
G1 X71.799 Y110.707 E4.5326
G1 X72.429 Y110.658 E4.54311
G1 X72.723 Y110.686 E4.54802
G1 X73.085 Y110.37 E4.55601
G1 X73.049 Y109.868 E4.56438
G1 X73.078 Y109.564 E4.56946
G1 X72.725 Y109.156 E4.57843
G1 X72.524 Y108.788 E4.58541
G1 X72.396 Y108.389 E4.59237
G1 X72.346 Y107.756 E4.60293
G1 X72.386 Y107.339 E4.6099
G1 X72.504 Y106.937 E4.61687
G1 X72.697 Y106.565 E4.62384
G1 X72.985 Y106.206 E4.63149
G1 X73.569 Y105.618 E4.64527
G1 X74.941 Y104.245 E4.67755
G1 X75.265 Y103.979 E4.68452
M205 X30 Y30
G0 F3600 X75.519 Y104.29
M205 X15 Y15
G1 F1500 X75.857 Y104.119 E4.69082
G1 X76.223 Y104.022 E4.69712
G1 X76.663 Y104.001 E4.70445
G1 X77.4 Y104.159 E4.71698
G1 X77.727 Y104.349 E4.72327
G1 X79.888 Y106.485 E4.7738
G1 X80.126 Y106.779 E4.78009
G1 X80.297 Y107.118 E4.7864
G1 X80.393 Y107.484 E4.7927
G1 X80.414 Y107.922 E4.79999
G1 X80.374 Y108.299 E4.80629
G1 X80.256 Y108.659 E4.81259
G1 X80.066 Y108.986 E4.81888
G1 X79.648 Y109.434 E4.82907
G1 X79.711 Y109.868 E4.83637
G1 X79.671 Y110.411 E4.84542
G1 X79.622 Y110.561 E4.84805
G1 X79.848 Y110.692 E4.85239
G1 X80.304 Y111.12 E4.86279
G1 X80.731 Y111.059 E4.86996
G1 X81.274 Y111.099 E4.87902
G1 X81.634 Y111.217 E4.88532
G1 X81.961 Y111.407 E4.89161
G1 X83.412 Y112.826 E4.92536
G1 X83.651 Y113.12 E4.93166
G1 X83.823 Y113.458 E4.93797
G1 X83.904 Y113.763 E4.94321
G1 X84.117 Y113.962 E4.94806
G1 X84.347 Y114.248 E4.95417
G1 X84.688 Y113.845 E4.96294
G1 X84.983 Y113.607 E4.96925
G1 X85.321 Y113.436 E4.97555
G1 X85.687 Y113.339 E4.98184
G1 X86.727 Y113.318 E4.99914
G1 X87.104 Y113.358 E5.00545
G1 X87.464 Y113.476 E5.01175
G1 X87.791 Y113.666 E5.01804
G1 X88.117 Y113.962 E5.02536
G1 X88.355 Y114.257 E5.03166
G1 X88.526 Y114.595 E5.03796
G1 X88.623 Y114.961 E5.04426
G1 X88.644 Y115.708 E5.05669
G1 X88.817 Y115.922 E5.06126
G1 X88.988 Y116.26 E5.06756
G1 X89.085 Y116.626 E5.07386
G1 X89.106 Y124.666 E5.20757
G1 X89.066 Y125.043 E5.21387
G1 X88.948 Y125.403 E5.22017
G1 X88.758 Y125.73 E5.22646
G1 X88.462 Y126.056 E5.23378
G1 X88.167 Y126.294 E5.24009
G1 X87.829 Y126.465 E5.24639
G1 X87.463 Y126.562 E5.25268
G1 X80.383 Y126.583 E5.37042
G1 X80.261 Y126.985 E5.37741
G1 X80.071 Y127.312 E5.3837
G1 X77.934 Y129.473 E5.43424
G1 X77.639 Y129.711 E5.44054
G1 X77.301 Y129.882 E5.44684
G1 X76.934 Y129.978 E5.45315
G1 X76.497 Y129.999 E5.46043
G1 X76.12 Y129.959 E5.46673
G1 X75.76 Y129.841 E5.47303
G1 X75.433 Y129.651 E5.47932
G1 X73.271 Y127.522 E5.52978
G1 X73.033 Y127.227 E5.53609
G1 X72.861 Y126.889 E5.54239
G1 X72.78 Y126.583 E5.54766
G1 X65.811 Y126.583 E5.66355
G1 X65.434 Y126.543 E5.66986
G1 X65.074 Y126.425 E5.67616
G1 X64.747 Y126.235 E5.68245
G1 X64.421 Y125.939 E5.68977
G1 X64.183 Y125.644 E5.69607
G1 X64.012 Y125.306 E5.70237
G1 X63.915 Y124.94 E5.70867
G1 X63.894 Y116.9 E5.84238
G1 X63.934 Y116.523 E5.84868
G1 X64.052 Y116.163 E5.85498
G1 X64.242 Y115.836 E5.86127
G1 X64.538 Y115.51 E5.86859
G1 X64.833 Y115.272 E5.8749
G1 X65.171 Y115.101 E5.88119
G1 X65.537 Y115.004 E5.88749
G1 X69.376 Y114.983 E5.95134
G1 X69.24 Y114.54 E5.95904
G1 X69.219 Y114.1 E5.96637
G1 X69.259 Y113.723 E5.97267
G1 X69.377 Y113.363 E5.97897
G1 X69.567 Y113.036 E5.98526
G1 X70.991 Y111.584 E6.01908
G1 X71.286 Y111.346 E6.02539
G1 X71.624 Y111.175 E6.03169
G1 X71.991 Y111.079 E6.03799
G1 X72.429 Y111.058 E6.04529
G1 X72.861 Y111.116 E6.05254
G1 X73.395 Y110.636 E6.06448
G1 X73.537 Y110.563 E6.06713
G1 X73.449 Y110.034 E6.07605
G1 X73.489 Y109.491 E6.0851
G1 X73.509 Y109.429 E6.08619
G1 X73.036 Y108.901 E6.09798
G1 X72.864 Y108.563 E6.10428
G1 X72.767 Y108.197 E6.11058
G1 X72.746 Y107.756 E6.11792
G1 X72.786 Y107.379 E6.12423
G1 X72.904 Y107.019 E6.13053
G1 X73.094 Y106.692 E6.13682
G1 X73.853 Y105.9 E6.15506
G1 X75.224 Y104.528 E6.18731
G1 X75.519 Y104.29 E6.19362
M205 X30 Y30
G0 F3600 X75.77 Y104.605
M205 X15 Y15
G1 F1500 X76.074 Y104.466 E6.19918
G1 X76.663 Y104.401 E6.20903
G1 X77.307 Y104.558 E6.22006
G1 X77.654 Y104.812 E6.22721
G1 X79.605 Y106.767 E6.27314
G1 X79.811 Y107.03 E6.27869
G1 X79.949 Y107.334 E6.28425
G1 X80.014 Y107.922 E6.29408
G1 X79.974 Y108.254 E6.29964
G1 X79.857 Y108.566 E6.30519
G1 X79.602 Y108.913 E6.31235
G1 X79.19 Y109.323 E6.32201
G1 X79.245 Y109.444 E6.32422
G1 X79.311 Y110.034 E6.3341
G1 X79.271 Y110.366 E6.33966
G1 X79.159 Y110.665 E6.34497
G1 X79.234 Y110.828 E6.34795
G1 X79.428 Y110.901 E6.3514
G1 X79.777 Y111.157 E6.3586
G1 X80.194 Y111.576 E6.36843
G1 X80.307 Y111.525 E6.37049
G1 X80.897 Y111.459 E6.38036
G1 X81.229 Y111.499 E6.38592
G1 X81.541 Y111.616 E6.39146
G1 X81.886 Y111.868 E6.39857
G1 X83.13 Y113.109 E6.42779
G1 X83.336 Y113.371 E6.43333
G1 X83.475 Y113.675 E6.43889
G1 X83.523 Y113.986 E6.44413
G1 X83.834 Y114.245 E6.45086
G1 X84.04 Y114.508 E6.45641
G1 X84.179 Y114.812 E6.46197
G1 X84.244 Y115.383 E6.47153
G1 X84.444 Y115.383 E6.47485
G1 X84.484 Y114.903 E6.48286
G1 X84.601 Y114.591 E6.48841
G1 X84.971 Y114.128 E6.49826
G1 X85.234 Y113.922 E6.50382
G1 X85.538 Y113.783 E6.50938
G1 X85.961 Y113.718 E6.51649
G1 X86.727 Y113.718 E6.52923
G1 X87.059 Y113.758 E6.53479
G1 X87.371 Y113.875 E6.54033
G1 X87.834 Y114.245 E6.55019
G1 X88.04 Y114.508 E6.55575
G1 X88.179 Y114.812 E6.56131
G1 X88.244 Y115.235 E6.56842
G1 X88.244 Y115.858 E6.57878
G1 X88.502 Y116.173 E6.58555
G1 X88.641 Y116.477 E6.59111
G1 X88.706 Y116.9 E6.59823
G1 X88.706 Y124.666 E6.72738
G1 X88.666 Y124.998 E6.73294
G1 X88.549 Y125.31 E6.73848
G1 X88.179 Y125.773 E6.74834
G1 X87.916 Y125.979 E6.75389
G1 X87.612 Y126.118 E6.75945
G1 X87.189 Y126.183 E6.76657
G1 X80.019 Y126.183 E6.88581
G1 X79.979 Y126.58 E6.89244
G1 X79.862 Y126.892 E6.89799
G1 X79.608 Y127.239 E6.90514
G1 X77.652 Y129.19 E6.95108
G1 X77.389 Y129.396 E6.95664
G1 X77.084 Y129.534 E6.9622
G1 X76.497 Y129.599 E6.97202
G1 X76.165 Y129.559 E6.97759
G1 X75.853 Y129.442 E6.98313
G1 X75.508 Y129.19 E6.99023
G1 X73.554 Y127.239 E7.03615
G1 X73.347 Y126.976 E7.04172
G1 X73.209 Y126.672 E7.04727
G1 X73.143 Y126.183 E7.05548
G1 X65.811 Y126.183 E7.17741
