;FLAVOR:Marlin
;TIME:329
;Filament used: 0.161061m
;Layer height: 0.15
;MINX:99.705
;MINY:126.128
;MINZ:0.1
;MAXX:117.282
;MAXY:143.718
;MAXZ:10
;Generated with Cura_SteamEngine 4.5.0
M140 S69
M105
M190 S69
M82 ;absolute extrusion mode
;Gcode by Cura
G90
M106 S255
G28 X Y
M109 R195
G28
M104 S195
G29
M107
G1 X100 Y10 F3000
G1 Z0.5
M109 S195
M82
G92 E0
G1 F200 E10
G92 E0
G1 Z3
G1 X120 Y10
G1 Z0.5
G92 E0
G1 F200 E10
G92 E0
G1 Z3
G1 F6000
G92 E0
G92 E0
G1 F1200 E-3.5
;LAYER_COUNT:67
;LAYER:0
M106 S255
M205 X30 Y30
G1 F120 Z1.1
G0 F3600 X103.16 Y127.938 Z1.1
M205 X15 Y15
;TYPE:SKIRT
G1 F120 Z0.1
G1 F1200 E0
G1 F1500 X103.968 Y127.388 E0.01869
G1 X104.872 Y126.914 E0.03821
G1 X105.799 Y126.556 E0.05722
G1 X106.769 Y126.302 E0.07639
G1 X107.778 Y126.16 E0.09588
G1 X108.368 Y126.128 E0.10718
G1 X109.664 Y126.21 E0.13202
G1 X110.209 Y126.296 E0.14257
G1 X110.763 Y126.425 E0.15345
G1 X111.714 Y126.738 E0.17259
G1 X112.622 Y127.155 E0.1917
G1 X113.489 Y127.682 E0.21111
G1 X114.271 Y128.287 E0.23002
G1 X114.997 Y128.995 E0.24941
G1 X115.628 Y129.771 E0.26854
G1 X116.171 Y130.621 E0.28783
G1 X116.611 Y131.524 E0.30704
G1 X116.947 Y132.476 E0.32634
G1 X117.169 Y133.439 E0.34524
G1 X117.282 Y134.442 E0.36455
G1 X117.282 Y135.439 E0.38362
G1 X117.164 Y136.45 E0.40308
G1 X116.931 Y137.432 E0.42238
G1 X116.595 Y138.366 E0.44137
G1 X116.151 Y139.267 E0.46058
G1 X115.601 Y140.117 E0.47994
G1 X114.965 Y140.89 E0.49908
G1 X114.237 Y141.592 E0.51842
G1 X113.455 Y142.194 E0.5373
G1 X112.584 Y142.717 E0.55673
G1 X111.67 Y143.131 E0.57592
G1 X110.713 Y143.438 E0.59514
G1 X109.727 Y143.635 E0.61437
G1 X108.734 Y143.718 E0.63342
G1 X107.731 Y143.688 E0.65261
G1 X106.736 Y143.544 E0.67184
G1 X105.762 Y143.286 E0.69111
G1 X104.821 Y142.917 E0.71044
G1 X103.938 Y142.447 E0.72957
G1 X103.107 Y141.874 E0.74888
G1 X102.354 Y141.218 E0.76798
G1 X101.677 Y140.477 E0.78717
G1 X101.089 Y139.664 E0.80636
G1 X100.594 Y138.779 E0.82575
G1 X100.209 Y137.86 E0.84481
G1 X99.93 Y136.904 E0.86385
G1 X99.759 Y135.904 E0.88326
G1 X99.705 Y134.904 E0.90241
G1 X99.763 Y133.909 E0.92147
G1 X99.938 Y132.911 E0.94085
G1 X100.219 Y131.957 E0.95987
G1 X100.616 Y131.023 E0.97928
G1 X101.111 Y130.152 E0.99844
G1 X101.705 Y129.34 E1.01768
G1 X102.38 Y128.607 E1.03673
G1 X103.16 Y127.938 E1.05638
M205 X30 Y30
G0 F3600 X103.412 Y128.248
M205 X15 Y15
G1 F1500 X104.185 Y127.723 E1.07426
G1 X105.048 Y127.273 E1.09287
G1 X105.935 Y126.932 E1.11104
G1 X106.861 Y126.691 E1.12934
G1 X107.824 Y126.558 E1.14793
G1 X108.382 Y126.528 E1.15862
G1 X109.631 Y126.609 E1.18256
G1 X110.672 Y126.815 E1.20285
G1 X111.58 Y127.114 E1.22113
G1 X112.446 Y127.514 E1.23938
G1 X113.272 Y128.018 E1.25788
G1 X114.019 Y128.598 E1.27597
G1 X114.71 Y129.274 E1.29446
G1 X115.312 Y130.016 E1.31273
G1 X115.829 Y130.828 E1.33114
G1 X116.248 Y131.69 E1.34947
G1 X116.566 Y132.6 E1.36791
G1 X116.777 Y133.52 E1.38596
G1 X116.884 Y134.477 E1.40437
G1 X116.882 Y135.429 E1.42258
G1 X116.768 Y136.394 E1.44116
G1 X116.545 Y137.33 E1.45957
G1 X116.222 Y138.222 E1.47771
G1 X115.797 Y139.081 E1.49604
G1 X115.271 Y139.891 E1.51451
G1 X114.662 Y140.628 E1.53279
G1 X113.967 Y141.297 E1.55124
G1 X113.218 Y141.871 E1.56929
G1 X112.387 Y142.368 E1.58781
G1 X111.514 Y142.762 E1.60612
G1 X110.6 Y143.055 E1.62448
G1 X109.658 Y143.241 E1.64284
G1 X108.71 Y143.319 E1.66103
G1 X107.753 Y143.289 E1.67934
G1 X106.803 Y143.15 E1.69771
G1 X105.874 Y142.902 E1.7161
G1 X104.977 Y142.548 E1.73454
G1 X104.135 Y142.099 E1.75279
G1 X103.342 Y141.551 E1.77122
G1 X102.624 Y140.923 E1.78946
G1 X101.979 Y140.215 E1.80778
G1 X101.419 Y139.438 E1.8261
G1 X100.948 Y138.592 E1.84462
G1 X100.581 Y137.714 E1.86282
G1 X100.316 Y136.801 E1.881
G1 X100.155 Y135.847 E1.8995
G1 X100.105 Y134.893 E1.91777
G1 X100.162 Y133.942 E1.93599
G1 X100.33 Y132.99 E1.95448
G1 X100.6 Y132.08 E1.97263
G1 X100.98 Y131.189 E1.99116
G1 X101.454 Y130.358 E2.00945
G1 X102.022 Y129.584 E2.02781
G1 X102.668 Y128.885 E2.04601
G1 X103.412 Y128.248 E2.06475
M205 X30 Y30
G0 F3600 X103.664 Y128.558
M205 X15 Y15
G1 F1500 X104.403 Y128.059 E2.0818
G1 X105.224 Y127.632 E2.0995
G1 X106.07 Y127.308 E2.11682
G1 X106.952 Y127.081 E2.13424
G1 X107.869 Y126.955 E2.15194
G1 X108.396 Y126.928 E2.16203
G1 X109.597 Y127.007 E2.18505
G1 X110.581 Y127.204 E2.20424
G1 X111.446 Y127.491 E2.22167
G1 X112.27 Y127.873 E2.23904
G1 X113.056 Y128.354 E2.25667
G1 X113.767 Y128.908 E2.27391
G1 X114.423 Y129.553 E2.2915
G1 X114.995 Y130.261 E2.30891
G1 X115.486 Y131.035 E2.32644
G1 X115.884 Y131.856 E2.34388
G1 X116.186 Y132.723 E2.36144
G1 X116.385 Y133.6 E2.37864
G1 X116.485 Y134.512 E2.39619
G1 X116.482 Y135.42 E2.41355
G1 X116.372 Y136.337 E2.43122
G1 X116.158 Y137.228 E2.44874
G1 X115.849 Y138.078 E2.46604
G1 X115.442 Y138.895 E2.48349
G1 X114.94 Y139.666 E2.50109
G1 X114.36 Y140.367 E2.51849
G1 X113.697 Y141.002 E2.53605
G1 X112.982 Y141.548 E2.55325
G1 X112.19 Y142.02 E2.57088
G1 X111.358 Y142.394 E2.58833
G1 X110.487 Y142.671 E2.60581
G1 X109.59 Y142.847 E2.62329
G1 X108.686 Y142.92 E2.64064
G1 X107.775 Y142.89 E2.65807
G1 X106.871 Y142.755 E2.67555
G1 X105.986 Y142.518 E2.69307
G1 X105.132 Y142.18 E2.71063
G1 X104.331 Y141.75 E2.72802
G1 X103.577 Y141.227 E2.74557
G1 X102.894 Y140.627 E2.76296
G1 X102.281 Y139.952 E2.78039
G1 X101.749 Y139.212 E2.79782
G1 X101.302 Y138.406 E2.81545
G1 X100.954 Y137.568 E2.8328
G1 X100.703 Y136.698 E2.85012
G1 X100.551 Y135.789 E2.86775
G1 X100.504 Y134.881 E2.88513
G1 X100.56 Y133.975 E2.90249
G1 X100.722 Y133.069 E2.9201
G1 X100.981 Y132.202 E2.9374
G1 X101.344 Y131.355 E2.95502
G1 X101.797 Y130.564 E2.97246
G1 X102.339 Y129.828 E2.98994
G1 X102.955 Y129.163 E3.00727
G1 X103.664 Y128.558 E3.0251
M205 X30 Y30
G0 F3600 X103.917 Y128.869
M205 X15 Y15
G1 F1500 X104.62 Y128.395 E3.04131
G1 X105.401 Y127.991 E3.05813
G1 X106.205 Y127.685 E3.07458
G1 X107.044 Y127.47 E3.09115
G1 X107.914 Y127.353 E3.10793
G1 X108.409 Y127.328 E3.11741
G1 X109.564 Y127.406 E3.13955
G1 X110.491 Y127.594 E3.15764
G1 X111.312 Y127.868 E3.17419
G1 X112.095 Y128.233 E3.19072
G1 X112.839 Y128.691 E3.20742
G1 X113.515 Y129.219 E3.22383
G1 X114.136 Y129.832 E3.24052
G1 X114.679 Y130.506 E3.25707
G1 X115.144 Y131.241 E3.2737
G1 X115.52 Y132.023 E3.2903
G1 X115.805 Y132.846 E3.30695
G1 X115.993 Y133.681 E3.32332
G1 X116.087 Y134.547 E3.33998
G1 X116.082 Y135.41 E3.35649
G1 X115.976 Y136.281 E3.37327
G1 X115.771 Y137.126 E3.3899
G1 X115.476 Y137.933 E3.40633
G1 X115.088 Y138.709 E3.42292
G1 X114.61 Y139.44 E3.43962
G1 X114.057 Y140.105 E3.45617
G1 X113.426 Y140.707 E3.47284
G1 X112.745 Y141.226 E3.48922
G1 X111.993 Y141.672 E3.50594
G1 X111.202 Y142.026 E3.52251
G1 X110.374 Y142.287 E3.53912
G1 X109.521 Y142.453 E3.55574
G1 X108.662 Y142.52 E3.57221
G1 X107.797 Y142.49 E3.58877
G1 X106.938 Y142.361 E3.60538
G1 X106.098 Y142.134 E3.62202
G1 X105.288 Y141.811 E3.6387
G1 X104.527 Y141.402 E3.65522
G1 X103.813 Y140.904 E3.67187
G1 X103.164 Y140.332 E3.68841
G1 X102.583 Y139.69 E3.70497
G1 X102.079 Y138.986 E3.72153
G1 X101.656 Y138.22 E3.73826
G1 X101.327 Y137.423 E3.75475
G1 X101.089 Y136.595 E3.77123
G1 X100.947 Y135.732 E3.78796
G1 X100.904 Y134.869 E3.80448
G1 X100.959 Y134.008 E3.82098
G1 X101.114 Y133.148 E3.83769
G1 X101.361 Y132.324 E3.85415
G1 X101.708 Y131.521 E3.87087
G1 X102.14 Y130.77 E3.88744
G1 X102.656 Y130.072 E3.90404
G1 X103.243 Y129.441 E3.92053
G1 X103.917 Y128.869 E3.93743
M205 X30 Y30
G0 F3600 X104.169 Y129.179
M205 X15 Y15
G1 F1500 X104.838 Y128.731 E3.95283
G1 X105.577 Y128.35 E3.96873
G1 X106.341 Y128.061 E3.98435
G1 X107.136 Y127.859 E4.00004
G1 X107.96 Y127.75 E4.01594
G1 X108.423 Y127.727 E4.0248
G1 X109.531 Y127.805 E4.04604
G1 X110.4 Y127.983 E4.06301
G1 X111.178 Y128.245 E4.07871
G1 X111.919 Y128.592 E4.09436
G1 X112.623 Y129.027 E4.11018
G1 X113.263 Y129.529 E4.12574
G1 X113.85 Y130.111 E4.14155
G1 X114.363 Y130.751 E4.15723
G1 X114.801 Y131.448 E4.17298
G1 X115.156 Y132.189 E4.18869
G1 X115.425 Y132.97 E4.20449
G1 X115.602 Y133.762 E4.22001
G1 X115.689 Y134.582 E4.23578
G1 X115.682 Y135.4 E4.25142
G1 X115.58 Y136.224 E4.2673
G1 X115.384 Y137.024 E4.28305
G1 X115.103 Y137.789 E4.29864
G1 X114.734 Y138.523 E4.31435
G1 X114.28 Y139.215 E4.33018
G1 X113.755 Y139.843 E4.34583
G1 X113.156 Y140.412 E4.36163
G1 X112.509 Y140.903 E4.37717
G1 X111.796 Y141.324 E4.393
G1 X111.046 Y141.657 E4.4087
G1 X110.261 Y141.903 E4.42443
G1 X109.453 Y142.059 E4.44017
G1 X108.638 Y142.121 E4.4558
G1 X107.818 Y142.091 E4.47149
G1 X107.005 Y141.967 E4.48722
G1 X106.209 Y141.75 E4.503
G1 X105.444 Y141.443 E4.51876
G1 X104.724 Y141.054 E4.53441
G1 X104.048 Y140.58 E4.5502
G1 X103.434 Y140.037 E4.56588
G1 X102.884 Y139.427 E4.58159
G1 X102.409 Y138.759 E4.59726
G1 X102.009 Y138.033 E4.61312
G1 X101.699 Y137.277 E4.62874
G1 X101.476 Y136.492 E4.64435
G1 X101.343 Y135.675 E4.66018
G1 X101.304 Y134.857 E4.67584
G1 X101.357 Y134.041 E4.69148
G1 X101.506 Y133.227 E4.70731
G1 X101.742 Y132.447 E4.72289
G1 X102.072 Y131.687 E4.73874
G1 X102.483 Y130.976 E4.75444
G1 X102.973 Y130.316 E4.77016
G1 X103.531 Y129.719 E4.78579
G1 X104.169 Y129.179 E4.80178
M205 X30 Y30
G0 F3600 X104.421 Y129.489
M205 X15 Y15
G1 F1500 X105.055 Y129.066 E4.81635
G1 X105.753 Y128.709 E4.83135
G1 X106.476 Y128.437 E4.84612
G1 X107.227 Y128.249 E4.86092
G1 X108.005 Y128.148 E4.87593
G1 X108.437 Y128.127 E4.8842
G1 X109.497 Y128.203 E4.90452
G1 X110.309 Y128.373 E4.92039
G1 X111.044 Y128.622 E4.93523
G1 X111.743 Y128.951 E4.95001
G1 X112.406 Y129.363 E4.96493
G1 X113.011 Y129.84 E4.97967
G1 X113.563 Y130.39 E4.99457
G1 X114.047 Y130.996 E5.0094
G1 X114.459 Y131.655 E5.02427
G1 X114.793 Y132.356 E5.03912
G1 X115.044 Y133.093 E5.05401
G1 X115.21 Y133.843 E5.0687
G1 X115.29 Y134.617 E5.08358
G1 X115.282 Y135.39 E5.09836
G1 X115.184 Y136.168 E5.11336
G1 X114.998 Y136.922 E5.12821
G1 X114.73 Y137.645 E5.14296
G1 X114.38 Y138.337 E5.15779
G1 X113.949 Y138.989 E5.17274
G1 X113.452 Y139.582 E5.18753
G1 X112.886 Y140.118 E5.20244
G1 X112.272 Y140.581 E5.21715
G1 X111.599 Y140.976 E5.23207
G1 X110.89 Y141.289 E5.24689
G1 X110.148 Y141.52 E5.26176
G1 X109.384 Y141.664 E5.27662
G1 X108.614 Y141.722 E5.29139
G1 X107.84 Y141.691 E5.30621
G1 X107.072 Y141.572 E5.32107
G1 X106.321 Y141.366 E5.33596
G1 X105.599 Y141.074 E5.35086
G1 X104.92 Y140.705 E5.36564
G1 X104.283 Y140.257 E5.38053
G1 X103.704 Y139.742 E5.39535
G1 X103.186 Y139.165 E5.41018
G1 X102.739 Y138.533 E5.42498
G1 X102.363 Y137.847 E5.43994
G1 X102.072 Y137.131 E5.45472
G1 X101.862 Y136.39 E5.46945
G1 X101.739 Y135.618 E5.4844
G1 X101.704 Y134.845 E5.4992
G1 X101.756 Y134.074 E5.51398
G1 X101.898 Y133.306 E5.52892
G1 X102.123 Y132.569 E5.54366
G1 X102.436 Y131.852 E5.55862
G1 X102.825 Y131.183 E5.57342
G1 X103.29 Y130.56 E5.58828
G1 X103.818 Y129.996 E5.60306
G1 X104.421 Y129.489 E5.61813
M205 X30 Y30
G0 F3600 X104.674 Y129.8
M205 X15 Y15
G1 F1500 X105.273 Y129.402 E5.63188
G1 X105.93 Y129.068 E5.64598
G1 X106.612 Y128.814 E5.65989
G1 X107.319 Y128.638 E5.67383
G1 X108.05 Y128.545 E5.68792
G1 X108.451 Y128.527 E5.6956
G1 X109.464 Y128.602 E5.71502
G1 X110.218 Y128.762 E5.72976
G1 X110.91 Y128.999 E5.74375
G1 X111.567 Y129.31 E5.75765
G1 X112.19 Y129.7 E5.77171
G1 X112.759 Y130.151 E5.7856
G1 X113.276 Y130.669 E5.79959
G1 X113.731 Y131.241 E5.81357
G1 X114.117 Y131.861 E5.82754
G1 X114.429 Y132.522 E5.84152
G1 X114.664 Y133.216 E5.85553
G1 X114.818 Y133.923 E5.86937
G1 X114.892 Y134.652 E5.88338
G1 X114.883 Y135.38 E5.89731
G1 X114.788 Y136.111 E5.9114
G1 X114.611 Y136.82 E5.92538
G1 X114.357 Y137.501 E5.93928
G1 X114.026 Y138.152 E5.95325
G1 X113.619 Y138.764 E5.9673
G1 X113.15 Y139.32 E5.98121
G1 X112.615 Y139.823 E5.99526
G1 X112.036 Y140.258 E6.00911
G1 X111.402 Y140.628 E6.02315
G1 X110.733 Y140.921 E6.03711
G1 X110.035 Y141.136 E6.05108
G1 X109.316 Y141.27 E6.06507
G1 X108.591 Y141.323 E6.07897
G1 X107.862 Y141.292 E6.09293
G1 X107.139 Y141.178 E6.10692
G1 X106.433 Y140.982 E6.12094
G1 X105.755 Y140.706 E6.13494
G1 X105.117 Y140.357 E6.14884
G1 X104.519 Y139.933 E6.16286
G1 X103.974 Y139.447 E6.17683
G1 X103.488 Y138.902 E6.19079
G1 X103.068 Y138.307 E6.20472
G1 X102.717 Y137.66 E6.2188
G1 X102.444 Y136.986 E6.23271
G1 X102.249 Y136.287 E6.24658
G1 X102.134 Y135.56 E6.26066
G1 X102.104 Y134.833 E6.27458
G1 X102.155 Y134.107 E6.28849
G1 X102.291 Y133.385 E6.30255
G1 X102.504 Y132.691 E6.31643
G1 X102.8 Y132.018 E6.33049
G1 X103.168 Y131.389 E6.34443
G1 X103.607 Y130.804 E6.35841
G1 X104.106 Y130.274 E6.37234
G1 X104.674 Y129.8 E6.38648
M205 X30 Y30
G0 F3600 X104.926 Y130.11
M205 X15 Y15
G1 F1500 X105.49 Y129.738 E6.39941
G1 X106.106 Y129.427 E6.4126
G1 X106.747 Y129.19 E6.42567
G1 X107.41 Y129.028 E6.43873
G1 X108.096 Y128.942 E6.45195
G1 X108.465 Y128.927 E6.45901
G1 X109.43 Y129 E6.47752
G1 X110.128 Y129.152 E6.49118
G1 X110.776 Y129.376 E6.50429
G1 X111.391 Y129.67 E6.51733
G1 X111.973 Y130.036 E6.53048
G1 X112.507 Y130.461 E6.54353
G1 X112.99 Y130.948 E6.55665
G1 X113.414 Y131.486 E6.56975
G1 X113.774 Y132.068 E6.58283
G1 X114.065 Y132.689 E6.59595
G1 X114.283 Y133.34 E6.60908
G1 X114.426 Y134.004 E6.62207
G1 X114.493 Y134.687 E6.63519
G1 X114.483 Y135.371 E6.64828
G1 X114.392 Y136.054 E6.66145
G1 X114.224 Y136.718 E6.67455
G1 X113.984 Y137.357 E6.68761
G1 X113.671 Y137.966 E6.7007
G1 X113.289 Y138.538 E6.71386
G1 X112.847 Y139.058 E6.72691
G1 X112.345 Y139.528 E6.74006
G1 X111.799 Y139.935 E6.75308
G1 X111.205 Y140.279 E6.76621
G1 X110.577 Y140.553 E6.77932
G1 X109.922 Y140.752 E6.79241
G1 X109.247 Y140.876 E6.80553
G1 X108.567 Y140.923 E6.81857
G1 X107.884 Y140.893 E6.83164
G1 X107.206 Y140.784 E6.84478
G1 X106.545 Y140.598 E6.85791
G1 X105.91 Y140.337 E6.87104
G1 X105.313 Y140.008 E6.88407
G1 X104.754 Y139.61 E6.8972
G1 X104.244 Y139.152 E6.91031
G1 X103.79 Y138.639 E6.92341
G1 X103.398 Y138.081 E6.93645
G1 X103.071 Y137.474 E6.94964
G1 X102.817 Y136.84 E6.9627
G1 X102.636 Y136.184 E6.97571
G1 X102.53 Y135.503 E6.98889
G1 X102.503 Y134.821 E7.00195
G1 X102.553 Y134.14 E7.01501
G1 X102.683 Y133.464 E7.02817
G1 X102.885 Y132.813 E7.04121
G1 X103.164 Y132.184 E7.05437
G1 X103.511 Y131.595 E7.06744
G1 X103.924 Y131.048 E7.08055
G1 X104.394 Y130.552 E7.09362
G1 X104.926 Y130.11 E7.10684
M205 X30 Y30
G0 F3600 X105.178 Y130.42
M205 X15 Y15
G1 F1500 X105.708 Y130.073 E7.11896
G1 X106.282 Y129.786 E7.13123
G1 X106.883 Y129.566 E7.14347
G1 X107.502 Y129.417 E7.15565
G1 X108.141 Y129.34 E7.16796
G1 X108.478 Y129.326 E7.17441
G1 X109.397 Y129.399 E7.19204
G1 X110.037 Y129.542 E7.20458
G1 X110.642 Y129.753 E7.21683
G1 X111.216 Y130.029 E7.22901
G1 X111.757 Y130.372 E7.24126
G1 X112.255 Y130.772 E7.25348
G1 X112.703 Y131.227 E7.26569
G1 X113.098 Y131.731 E7.27794
G1 X113.432 Y132.275 E7.29015
G1 X113.702 Y132.855 E7.30238
G1 X113.903 Y133.463 E7.31463
G1 X114.035 Y134.085 E7.32679
G1 X114.095 Y134.722 E7.33903
G1 X114.083 Y135.361 E7.35125
G1 X113.996 Y135.998 E7.36354
G1 X113.837 Y136.616 E7.37575
G1 X113.611 Y137.212 E7.38794
G1 X113.317 Y137.78 E7.40017
G1 X112.958 Y138.312 E7.41244
G1 X112.545 Y138.797 E7.42463
G1 X112.075 Y139.233 E7.43689
G1 X111.563 Y139.613 E7.44908
G1 X111.008 Y139.931 E7.46131
G1 X110.421 Y140.184 E7.47354
G1 X109.809 Y140.369 E7.48577
G1 X109.179 Y140.482 E7.49801
G1 X108.543 Y140.524 E7.5102
G1 X107.905 Y140.493 E7.52241
G1 X107.273 Y140.389 E7.53466
G1 X106.657 Y140.214 E7.54691
G1 X106.066 Y139.969 E7.55914
G1 X105.509 Y139.66 E7.57133
G1 X104.989 Y139.286 E7.58358
G1 X104.514 Y138.857 E7.59582
G1 X104.091 Y138.377 E7.60805
G1 X103.728 Y137.854 E7.62023
G1 X103.425 Y137.288 E7.6325
