;FLAVOR:Marlin
;TIME:545
;Filament used: 0.28214m
;Layer height: 0.15
;MINX:85.71
;MINY:104.208
;MINZ:0.1
;MAXX:103.29
;MAXY:121.791
;MAXZ:14.95
;Generated with Cura_SteamEngine 4.5.0
M140 S69
M105
M190 S69
M82 ;absolute extrusion mode
;Gcode by Cura
G90
M106 S255
G28 X Y
M109 R195
G28
M104 S195
G29
M107
G1 X100 Y10 F3000
G1 Z0.5
M109 S195
M82
G92 E0
G1 F200 E10
G92 E0
G1 Z3
G1 X120 Y10
G1 Z0.5
G92 E0
G1 F200 E10
G92 E0
G1 Z3
G1 F6000
G92 E0
G92 E0
G1 F1200 E-3.5
;LAYER_COUNT:100
;LAYER:0
M106 S255
M205 X30 Y30
G1 F120 Z1.1
G0 F3600 X89.137 Y106.029 Z1.1
M205 X15 Y15
;TYPE:SKIRT
G1 F120 Z0.1
G1 F1200 E0
G1 F1500 X90.04 Y105.419 E0.02084
G1 X91.038 Y104.914 E0.04223
G1 X92.085 Y104.544 E0.06347
G1 X93.151 Y104.31 E0.08434
G1 X94.254 Y104.209 E0.10552
G1 X94.721 Y104.208 E0.11445
G1 X95.346 Y104.245 E0.12643
G1 X96.452 Y104.423 E0.14785
G1 X97.505 Y104.733 E0.16884
G1 X98.52 Y105.176 E0.19002
G1 X99.474 Y105.746 E0.21128
G1 X100.336 Y106.418 E0.23218
G1 X101.123 Y107.213 E0.25357
G1 X101.789 Y108.078 E0.27445
G1 X102.352 Y109.039 E0.29575
G1 X102.785 Y110.049 E0.31677
G1 X103.089 Y111.111 E0.3379
G1 X103.258 Y112.197 E0.35891
G1 X103.29 Y113.303 E0.38008
G1 X103.183 Y114.405 E0.40125
G1 X102.938 Y115.483 E0.42239
G1 X102.56 Y116.522 E0.44354
G1 X102.058 Y117.5 E0.46456
G1 X101.429 Y118.417 E0.48583
G1 X100.701 Y119.238 E0.50681
G1 X99.863 Y119.971 E0.5281
G1 X98.96 Y120.581 E0.54894
G1 X97.962 Y121.086 E0.57034
G1 X96.915 Y121.456 E0.59157
G1 X95.849 Y121.69 E0.61244
G1 X94.746 Y121.791 E0.63363
G1 X93.654 Y121.755 E0.65452
G1 X92.548 Y121.577 E0.67595
G1 X91.495 Y121.267 E0.69694
G1 X90.48 Y120.824 E0.71812
G1 X89.526 Y120.254 E0.73937
G1 X88.664 Y119.582 E0.76028
G1 X87.877 Y118.787 E0.78167
G1 X87.211 Y117.922 E0.80255
G1 X86.648 Y116.961 E0.82385
G1 X86.215 Y115.951 E0.84486
G1 X85.911 Y114.889 E0.86599
G1 X85.742 Y113.803 E0.88701
G1 X85.71 Y112.697 E0.90817
G1 X85.817 Y111.595 E0.92934
G1 X86.062 Y110.517 E0.95049
G1 X86.44 Y109.478 E0.97163
G1 X86.942 Y108.5 E0.99265
G1 X87.571 Y107.583 E1.01392
G1 X88.299 Y106.762 E1.03491
G1 X89.137 Y106.029 E1.0562
M205 X30 Y30
G0 F3600 X89.392 Y106.337
M205 X15 Y15
G1 F1500 X90.255 Y105.756 E1.07609
G1 X91.208 Y105.276 E1.0965
G1 X92.208 Y104.924 E1.11678
G1 X93.227 Y104.702 E1.13672
G1 X94.279 Y104.608 E1.15692
G1 X94.697 Y104.607 E1.16491
G1 X95.322 Y104.644 E1.17689
G1 X96.377 Y104.816 E1.19733
G1 X97.382 Y105.113 E1.21737
G1 X98.35 Y105.538 E1.23759
G1 X99.259 Y106.083 E1.25786
G1 X100.081 Y106.727 E1.27783
G1 X100.831 Y107.486 E1.29824
G1 X101.466 Y108.314 E1.31819
G1 X102.002 Y109.232 E1.33852
G1 X102.413 Y110.197 E1.35858
G1 X102.702 Y111.21 E1.37873
G1 X102.861 Y112.248 E1.39881
G1 X102.89 Y113.304 E1.41902
G1 X102.786 Y114.355 E1.43921
G1 X102.551 Y115.384 E1.4594
G1 X102.188 Y116.375 E1.47958
G1 X101.707 Y117.308 E1.49966
G1 X101.106 Y118.182 E1.51994
G1 X100.409 Y118.965 E1.53999
G1 X99.608 Y119.663 E1.56031
G1 X98.745 Y120.244 E1.58021
G1 X97.792 Y120.724 E1.60061
G1 X96.792 Y121.076 E1.62089
G1 X95.773 Y121.298 E1.64083
G1 X94.721 Y121.392 E1.66103
G1 X93.678 Y121.356 E1.68099
G1 X92.623 Y121.184 E1.70143
G1 X91.618 Y120.887 E1.72148
G1 X90.65 Y120.462 E1.74169
G1 X89.741 Y119.917 E1.76196
G1 X88.919 Y119.273 E1.78193
G1 X88.169 Y118.514 E1.80234
G1 X87.534 Y117.686 E1.8223
G1 X86.998 Y116.768 E1.84263
G1 X86.587 Y115.803 E1.86269
G1 X86.298 Y114.79 E1.88283
G1 X86.139 Y113.752 E1.90292
G1 X86.11 Y112.696 E1.92312
G1 X86.214 Y111.645 E1.94332
G1 X86.449 Y110.616 E1.9635
G1 X86.812 Y109.625 E1.98369
G1 X87.293 Y108.692 E2.00376
G1 X87.894 Y107.818 E2.02405
G1 X88.591 Y107.035 E2.04409
G1 X89.392 Y106.337 E2.06441
M205 X30 Y30
G0 F3600 X89.647 Y106.646
M205 X15 Y15
G1 F1500 X90.471 Y106.093 E2.08339
G1 X91.378 Y105.638 E2.1028
G1 X92.331 Y105.305 E2.1221
G1 X93.303 Y105.095 E2.14112
G1 X94.305 Y105.007 E2.16036
G1 X94.673 Y105.006 E2.1674
G1 X95.298 Y105.043 E2.17937
G1 X96.302 Y105.209 E2.19883
G1 X97.259 Y105.494 E2.21793
G1 X98.18 Y105.9 E2.23718
G1 X99.045 Y106.421 E2.25649
G1 X99.827 Y107.036 E2.27552
G1 X100.539 Y107.76 E2.29494
G1 X101.143 Y108.549 E2.31394
G1 X101.651 Y109.424 E2.33329
G1 X102.041 Y110.344 E2.3524
G1 X102.314 Y111.31 E2.3716
G1 X102.465 Y112.299 E2.39073
G1 X102.49 Y113.304 E2.40996
G1 X102.389 Y114.306 E2.42922
G1 X102.163 Y115.285 E2.44843
G1 X101.816 Y116.227 E2.46763
G1 X101.356 Y117.116 E2.48677
G1 X100.782 Y117.947 E2.50609
G1 X100.116 Y118.692 E2.5252
G1 X99.353 Y119.354 E2.54452
G1 X98.529 Y119.907 E2.5635
G1 X97.622 Y120.362 E2.5829
G1 X96.669 Y120.695 E2.60221
G1 X95.697 Y120.905 E2.62123
G1 X94.695 Y120.993 E2.64046
G1 X93.702 Y120.957 E2.65947
G1 X92.698 Y120.791 E2.67893
G1 X91.741 Y120.506 E2.69803
G1 X90.82 Y120.1 E2.71728
G1 X89.955 Y119.579 E2.73659
G1 X89.173 Y118.964 E2.75561
G1 X88.461 Y118.24 E2.77503
G1 X87.857 Y117.451 E2.79404
G1 X87.349 Y116.576 E2.81339
G1 X86.959 Y115.656 E2.8325
G1 X86.686 Y114.69 E2.85169
G1 X86.535 Y113.701 E2.87083
G1 X86.51 Y112.696 E2.89005
G1 X86.611 Y111.694 E2.90931
G1 X86.837 Y110.715 E2.92853
G1 X87.184 Y109.773 E2.94773
G1 X87.644 Y108.884 E2.96687
G1 X88.218 Y108.053 E2.98619
G1 X88.884 Y107.308 E3.0053
G1 X89.647 Y106.646 E3.02462
M205 X30 Y30
G0 F3600 X89.902 Y106.954
M205 X15 Y15
G1 F1500 X90.686 Y106.43 E3.04265
G1 X91.549 Y106 E3.06109
G1 X92.454 Y105.686 E3.07941
G1 X93.378 Y105.488 E3.09748
G1 X94.33 Y105.406 E3.11576
G1 X94.65 Y105.406 E3.12188
G1 X95.275 Y105.443 E3.13385
G1 X96.227 Y105.602 E3.15231
G1 X97.137 Y105.875 E3.17048
G1 X98.01 Y106.262 E3.18874
G1 X98.83 Y106.758 E3.20707
G1 X99.572 Y107.344 E3.22515
G1 X100.247 Y108.033 E3.2436
G1 X100.819 Y108.785 E3.26167
G1 X101.3 Y109.617 E3.28005
G1 X101.669 Y110.492 E3.29821
G1 X101.927 Y111.41 E3.31644
G1 X102.068 Y112.35 E3.33462
G1 X102.09 Y113.305 E3.35289
G1 X101.992 Y114.256 E3.37117
G1 X101.776 Y115.185 E3.38942
G1 X101.444 Y116.08 E3.40767
G1 X101.005 Y116.924 E3.42587
G1 X100.459 Y117.711 E3.44418
G1 X99.824 Y118.419 E3.46237
G1 X99.098 Y119.046 E3.48072
G1 X98.314 Y119.57 E3.49875
G1 X97.451 Y120 E3.51719
G1 X96.546 Y120.314 E3.53551
G1 X95.622 Y120.512 E3.55358
G1 X94.67 Y120.594 E3.57186
G1 X93.725 Y120.557 E3.58994
G1 X92.773 Y120.398 E3.6084
G1 X91.863 Y120.125 E3.62657
G1 X90.99 Y119.738 E3.64484
G1 X90.17 Y119.242 E3.66316
G1 X89.428 Y118.656 E3.68125
G1 X88.753 Y117.967 E3.69969
G1 X88.181 Y117.215 E3.71776
G1 X87.7 Y116.383 E3.73614
G1 X87.331 Y115.508 E3.7543
G1 X87.073 Y114.59 E3.77254
G1 X86.932 Y113.65 E3.79072
G1 X86.91 Y112.695 E3.80899
G1 X87.008 Y111.744 E3.82727
G1 X87.224 Y110.815 E3.84551
G1 X87.556 Y109.92 E3.86377
G1 X87.995 Y109.076 E3.88196
G1 X88.541 Y108.289 E3.90028
G1 X89.176 Y107.581 E3.91847
G1 X89.902 Y106.954 E3.93681
M205 X30 Y30
G0 F3600 X90.156 Y107.263
M205 X15 Y15
G1 F1500 X90.901 Y106.767 E3.95393
G1 X91.719 Y106.362 E3.97139
G1 X92.576 Y106.066 E3.98873
G1 X93.454 Y105.881 E4.00589
G1 X94.356 Y105.805 E4.0232
G1 X94.626 Y105.805 E4.02836
G1 X95.251 Y105.842 E4.04034
G1 X96.152 Y105.995 E4.05781
G1 X97.014 Y106.255 E4.07503
G1 X97.84 Y106.624 E4.09233
G1 X98.616 Y107.096 E4.1097
G1 X99.318 Y107.653 E4.12684
G1 X99.955 Y108.307 E4.1443
G1 X100.496 Y109.02 E4.16142
G1 X100.95 Y109.809 E4.17883
G1 X101.298 Y110.64 E4.19606
G1 X101.54 Y111.51 E4.21333
G1 X101.671 Y112.401 E4.23055
G1 X101.69 Y113.305 E4.24784
G1 X101.595 Y114.207 E4.26519
G1 X101.388 Y115.086 E4.28246
G1 X101.072 Y115.933 E4.29975
G1 X100.654 Y116.732 E4.31699
G1 X100.135 Y117.476 E4.33434
G1 X99.532 Y118.145 E4.35157
G1 X98.844 Y118.737 E4.36893
G1 X98.099 Y119.233 E4.38604
G1 X97.281 Y119.638 E4.4035
G1 X96.424 Y119.934 E4.42084
G1 X95.546 Y120.119 E4.438
G1 X94.644 Y120.195 E4.45531
G1 X93.749 Y120.158 E4.47244
G1 X92.848 Y120.005 E4.48992
G1 X91.986 Y119.745 E4.50714
G1 X91.16 Y119.376 E4.52444
G1 X90.384 Y118.904 E4.54181
G1 X89.682 Y118.347 E4.55895
G1 X89.045 Y117.693 E4.57641
G1 X88.504 Y116.98 E4.59352
G1 X88.05 Y116.191 E4.61093
G1 X87.702 Y115.36 E4.62816
G1 X87.46 Y114.49 E4.64543
G1 X87.329 Y113.599 E4.66266
G1 X87.31 Y112.695 E4.67995
G1 X87.405 Y111.793 E4.69729
G1 X87.612 Y110.914 E4.71456
G1 X87.928 Y110.067 E4.73185
G1 X88.346 Y109.268 E4.7491
G1 X88.865 Y108.524 E4.76645
G1 X89.468 Y107.855 E4.78367
G1 X90.156 Y107.263 E4.80103
M205 X30 Y30
G0 F3600 X90.411 Y107.571
M205 X15 Y15
G1 F1500 X91.117 Y107.104 E4.81722
G1 X91.89 Y106.724 E4.83369
G1 X92.699 Y106.447 E4.85005
G1 X93.53 Y106.273 E4.86628
G1 X94.381 Y106.205 E4.88261
G1 X95.227 Y106.241 E4.8988
G1 X96.077 Y106.388 E4.9153
G1 X96.891 Y106.636 E4.93157
G1 X97.67 Y106.986 E4.94791
G1 X98.401 Y107.434 E4.9643
G1 X99.064 Y107.962 E4.98051
G1 X99.664 Y108.58 E4.99699
G1 X100.173 Y109.256 E5.01317
G1 X100.599 Y110.002 E5.0296
G1 X100.926 Y110.787 E5.04586
G1 X101.152 Y111.609 E5.06217
G1 X101.274 Y112.452 E5.07846
G1 X101.29 Y113.306 E5.09479
G1 X101.198 Y114.158 E5.11118
G1 X101.001 Y114.987 E5.12748
G1 X100.7 Y115.786 E5.1438
G1 X100.303 Y116.54 E5.1601
G1 X99.812 Y117.241 E5.17647
G1 X99.24 Y117.872 E5.19276
G1 X98.589 Y118.429 E5.20914
G1 X97.883 Y118.896 E5.22533
G1 X97.11 Y119.276 E5.2418
G1 X96.301 Y119.553 E5.25816
G1 X95.47 Y119.727 E5.27439
G1 X94.619 Y119.795 E5.29072
G1 X93.773 Y119.759 E5.30692
G1 X92.923 Y119.612 E5.32341
G1 X92.109 Y119.364 E5.33969
G1 X91.33 Y119.014 E5.35602
G1 X90.599 Y118.566 E5.37242
G1 X89.936 Y118.038 E5.38862
G1 X89.336 Y117.42 E5.4051
G1 X88.827 Y116.744 E5.42128
G1 X88.401 Y115.998 E5.43771
G1 X88.074 Y115.213 E5.45397
G1 X87.848 Y114.391 E5.47028
G1 X87.726 Y113.548 E5.48657
G1 X87.71 Y112.694 E5.5029
G1 X87.802 Y111.842 E5.51929
G1 X87.999 Y111.013 E5.53559
G1 X88.3 Y110.214 E5.55192
G1 X88.697 Y109.46 E5.56821
G1 X89.188 Y108.759 E5.58458
G1 X89.76 Y108.128 E5.60087
G1 X90.411 Y107.571 E5.61725
M205 X30 Y30
G0 F3600 X90.666 Y107.879
M205 X15 Y15
G1 F1500 X91.332 Y107.441 E5.6325
G1 X92.06 Y107.086 E5.64799
G1 X92.822 Y106.828 E5.66337
G1 X93.605 Y106.666 E5.67867
G1 X94.407 Y106.604 E5.69405
G1 X95.204 Y106.64 E5.70931
G1 X96.002 Y106.781 E5.7248
G1 X96.768 Y107.017 E5.74013
G1 X97.499 Y107.348 E5.75548
G1 X98.187 Y107.771 E5.77093
G1 X98.809 Y108.271 E5.78619
G1 X99.372 Y108.854 E5.80169
G1 X99.849 Y109.491 E5.81691
G1 X100.248 Y110.194 E5.83237
G1 X100.554 Y110.935 E5.8477
G1 X100.765 Y111.709 E5.86304
G1 X100.878 Y112.503 E5.87838
G1 X100.89 Y113.307 E5.89376
G1 X100.801 Y114.108 E5.90917
G1 X100.613 Y114.887 E5.9245
G1 X100.328 Y115.639 E5.93988
G1 X99.952 Y116.348 E5.95522
G1 X99.488 Y117.005 E5.97061
G1 X98.948 Y117.599 E5.98596
G1 X98.334 Y118.121 E6.00137
G1 X97.668 Y118.559 E6.01662
G1 X96.94 Y118.914 E6.03211
G1 X96.178 Y119.172 E6.04749
G1 X95.395 Y119.334 E6.06278
G1 X94.593 Y119.396 E6.07817
G1 X93.796 Y119.36 E6.09342
G1 X92.998 Y119.219 E6.10892
G1 X92.232 Y118.983 E6.12425
G1 X91.501 Y118.652 E6.1396
G1 X90.813 Y118.229 E6.15504
G1 X90.191 Y117.729 E6.17031
G1 X89.628 Y117.146 E6.18581
G1 X89.151 Y116.509 E6.20102
G1 X88.752 Y115.806 E6.21648
G1 X88.446 Y115.065 E6.23182
G1 X88.235 Y114.291 E6.24716
G1 X88.122 Y113.497 E6.2625
G1 X88.11 Y112.693 E6.27787
G1 X88.199 Y111.892 E6.29329
G1 X88.387 Y111.113 E6.30861
G1 X88.672 Y110.361 E6.32399
G1 X89.048 Y109.652 E6.33934
G1 X89.512 Y108.995 E6.35472
G1 X90.052 Y108.401 E6.37008
G1 X90.666 Y107.879 E6.38549
M205 X30 Y30
G0 F3600 X90.92 Y108.188
M205 X15 Y15
G1 F1500 X91.548 Y107.778 E6.39983
G1 X92.231 Y107.447 E6.41435
G1 X92.945 Y107.208 E6.42875
G1 X93.681 Y107.059 E6.44311
G1 X94.432 Y107.003 E6.45751
G1 X95.18 Y107.04 E6.47183
G1 X95.927 Y107.174 E6.48635
G1 X96.645 Y107.397 E6.50073
G1 X97.329 Y107.71 E6.51511
G1 X97.972 Y108.109 E6.52958
G1 X98.555 Y108.579 E6.54391
G1 X99.08 Y109.127 E6.55842
G1 X99.526 Y109.727 E6.57272
G1 X99.898 Y110.387 E6.58721
G1 X100.182 Y111.083 E6.60158
G1 X100.377 Y111.809 E6.61596
G1 X100.481 Y112.554 E6.63034
G1 X100.49 Y113.307 E6.64475
G1 X100.404 Y114.059 E6.65922
G1 X100.226 Y114.788 E6.67357
G1 X99.956 Y115.492 E6.68799
G1 X99.601 Y116.156 E6.70239
G1 X99.165 Y116.77 E6.71679
G1 X98.655 Y117.326 E6.73122
G1 X98.08 Y117.812 E6.74562
G1 X97.452 Y118.222 E6.75997
G1 X96.769 Y118.553 E6.77448
G1 X96.055 Y118.792 E6.78888
G1 X95.319 Y118.941 E6.80324
G1 X94.568 Y118.997 E6.81764
G1 X93.82 Y118.96 E6.83197
G1 X93.073 Y118.826 E6.84648
G1 X92.355 Y118.603 E6.86086
G1 X91.671 Y118.29 E6.87524
G1 X91.028 Y117.891 E6.88972
G1 X90.445 Y117.421 E6.90404
G1 X89.92 Y116.873 E6.91855
G1 X89.474 Y116.273 E6.93285
G1 X89.102 Y115.613 E6.94734
G1 X88.818 Y114.917 E6.96172
G1 X88.623 Y114.191 E6.97609
G1 X88.519 Y113.446 E6.99048
G1 X88.51 Y112.693 E7.00488
G1 X88.596 Y111.941 E7.01936
G1 X88.774 Y111.212 E7.03371
G1 X89.044 Y110.508 E7.04813
G1 X89.399 Y109.844 E7.06253
G1 X89.835 Y109.23 E7.07693
G1 X90.345 Y108.674 E7.09136
G1 X90.92 Y108.188 E7.10576
M205 X30 Y30
G0 F3600 X91.175 Y108.496
M205 X15 Y15
G1 F1500 X91.763 Y108.115 E7.11916
G1 X92.401 Y107.809 E7.13269
G1 X93.068 Y107.589 E7.14612
G1 X93.757 Y107.452 E7.15955
G1 X94.458 Y107.402 E7.17299
G1 X95.156 Y107.439 E7.18636
G1 X95.852 Y107.567 E7.1999
G1 X96.522 Y107.778 E7.21333
G1 X97.159 Y108.072 E7.22675
G1 X97.758 Y108.447 E7.24026
G1 X98.301 Y108.888 E7.25364
G1 X98.788 Y109.401 E7.26717
G1 X99.203 Y109.963 E7.28053
G1 X99.547 Y110.579 E7.29402
G1 X99.811 Y111.23 E7.30746
G1 X99.99 Y111.908 E7.32087
G1 X100.084 Y112.605 E7.33432
G1 X100.09 Y113.308 E7.34776
G1 X100.007 Y114.009 E7.36126
G1 X99.838 Y114.689 E7.37466
G1 X99.584 Y115.345 E7.38812
G1 X99.25 Y115.964 E7.40157
G1 X98.841 Y116.535 E7.415
G1 X98.363 Y117.053 E7.42848
G1 X97.825 Y117.504 E7.44191
G1 X97.237 Y117.885 E7.45531
G1 X96.599 Y118.191 E7.46884
G1 X95.932 Y118.411 E7.48227
G1 X95.243 Y118.548 E7.49571
G1 X94.542 Y118.598 E7.50915
G1 X93.844 Y118.561 E7.52251
G1 X93.148 Y118.433 E7.53605
G1 X92.478 Y118.222 E7.54948
G1 X91.841 Y117.928 E7.5629
G1 X91.242 Y117.553 E7.57641
G1 X90.699 Y117.112 E7.58979
G1 X90.212 Y116.599 E7.60332
G1 X89.797 Y116.037 E7.61668
G1 X89.453 Y115.421 E7.63017
G1 X89.189 Y114.77 E7.64361
G1 X89.01 Y114.092 E7.65702
G1 X88.916 Y113.395 E7.67047
G1 X88.91 Y112.692 E7.68392
G1 X88.993 Y111.991 E7.69742
G1 X89.162 Y111.311 E7.71082
G1 X89.416 Y110.655 E7.72427
G1 X89.75 Y110.036 E7.73772
G1 X90.159 Y109.465 E7.75115
G1 X90.637 Y108.947 E7.76463
G1 X91.175 Y108.496 E7.77806
M205 X30 Y30
G0 F3600 X91.43 Y108.805
M205 X15 Y15
G1 F1500 X91.978 Y108.452 E7.79053
G1 X92.572 Y108.171 E7.80309
G1 X93.191 Y107.97 E7.81554
G1 X93.832 Y107.845 E7.82803
G1 X94.483 Y107.801 E7.84051
G1 X95.133 Y107.838 E7.85296
G1 X95.777 Y107.96 E7.86549
G1 X96.399 Y108.159 E7.87798
G1 X96.989 Y108.434 E7.89043
G1 X97.543 Y108.784 E7.90296
G1 X98.046 Y109.197 E7.91541
G1 X98.496 Y109.674 E7.92795
G1 X98.88 Y110.198 E7.94038
G1 X99.196 Y110.772 E7.95291
G1 X99.439 Y111.378 E7.96539
G1 X99.603 Y112.008 E7.97784
G1 X99.687 Y112.656 E7.99034
G1 X99.69 Y113.309 E8.00283
G1 X99.61 Y113.96 E8.01537
G1 X99.451 Y114.59 E8.0278
G1 X99.212 Y115.198 E8.04029
G1 X98.899 Y115.772 E8.0528
G1 X98.518 Y116.3 E8.06525
G1 X98.071 Y116.78 E8.07779
G1 X97.57 Y117.195 E8.09023
G1 X97.022 Y117.548 E8.1027
G1 X96.428 Y117.829 E8.11527
G1 X95.809 Y118.03 E8.12771
G1 X95.168 Y118.155 E8.1402
G1 X94.517 Y118.199 E8.15268
G1 X93.867 Y118.162 E8.16513
G1 X93.223 Y118.04 E8.17767
G1 X92.601 Y117.841 E8.19016
G1 X92.011 Y117.566 E8.20261
G1 X91.457 Y117.216 E8.21514
G1 X90.954 Y116.803 E8.22759
G1 X90.504 Y116.326 E8.24013
G1 X90.12 Y115.802 E8.25255
G1 X89.804 Y115.228 E8.26508
G1 X89.561 Y114.622 E8.27757
