;FLAVOR:Marlin
;TIME:370
;Filament used: 0.182107m
;Layer height: 0.15
;MINX:99.708
;MINY:96.207
;MINZ:0.1
;MAXX:117.292
;MAXY:113.792
;MAXZ:10.9
;Generated with Cura_SteamEngine 4.5.0
M140 S69
M105
M190 S69
M82 ;absolute extrusion mode
;Gcode by Cura
G90
M106 S255
G28 X Y
M109 R195
G28
M104 S195
G29
M107
G1 X100 Y10 F3000
G1 Z0.5
M109 S195
M82
G92 E0
G1 F200 E10
G92 E0
G1 Z3
G1 X120 Y10
G1 Z0.5
G92 E0
G1 F200 E10
G92 E0
G1 Z3
G1 F6000
G92 E0
G92 E0
G1 F1200 E-3.5
;LAYER_COUNT:73
;LAYER:0
M106 S255
M205 X30 Y30
G1 F120 Z1.1
G0 F3600 X101.948 Y99.131 Z1.1
M205 X15 Y15
;TYPE:SKIRT
G1 F120 Z0.1
G1 F1200 E0
G1 F1500 X102.671 Y98.413 E0.01949
G1 X103.474 Y97.781 E0.03903
G1 X104.344 Y97.247 E0.05855
G1 X105.281 Y96.815 E0.07829
G1 X106.244 Y96.499 E0.09767
G1 X107.252 Y96.294 E0.11734
G1 X108.265 Y96.208 E0.13678
G1 X108.704 Y96.207 E0.14518
G1 X109.283 Y96.239 E0.15627
G1 X110.305 Y96.391 E0.17603
G1 X111.292 Y96.659 E0.19559
G1 X112.233 Y97.034 E0.21496
G1 X113.142 Y97.528 E0.23475
G1 X113.978 Y98.118 E0.25432
G1 X114.737 Y98.799 E0.27382
G1 X115.41 Y99.557 E0.2932
G1 X116.004 Y100.412 E0.31311
G1 X116.481 Y101.304 E0.33246
G1 X116.856 Y102.256 E0.35203
G1 X117.117 Y103.238 E0.37146
G1 X117.264 Y104.258 E0.39117
G1 X117.292 Y105.271 E0.41055
G1 X117.202 Y106.293 E0.43017
G1 X116.989 Y107.305 E0.44995
G1 X116.666 Y108.268 E0.46937
G1 X116.231 Y109.196 E0.48897
G1 X115.695 Y110.061 E0.50843
G1 X115.052 Y110.869 E0.52818
G1 X114.329 Y111.587 E0.54767
G1 X113.526 Y112.219 E0.56721
G1 X112.656 Y112.753 E0.58674
G1 X111.719 Y113.185 E0.60647
G1 X110.756 Y113.501 E0.62585
G1 X109.748 Y113.706 E0.64552
G1 X108.735 Y113.792 E0.66497
G1 X107.717 Y113.761 E0.68444
G1 X106.695 Y113.609 E0.7042
G1 X105.708 Y113.341 E0.72376
G1 X104.765 Y112.964 E0.74319
G1 X103.857 Y112.471 E0.76295
G1 X103.022 Y111.882 E0.78249
G1 X102.263 Y111.201 E0.80199
G1 X101.59 Y110.443 E0.82138
G1 X100.996 Y109.588 E0.84129
G1 X100.518 Y108.694 E0.86067
G1 X100.144 Y107.742 E0.88024
G1 X99.883 Y106.762 E0.89963
G1 X99.736 Y105.742 E0.91934
G1 X99.708 Y104.729 E0.93872
G1 X99.798 Y103.707 E0.95834
G1 X100.011 Y102.695 E0.97812
G1 X100.334 Y101.732 E0.99754
G1 X100.769 Y100.804 E1.01714
G1 X101.305 Y99.939 E1.03661
G1 X101.948 Y99.131 E1.05635
M205 X30 Y30
G0 F3600 X102.254 Y99.389
M205 X15 Y15
G1 F1500 X102.946 Y98.704 E1.07498
G1 X103.714 Y98.102 E1.09364
G1 X104.545 Y97.593 E1.11228
G1 X105.439 Y97.182 E1.13109
G1 X106.359 Y96.882 E1.1496
G1 X107.322 Y96.688 E1.16839
G1 X108.289 Y96.607 E1.18694
G1 X108.682 Y96.606 E1.19446
G1 X109.261 Y96.638 E1.20555
G1 X110.236 Y96.785 E1.22441
G1 X111.178 Y97.042 E1.24308
G1 X112.075 Y97.402 E1.26157
G1 X112.942 Y97.875 E1.28045
G1 X113.739 Y98.439 E1.29913
G1 X114.463 Y99.09 E1.31775
G1 X115.104 Y99.815 E1.33625
G1 X115.669 Y100.632 E1.35525
G1 X116.123 Y101.484 E1.37372
G1 X116.48 Y102.393 E1.39239
G1 X116.728 Y103.331 E1.41095
G1 X116.867 Y104.305 E1.42976
G1 X116.892 Y105.272 E1.44826
G1 X116.804 Y106.248 E1.467
G1 X116.6 Y107.213 E1.48587
G1 X116.29 Y108.132 E1.50442
G1 X115.873 Y109.017 E1.52313
G1 X115.36 Y109.842 E1.54171
G1 X114.746 Y110.611 E1.56052
G1 X114.054 Y111.296 E1.57915
G1 X113.286 Y111.898 E1.59781
G1 X112.455 Y112.407 E1.61645
G1 X111.561 Y112.818 E1.63526
G1 X110.641 Y113.118 E1.65377
G1 X109.678 Y113.312 E1.67256
G1 X108.711 Y113.393 E1.69111
G1 X107.739 Y113.362 E1.70971
G1 X106.764 Y113.215 E1.72857
G1 X105.822 Y112.958 E1.74724
G1 X104.922 Y112.597 E1.76579
G1 X104.057 Y112.125 E1.78463
G1 X103.261 Y111.561 E1.80329
G1 X102.537 Y110.91 E1.82191
G1 X101.896 Y110.185 E1.84042
G1 X101.331 Y109.368 E1.85942
G1 X100.876 Y108.514 E1.87792
G1 X100.519 Y107.605 E1.8966
G1 X100.272 Y106.669 E1.91511
G1 X100.133 Y105.695 E1.93393
G1 X100.108 Y104.728 E1.95243
G1 X100.196 Y103.752 E1.97117
G1 X100.4 Y102.787 E1.99003
G1 X100.71 Y101.868 E2.00858
G1 X101.127 Y100.983 E2.02729
G1 X101.64 Y100.158 E2.04587
G1 X102.254 Y99.389 E2.06469
M205 X30 Y30
G0 F3600 X102.561 Y99.646
M205 X15 Y15
G1 F1500 X103.221 Y98.994 E2.08243
G1 X103.953 Y98.422 E2.1002
G1 X104.745 Y97.94 E2.11793
G1 X105.597 Y97.55 E2.13585
G1 X106.475 Y97.265 E2.1535
G1 X107.392 Y97.082 E2.17139
G1 X108.313 Y97.006 E2.18906
G1 X108.66 Y97.006 E2.1957
G1 X109.239 Y97.038 E2.20679
G1 X110.167 Y97.179 E2.22474
G1 X111.063 Y97.425 E2.24251
G1 X111.918 Y97.77 E2.26014
G1 X112.742 Y98.221 E2.27811
G1 X113.5 Y98.76 E2.29589
G1 X114.189 Y99.381 E2.31363
G1 X114.799 Y100.073 E2.33127
G1 X115.335 Y100.851 E2.34934
G1 X115.766 Y101.664 E2.36694
G1 X116.105 Y102.531 E2.38474
G1 X116.339 Y103.424 E2.4024
G1 X116.469 Y104.351 E2.4203
G1 X116.492 Y105.274 E2.43796
G1 X116.407 Y106.203 E2.4558
G1 X116.211 Y107.12 E2.47373
G1 X115.914 Y107.996 E2.49142
G1 X115.515 Y108.838 E2.50924
G1 X115.025 Y109.623 E2.52694
G1 X114.439 Y110.354 E2.54486
G1 X113.779 Y111.006 E2.5626
G1 X113.047 Y111.578 E2.58037
G1 X112.255 Y112.06 E2.5981
G1 X111.403 Y112.45 E2.61602
G1 X110.525 Y112.735 E2.63367
G1 X109.608 Y112.918 E2.65155
G1 X108.687 Y112.994 E2.66923
G1 X107.761 Y112.962 E2.68695
G1 X106.833 Y112.821 E2.7049
G1 X105.937 Y112.575 E2.72267
G1 X105.079 Y112.229 E2.74036
G1 X104.257 Y111.779 E2.75828
G1 X103.5 Y111.24 E2.77606
G1 X102.811 Y110.619 E2.79379
G1 X102.201 Y109.927 E2.81144
G1 X101.665 Y109.149 E2.82951
G1 X101.233 Y108.334 E2.84715
G1 X100.895 Y107.468 E2.86492
G1 X100.661 Y106.576 E2.88256
G1 X100.531 Y105.649 E2.90046
G1 X100.508 Y104.726 E2.91812
G1 X100.593 Y103.797 E2.93596
G1 X100.789 Y102.88 E2.95389
G1 X101.086 Y102.004 E2.97158
G1 X101.485 Y101.162 E2.9894
G1 X101.975 Y100.377 E3.0071
G1 X102.561 Y99.646 E3.02502
M205 X30 Y30
G0 F3600 X102.867 Y99.903
M205 X15 Y15
G1 F1500 X103.495 Y99.285 E3.04187
G1 X104.192 Y98.743 E3.05875
G1 X104.946 Y98.286 E3.07562
G1 X105.755 Y97.917 E3.09262
G1 X106.59 Y97.648 E3.1094
G1 X107.462 Y97.476 E3.1264
G1 X108.337 Y97.406 E3.14318
G1 X108.637 Y97.405 E3.14892
G1 X109.216 Y97.437 E3.16001
G1 X110.098 Y97.573 E3.17708
G1 X110.949 Y97.809 E3.19397
G1 X111.761 Y98.138 E3.21072
G1 X112.542 Y98.567 E3.22777
G1 X113.261 Y99.081 E3.24467
G1 X113.915 Y99.673 E3.26154
G1 X114.493 Y100.331 E3.27829
G1 X115 Y101.07 E3.29543
G1 X115.409 Y101.844 E3.31217
G1 X115.729 Y102.668 E3.32907
G1 X115.95 Y103.518 E3.34587
G1 X116.072 Y104.398 E3.36286
G1 X116.092 Y105.275 E3.37964
G1 X116.009 Y106.157 E3.39658
G1 X115.822 Y107.028 E3.41362
G1 X115.538 Y107.859 E3.43041
G1 X115.158 Y108.659 E3.44735
G1 X114.69 Y109.405 E3.46419
G1 X114.133 Y110.097 E3.48118
G1 X113.505 Y110.715 E3.49803
G1 X112.808 Y111.257 E3.51492
G1 X112.054 Y111.714 E3.53178
G1 X111.245 Y112.083 E3.54878
G1 X110.41 Y112.352 E3.56556
G1 X109.538 Y112.524 E3.58256
G1 X108.663 Y112.594 E3.59935
G1 X107.784 Y112.563 E3.61617
G1 X106.902 Y112.427 E3.63324
G1 X106.051 Y112.191 E3.65012
G1 X105.237 Y111.861 E3.66692
G1 X104.457 Y111.432 E3.68395
G1 X103.739 Y110.919 E3.70082
G1 X103.085 Y110.327 E3.71769
G1 X102.507 Y109.669 E3.73444
G1 X102 Y108.93 E3.75158
G1 X101.59 Y108.154 E3.76837
G1 X101.271 Y107.331 E3.78525
G1 X101.05 Y106.482 E3.80203
G1 X100.928 Y105.602 E3.81902
G1 X100.908 Y104.725 E3.83579
G1 X100.991 Y103.843 E3.85274
G1 X101.178 Y102.972 E3.86977
G1 X101.462 Y102.141 E3.88657
G1 X101.842 Y101.341 E3.90351
G1 X102.31 Y100.595 E3.92035
G1 X102.867 Y99.903 E3.93734
M205 X30 Y30
G0 F3600 X103.173 Y100.16
M205 X15 Y15
G1 F1500 X103.77 Y99.576 E3.95331
G1 X104.432 Y99.063 E3.96933
G1 X105.147 Y98.632 E3.98529
G1 X105.914 Y98.284 E4.0014
G1 X106.705 Y98.031 E4.01728
G1 X107.531 Y97.87 E4.03338
G1 X108.361 Y97.805 E4.0493
G1 X108.615 Y97.804 E4.05416
G1 X109.194 Y97.836 E4.06525
G1 X110.029 Y97.967 E4.08141
G1 X110.834 Y98.192 E4.0974
G1 X111.603 Y98.505 E4.11327
G1 X112.342 Y98.914 E4.12943
G1 X113.022 Y99.401 E4.14542
G1 X113.641 Y99.964 E4.16143
G1 X114.187 Y100.589 E4.1773
G1 X114.666 Y101.29 E4.19353
G1 X115.052 Y102.024 E4.20939
G1 X115.353 Y102.806 E4.22542
G1 X115.561 Y103.611 E4.24132
G1 X115.675 Y104.445 E4.25742
G1 X115.692 Y105.276 E4.27331
G1 X115.612 Y106.112 E4.28938
G1 X115.432 Y106.936 E4.30551
G1 X115.162 Y107.723 E4.32142
G1 X114.8 Y108.479 E4.33745
G1 X114.355 Y109.186 E4.35342
G1 X113.827 Y109.84 E4.3695
G1 X113.23 Y110.424 E4.38547
G1 X112.568 Y110.937 E4.40149
G1 X111.853 Y111.368 E4.41745
G1 X111.086 Y111.716 E4.43356
G1 X110.295 Y111.969 E4.44944
G1 X109.469 Y112.13 E4.46554
G1 X108.639 Y112.195 E4.48146
G1 X107.806 Y112.164 E4.4974
G1 X106.971 Y112.033 E4.51357
G1 X106.166 Y111.808 E4.52955
G1 X105.394 Y111.494 E4.54549
G1 X104.658 Y111.086 E4.56158
G1 X103.978 Y110.599 E4.57758
G1 X103.359 Y110.036 E4.59358
G1 X102.813 Y109.411 E4.60945
G1 X102.334 Y108.71 E4.62569
G1 X101.947 Y107.974 E4.64159
G1 X101.646 Y107.194 E4.65758
G1 X101.439 Y106.389 E4.67348
G1 X101.325 Y105.555 E4.68958
G1 X101.308 Y104.724 E4.70547
G1 X101.388 Y103.888 E4.72154
G1 X101.568 Y103.064 E4.73767
G1 X101.838 Y102.277 E4.75358
G1 X102.2 Y101.521 E4.76961
G1 X102.645 Y100.814 E4.78558
G1 X103.173 Y100.16 E4.80166
M205 X30 Y30
G0 F3600 X103.48 Y100.417
M205 X15 Y15
G1 F1500 X104.045 Y99.866 E4.81675
G1 X104.671 Y99.384 E4.83186
G1 X105.347 Y98.978 E4.84694
G1 X106.072 Y98.652 E4.86215
G1 X106.82 Y98.414 E4.87716
G1 X107.601 Y98.264 E4.89237
G1 X108.385 Y98.204 E4.9074
G1 X109.172 Y98.236 E4.92247
G1 X109.96 Y98.361 E4.93773
G1 X110.72 Y98.575 E4.95283
G1 X111.446 Y98.873 E4.96783
G1 X112.142 Y99.26 E4.98306
G1 X112.783 Y99.722 E4.99818
G1 X113.367 Y100.255 E5.0133
G1 X113.882 Y100.847 E5.0283
G1 X114.331 Y101.509 E5.0436
G1 X114.694 Y102.204 E5.0586
G1 X114.978 Y102.943 E5.07374
G1 X115.172 Y103.704 E5.08876
G1 X115.278 Y104.492 E5.10396
G1 X115.292 Y105.278 E5.119
G1 X115.214 Y106.067 E5.13416
G1 X115.043 Y106.843 E5.14936
G1 X114.786 Y107.587 E5.16441
G1 X114.442 Y108.3 E5.17955
G1 X114.021 Y108.967 E5.19463
G1 X113.52 Y109.583 E5.20982
G1 X112.955 Y110.134 E5.22491
G1 X112.329 Y110.616 E5.24002
G1 X111.653 Y111.022 E5.2551
G1 X110.928 Y111.348 E5.27031
G1 X110.18 Y111.586 E5.28532
G1 X109.399 Y111.736 E5.30053
G1 X108.615 Y111.796 E5.31556
G1 X107.828 Y111.764 E5.33063
G1 X107.04 Y111.639 E5.34589
G1 X106.28 Y111.425 E5.36099
G1 X105.552 Y111.126 E5.37604
G1 X104.858 Y110.74 E5.39122
G1 X104.217 Y110.278 E5.40634
G1 X103.633 Y109.745 E5.42146
G1 X103.118 Y109.153 E5.43646
G1 X102.669 Y108.491 E5.45176
G1 X102.305 Y107.794 E5.4668
G1 X102.022 Y107.056 E5.48191
G1 X101.828 Y106.296 E5.49692
G1 X101.722 Y105.508 E5.51212
G1 X101.708 Y104.722 E5.52716
G1 X101.786 Y103.933 E5.54232
G1 X101.957 Y103.157 E5.55752
G1 X102.214 Y102.413 E5.57257
G1 X102.558 Y101.7 E5.58771
G1 X102.979 Y101.033 E5.60279
G1 X103.48 Y100.417 E5.61798
M205 X30 Y30
G0 F3600 X103.786 Y100.675
M205 X15 Y15
G1 F1500 X104.32 Y100.157 E5.63221
G1 X104.91 Y99.704 E5.64643
G1 X105.548 Y99.324 E5.66063
G1 X106.23 Y99.019 E5.67492
G1 X106.936 Y98.797 E5.68908
G1 X107.671 Y98.657 E5.70338
G1 X108.41 Y98.604 E5.71755
G1 X109.15 Y98.635 E5.73172
G1 X109.891 Y98.755 E5.74607
G1 X110.606 Y98.959 E5.76029
G1 X111.289 Y99.241 E5.77443
G1 X111.942 Y99.607 E5.78874
G1 X112.544 Y100.043 E5.80296
G1 X113.093 Y100.547 E5.81721
G1 X113.576 Y101.105 E5.83132
G1 X113.997 Y101.728 E5.8457
G1 X114.337 Y102.384 E5.85984
G1 X114.602 Y103.08 E5.87408
G1 X114.783 Y103.798 E5.88824
G1 X114.88 Y104.538 E5.90251
G1 X114.892 Y105.279 E5.91669
G1 X114.817 Y106.022 E5.93097
G1 X114.654 Y106.751 E5.94525
G1 X114.41 Y107.45 E5.95941
G1 X114.085 Y108.121 E5.97367
G1 X113.686 Y108.748 E5.98788
G1 X113.214 Y109.325 E6.00214
G1 X112.68 Y109.843 E6.01637
G1 X112.09 Y110.296 E6.03059
G1 X111.452 Y110.676 E6.0448
G1 X110.77 Y110.981 E6.05908
G1 X110.064 Y111.203 E6.07324
G1 X109.329 Y111.343 E6.08755
G1 X108.59 Y111.396 E6.10172
G1 X107.85 Y111.365 E6.11588
G1 X107.109 Y111.245 E6.13024
G1 X106.394 Y111.041 E6.14446
G1 X105.709 Y110.758 E6.15863
G1 X105.058 Y110.393 E6.1729
G1 X104.456 Y109.957 E6.18712
G1 X103.907 Y109.453 E6.20137
G1 X103.424 Y108.895 E6.21549
G1 X103.003 Y108.272 E6.22987
G1 X102.662 Y107.614 E6.24404
G1 X102.398 Y106.919 E6.25826
G1 X102.217 Y106.202 E6.2724
G1 X102.12 Y105.462 E6.28667
G1 X102.108 Y104.721 E6.30085
G1 X102.183 Y103.978 E6.31513
G1 X102.346 Y103.249 E6.32942
G1 X102.59 Y102.55 E6.34357
G1 X102.915 Y101.879 E6.35783
G1 X103.314 Y101.252 E6.37205
G1 X103.786 Y100.675 E6.3863
M205 X30 Y30
G0 F3600 X104.092 Y100.932
M205 X15 Y15
G1 F1500 X104.595 Y100.447 E6.39967
G1 X105.15 Y100.025 E6.413
G1 X105.748 Y99.67 E6.4263
G1 X106.388 Y99.387 E6.43968
G1 X107.051 Y99.18 E6.45297
G1 X107.741 Y99.051 E6.46639
G1 X108.434 Y99.003 E6.47968
G1 X109.128 Y99.035 E6.49296
G1 X109.822 Y99.149 E6.50641
G1 X110.491 Y99.342 E6.51973
G1 X111.131 Y99.609 E6.53299
G1 X111.742 Y99.953 E6.5464
G1 X112.305 Y100.364 E6.55973
G1 X112.818 Y100.838 E6.57309
G1 X113.27 Y101.363 E6.58634
G1 X113.662 Y101.948 E6.59981
G1 X113.98 Y102.564 E6.61306
G1 X114.226 Y103.218 E6.62643
G1 X114.394 Y103.891 E6.63969
G1 X114.483 Y104.585 E6.65307
G1 X114.492 Y105.281 E6.66639
G1 X114.42 Y105.976 E6.67975
G1 X114.265 Y106.658 E6.69312
G1 X114.034 Y107.314 E6.70642
G1 X113.727 Y107.942 E6.71979
G1 X113.351 Y108.529 E6.73312
G1 X112.908 Y109.068 E6.74647
G1 X112.405 Y109.553 E6.75983
G1 X111.85 Y109.975 E6.77316
G1 X111.252 Y110.33 E6.78646
G1 X110.612 Y110.613 E6.79985
G1 X109.949 Y110.82 E6.81313
G1 X109.259 Y110.949 E6.82656
G1 X108.566 Y110.997 E6.83984
G1 X107.872 Y110.965 E6.85313
G1 X107.178 Y110.851 E6.86658
G1 X106.509 Y110.658 E6.87989
G1 X105.866 Y110.39 E6.89322
G1 X105.258 Y110.047 E6.90657
G1 X104.695 Y109.636 E6.9199
G1 X104.182 Y109.162 E6.93326
G1 X103.73 Y108.637 E6.9465
G1 X103.338 Y108.052 E6.95997
G1 X103.019 Y107.434 E6.97327
G1 X102.774 Y106.782 E6.98659
G1 X102.606 Y106.109 E6.99986
G1 X102.517 Y105.415 E7.01324
G1 X102.508 Y104.719 E7.02655
G1 X102.58 Y104.024 E7.03991
G1 X102.735 Y103.342 E7.05329
G1 X102.966 Y102.686 E7.06659
G1 X103.273 Y102.058 E7.07996
G1 X103.649 Y101.471 E7.09329
G1 X104.092 Y100.932 E7.10663
M205 X30 Y30
G0 F3600 X104.399 Y101.189
M205 X15 Y15
G1 F1500 X104.87 Y100.738 E7.1191
G1 X105.389 Y100.345 E7.13156
G1 X105.949 Y100.016 E7.14398
G1 X106.547 Y99.754 E7.15646
G1 X107.166 Y99.563 E7.16885
G1 X107.81 Y99.445 E7.18137
G1 X108.458 Y99.402 E7.19379
G1 X109.106 Y99.434 E7.2062
G1 X109.753 Y99.543 E7.21875
G1 X110.377 Y99.725 E7.23118
G1 X110.974 Y99.976 E7.24356
G1 X111.542 Y100.299 E7.25606
G1 X112.066 Y100.685 E7.26851
G1 X112.544 Y101.129 E7.28098
G1 X112.965 Y101.621 E7.29337
G1 X113.328 Y102.167 E7.30591
G1 X113.623 Y102.744 E7.3183
G1 X113.851 Y103.355 E7.33077
G1 X114.005 Y103.984 E7.34316
G1 X114.086 Y104.632 E7.35565
G1 X114.092 Y105.282 E7.36808
G1 X114.022 Y105.931 E7.38056
G1 X113.876 Y106.566 E7.39302
G1 X113.658 Y107.178 E7.40545
G1 X113.369 Y107.763 E7.41793
G1 X113.016 Y108.31 E7.43038
G1 X112.601 Y108.811 E7.44282
G1 X112.13 Y109.262 E7.45529
G1 X111.611 Y109.655 E7.46774
G1 X111.051 Y109.984 E7.48016
G1 X110.453 Y110.246 E7.49265
G1 X109.834 Y110.437 E7.50504
G1 X109.19 Y110.555 E7.51756
G1 X108.542 Y110.598 E7.52998
G1 X107.894 Y110.566 E7.54239
G1 X107.247 Y110.457 E7.55493
G1 X106.623 Y110.275 E7.56736
G1 X106.024 Y110.023 E7.57979
G1 X105.458 Y109.701 E7.59225
G1 X104.934 Y109.315 E7.60469
G1 X104.456 Y108.871 E7.61717
G1 X104.035 Y108.379 E7.62955
G1 X103.672 Y107.833 E7.64209
G1 X103.376 Y107.254 E7.65453
G1 X103.149 Y106.645 E7.66696
G1 X102.995 Y106.016 E7.67934
G1 X102.914 Y105.368 E7.69183
G1 X102.908 Y104.718 E7.70426
G1 X102.978 Y104.069 E7.71675
G1 X103.124 Y103.434 E7.72921
