;FLAVOR:Marlin
;TIME:540
;Filament used: 0.297748m
;Layer height: 0.15
;MINX:39.095
;MINY:39.064
;MINZ:0.1
;MAXX:56.676
;MAXY:56.647
;MAXZ:14.95
;Generated with Cura_SteamEngine 4.5.0
M140 S69
M105
M190 S69
M82 ;absolute extrusion mode
;Gcode by Cura
G90
M106 S255
G28 X Y
M109 R195
G28
M104 S195
G29
M107
G1 X100 Y10 F3000
G1 Z0.5
M109 S195
M82
G92 E0
G1 F200 E10
G92 E0
G1 Z3
G1 X120 Y10
G1 Z0.5
G92 E0
G1 F200 E10
G92 E0
G1 Z3
G1 F6000
G92 E0
G92 E0
G1 F1200 E-3.5
;LAYER_COUNT:100
;LAYER:0
M106 S255
M205 X30 Y30
G1 F120 Z1.1
G0 F3600 X41.685 Y41.618 Z1.1
M205 X15 Y15
;TYPE:SKIRT
G1 F120 Z0.1
G1 F1200 E0
G1 F1500 X42.519 Y40.887 E0.02121
G1 X43.429 Y40.273 E0.0422
G1 X44.424 Y39.77 E0.06353
G1 X45.468 Y39.4 E0.08471
G1 X46.539 Y39.165 E0.10568
G1 X47.638 Y39.065 E0.12678
G1 X48.106 Y39.064 E0.13573
G1 X48.731 Y39.101 E0.14771
G1 X49.836 Y39.279 E0.16911
G1 X50.892 Y39.589 E0.19016
G1 X51.905 Y40.032 E0.21131
G1 X52.859 Y40.602 E0.23256
G1 X53.721 Y41.274 E0.25346
G1 X54.508 Y42.069 E0.27486
G1 X55.174 Y42.934 E0.29573
G1 X55.736 Y43.891 E0.31696
G1 X56.171 Y44.905 E0.33806
G1 X56.475 Y45.967 E0.35919
G1 X56.644 Y47.053 E0.3802
G1 X56.676 Y48.159 E0.40137
G1 X56.569 Y49.261 E0.42254
G1 X56.324 Y50.339 E0.44368
G1 X55.946 Y51.378 E0.46483
G1 X55.44 Y52.361 E0.48597
G1 X54.814 Y53.273 E0.50713
G1 X54.086 Y54.094 E0.52811
G1 X53.248 Y54.827 E0.5494
G1 X52.341 Y55.439 E0.57033
G1 X51.352 Y55.939 E0.59152
G1 X50.303 Y56.312 E0.61281
G1 X49.227 Y56.547 E0.63388
G1 X48.137 Y56.647 E0.65481
G1 X47.034 Y56.61 E0.67592
G1 X45.94 Y56.434 E0.69711
G1 X44.882 Y56.124 E0.71819
G1 X43.861 Y55.677 E0.73951
G1 X42.917 Y55.114 E0.76053
G1 X42.047 Y54.435 E0.78163
G1 X41.263 Y53.643 E0.80295
G1 X40.597 Y52.778 E0.82383
G1 X40.035 Y51.821 E0.84505
G1 X39.6 Y50.807 E0.86615
G1 X39.296 Y49.745 E0.88728
G1 X39.127 Y48.659 E0.9083
G1 X39.095 Y47.553 E0.92946
G1 X39.202 Y46.451 E0.95063
G1 X39.447 Y45.373 E0.97177
G1 X39.825 Y44.334 E0.99292
G1 X40.331 Y43.351 E1.01406
G1 X40.957 Y42.439 E1.03522
G1 X41.685 Y41.618 E1.0562
M205 X30 Y30
G0 F3600 X41.977 Y41.891
M205 X15 Y15
G1 F1500 X42.774 Y41.195 E1.07644
G1 X43.644 Y40.61 E1.09649
G1 X44.594 Y40.132 E1.11683
G1 X45.591 Y39.781 E1.13704
G1 X46.614 Y39.558 E1.15707
G1 X47.664 Y39.464 E1.17723
G1 X48.082 Y39.463 E1.18522
G1 X48.707 Y39.5 E1.19719
G1 X49.762 Y39.672 E1.21764
G1 X50.769 Y39.97 E1.23772
G1 X51.735 Y40.394 E1.2579
G1 X52.644 Y40.939 E1.27817
G1 X53.466 Y41.583 E1.29814
G1 X54.216 Y42.342 E1.31854
G1 X54.851 Y43.17 E1.3385
G1 X55.385 Y44.084 E1.35874
G1 X55.799 Y45.053 E1.3789
G1 X56.088 Y46.066 E1.39904
G1 X56.247 Y47.104 E1.41913
G1 X56.276 Y48.16 E1.43933
G1 X56.172 Y49.211 E1.45953
G1 X55.937 Y50.24 E1.47971
G1 X55.574 Y51.231 E1.4999
G1 X55.09 Y52.168 E1.52007
G1 X54.491 Y53.038 E1.54027
G1 X53.794 Y53.821 E1.56031
G1 X52.993 Y54.519 E1.58063
G1 X52.126 Y55.102 E1.60061
G1 X51.181 Y55.578 E1.62085
G1 X50.18 Y55.931 E1.64115
G1 X49.152 Y56.154 E1.66127
G1 X48.111 Y56.248 E1.68126
G1 X47.058 Y56.211 E1.70141
G1 X46.015 Y56.041 E1.72162
G1 X45.005 Y55.743 E1.74176
G1 X44.031 Y55.315 E1.7621
G1 X43.131 Y54.776 E1.78217
G1 X42.302 Y54.127 E1.8023
G1 X41.555 Y53.37 E1.82264
G1 X40.92 Y52.542 E1.8426
G1 X40.386 Y51.628 E1.86284
G1 X39.972 Y50.659 E1.88299
G1 X39.683 Y49.646 E1.90314
G1 X39.524 Y48.608 E1.92322
G1 X39.495 Y47.552 E1.94342
G1 X39.599 Y46.501 E1.96362
G1 X39.834 Y45.472 E1.98381
G1 X40.197 Y44.481 E2.00399
G1 X40.681 Y43.544 E2.02416
G1 X41.28 Y42.674 E2.04436
G1 X41.977 Y41.891 E2.06441
M205 X30 Y30
G0 F3600 X42.27 Y42.164
M205 X15 Y15
G1 F1500 X43.029 Y41.504 E2.08365
G1 X43.859 Y40.948 E2.10275
G1 X44.764 Y40.494 E2.12212
G1 X45.714 Y40.161 E2.14137
G1 X46.69 Y39.951 E2.16046
G1 X47.689 Y39.863 E2.17964
G1 X48.058 Y39.862 E2.1867
G1 X48.683 Y39.899 E2.19867
G1 X49.687 Y40.065 E2.21813
G1 X50.646 Y40.35 E2.23727
G1 X51.565 Y40.756 E2.25648
G1 X52.43 Y41.277 E2.27579
G1 X53.212 Y41.892 E2.29482
G1 X53.924 Y42.616 E2.31424
G1 X54.528 Y43.405 E2.33324
G1 X55.035 Y44.277 E2.35253
G1 X55.427 Y45.2 E2.37171
G1 X55.7 Y46.166 E2.39091
G1 X55.851 Y47.155 E2.41004
G1 X55.876 Y48.16 E2.42927
G1 X55.775 Y49.162 E2.44853
G1 X55.549 Y50.141 E2.46774
G1 X55.202 Y51.083 E2.48694
G1 X54.739 Y51.976 E2.50618
G1 X54.167 Y52.803 E2.52541
G1 X53.501 Y53.548 E2.54452
G1 X52.738 Y54.21 E2.56384
G1 X51.911 Y54.764 E2.58288
G1 X51.01 Y55.216 E2.60215
G1 X50.057 Y55.551 E2.62147
G1 X49.077 Y55.761 E2.64064
G1 X48.085 Y55.849 E2.65969
G1 X47.083 Y55.811 E2.67886
G1 X46.089 Y55.648 E2.69813
G1 X45.128 Y55.363 E2.7173
G1 X44.201 Y54.953 E2.73668
G1 X43.345 Y54.438 E2.75579
G1 X42.557 Y53.818 E2.77496
G1 X41.847 Y53.096 E2.79433
G1 X41.243 Y52.307 E2.81333
G1 X40.736 Y51.435 E2.83262
G1 X40.344 Y50.512 E2.8518
G1 X40.071 Y49.546 E2.871
G1 X39.92 Y48.557 E2.89013
G1 X39.895 Y47.552 E2.90936
G1 X39.996 Y46.55 E2.92862
G1 X40.222 Y45.571 E2.94783
G1 X40.569 Y44.629 E2.96703
G1 X41.032 Y43.736 E2.98627
G1 X41.604 Y42.909 E3.0055
G1 X42.27 Y42.164 E3.02461
M205 X30 Y30
G0 F3600 X42.562 Y42.437
M205 X15 Y15
G1 F1500 X43.284 Y41.812 E3.04287
G1 X44.074 Y41.285 E3.06103
G1 X44.935 Y40.856 E3.07943
G1 X45.837 Y40.542 E3.0977
G1 X46.765 Y40.344 E3.11584
G1 X47.715 Y40.262 E3.13408
G1 X48.035 Y40.262 E3.1402
G1 X48.66 Y40.299 E3.15217
G1 X49.612 Y40.458 E3.17063
G1 X50.523 Y40.731 E3.18882
G1 X51.395 Y41.118 E3.20707
G1 X52.215 Y41.614 E3.22539
G1 X52.957 Y42.2 E3.24348
G1 X53.632 Y42.889 E3.26192
G1 X54.204 Y43.641 E3.27999
G1 X54.684 Y44.47 E3.29831
G1 X55.055 Y45.348 E3.31654
G1 X55.313 Y46.266 E3.33478
G1 X55.454 Y47.206 E3.35295
G1 X55.476 Y48.161 E3.37122
G1 X55.378 Y49.112 E3.38951
G1 X55.162 Y50.041 E3.40775
G1 X54.83 Y50.936 E3.426
G1 X54.388 Y51.783 E3.44428
G1 X53.844 Y52.567 E3.46253
G1 X53.209 Y53.275 E3.48071
G1 X52.483 Y53.902 E3.49906
G1 X51.696 Y54.427 E3.51715
G1 X50.839 Y54.854 E3.53546
G1 X49.934 Y55.17 E3.5538
G1 X49.002 Y55.368 E3.57202
G1 X48.059 Y55.449 E3.59012
G1 X47.107 Y55.412 E3.60834
G1 X46.163 Y55.255 E3.62664
G1 X45.251 Y54.982 E3.64485
G1 X44.372 Y54.591 E3.66325
G1 X43.559 Y54.1 E3.68141
G1 X42.812 Y53.51 E3.69961
G1 X42.139 Y52.823 E3.71801
G1 X41.567 Y52.071 E3.73608
G1 X41.087 Y51.242 E3.7544
G1 X40.716 Y50.364 E3.77262
G1 X40.458 Y49.446 E3.79086
G1 X40.317 Y48.506 E3.80904
G1 X40.295 Y47.551 E3.82731
G1 X40.393 Y46.6 E3.84559
G1 X40.609 Y45.671 E3.86383
G1 X40.941 Y44.776 E3.88209
G1 X41.383 Y43.929 E3.90036
G1 X41.927 Y43.145 E3.91861
G1 X42.562 Y42.437 E3.9368
M205 X30 Y30
G0 F3600 X42.854 Y42.711
M205 X15 Y15
G1 F1500 X43.539 Y42.12 E3.9541
G1 X44.289 Y41.622 E3.97132
G1 X45.105 Y41.218 E3.98873
G1 X45.96 Y40.923 E4.00603
G1 X46.841 Y40.737 E4.02325
G1 X47.74 Y40.661 E4.0405
G1 X48.011 Y40.661 E4.04569
G1 X48.636 Y40.698 E4.05766
G1 X49.537 Y40.851 E4.07514
G1 X50.4 Y41.112 E4.09238
G1 X51.225 Y41.48 E4.10966
G1 X52.001 Y41.952 E4.12703
G1 X52.703 Y42.509 E4.14417
G1 X53.34 Y43.163 E4.16163
G1 X53.881 Y43.876 E4.17874
G1 X54.334 Y44.663 E4.19611
G1 X54.684 Y45.496 E4.21339
G1 X54.926 Y46.366 E4.23066
G1 X55.057 Y47.257 E4.24788
G1 X55.076 Y48.161 E4.26517
G1 X54.981 Y49.063 E4.28252
G1 X54.774 Y49.942 E4.29979
G1 X54.458 Y50.789 E4.31708
G1 X54.038 Y51.591 E4.33439
G1 X53.52 Y52.332 E4.35168
G1 X52.917 Y53.001 E4.36891
G1 X52.229 Y53.593 E4.38627
G1 X51.481 Y54.089 E4.40343
G1 X50.668 Y54.493 E4.42079
G1 X49.811 Y54.789 E4.43813
G1 X48.927 Y54.975 E4.45541
G1 X48.033 Y55.05 E4.47257
G1 X47.131 Y55.013 E4.48983
G1 X46.237 Y54.862 E4.50717
G1 X45.374 Y54.601 E4.52441
G1 X44.542 Y54.229 E4.54184
G1 X43.773 Y53.762 E4.55905
G1 X43.066 Y53.201 E4.57631
G1 X42.431 Y52.549 E4.59372
G1 X41.89 Y51.836 E4.61083
G1 X41.437 Y51.049 E4.6282
G1 X41.087 Y50.216 E4.64548
G1 X40.845 Y49.346 E4.66275
G1 X40.714 Y48.455 E4.67997
G1 X40.695 Y47.551 E4.69727
G1 X40.79 Y46.649 E4.71461
G1 X40.997 Y45.77 E4.73188
G1 X41.313 Y44.923 E4.74917
G1 X41.733 Y44.121 E4.76648
G1 X42.251 Y43.38 E4.78377
G1 X42.854 Y42.711 E4.801
M205 X30 Y30
G0 F3600 X43.146 Y42.984
M205 X15 Y15
G1 F1500 X43.794 Y42.428 E4.81733
G1 X44.504 Y41.959 E4.8336
G1 X45.276 Y41.58 E4.85005
G1 X46.083 Y41.303 E4.86637
G1 X46.916 Y41.129 E4.88264
G1 X47.766 Y41.061 E4.89895
G1 X48.612 Y41.097 E4.91514
G1 X49.463 Y41.244 E4.93166
G1 X50.277 Y41.492 E4.94793
G1 X51.055 Y41.842 E4.96425
G1 X51.786 Y42.29 E4.98065
G1 X52.449 Y42.818 E4.99685
G1 X53.049 Y43.436 E5.01333
G1 X53.558 Y44.112 E5.02951
G1 X53.984 Y44.856 E5.04591
G1 X54.312 Y45.643 E5.06221
G1 X54.538 Y46.465 E5.07852
G1 X54.66 Y47.308 E5.09481
G1 X54.676 Y48.162 E5.11114
G1 X54.584 Y49.014 E5.12753
G1 X54.387 Y49.843 E5.14383
G1 X54.086 Y50.642 E5.16016
G1 X53.687 Y51.398 E5.1765
G1 X53.197 Y52.097 E5.19283
G1 X52.625 Y52.728 E5.20912
G1 X51.974 Y53.285 E5.2255
G1 X51.266 Y53.752 E5.24172
G1 X50.497 Y54.131 E5.25812
G1 X49.688 Y54.409 E5.27448
G1 X48.852 Y54.582 E5.29081
G1 X48.007 Y54.651 E5.30702
G1 X47.156 Y54.614 E5.32331
G1 X46.311 Y54.469 E5.33971
G1 X45.497 Y54.221 E5.35598
G1 X44.713 Y53.867 E5.37243
G1 X43.987 Y53.424 E5.3887
G1 X43.321 Y52.893 E5.40499
G1 X42.722 Y52.276 E5.42143
G1 X42.213 Y51.6 E5.43762
G1 X41.787 Y50.856 E5.45401
G1 X41.459 Y50.069 E5.47032
G1 X41.233 Y49.247 E5.48662
G1 X41.111 Y48.404 E5.50291
G1 X41.095 Y47.55 E5.51925
G1 X41.187 Y46.698 E5.53564
G1 X41.384 Y45.869 E5.55193
G1 X41.685 Y45.07 E5.56826
G1 X42.084 Y44.314 E5.58461
G1 X42.574 Y43.615 E5.60093
G1 X43.146 Y42.984 E5.61722
M205 X30 Y30
G0 F3600 X43.438 Y43.257
M205 X15 Y15
G1 F1500 X44.049 Y42.736 E5.63258
G1 X44.719 Y42.297 E5.6479
G1 X45.446 Y41.942 E5.66337
G1 X46.206 Y41.684 E5.67872
G1 X46.992 Y41.522 E5.69407
G1 X47.792 Y41.46 E5.70941
G1 X48.589 Y41.496 E5.72467
G1 X49.388 Y41.637 E5.74019
G1 X50.154 Y41.873 E5.75552
G1 X50.884 Y42.204 E5.77084
G1 X51.572 Y42.627 E5.78629
G1 X52.194 Y43.127 E5.80155
G1 X52.757 Y43.71 E5.81705
G1 X53.234 Y44.347 E5.83227
G1 X53.633 Y45.049 E5.84771
G1 X53.94 Y45.791 E5.86307
G1 X54.151 Y46.565 E5.87841
G1 X54.264 Y47.359 E5.89375
G1 X54.276 Y48.163 E5.90913
G1 X54.187 Y48.964 E5.92454
G1 X53.999 Y49.743 E5.93987
G1 X53.714 Y50.495 E5.95525
G1 X53.336 Y51.206 E5.97065
G1 X52.873 Y51.861 E5.98599
G1 X52.333 Y52.455 E6.00134
G1 X51.719 Y52.977 E6.01675
G1 X51.051 Y53.415 E6.03203
G1 X50.326 Y53.77 E6.04747
G1 X49.565 Y54.028 E6.06284
G1 X48.777 Y54.189 E6.07822
G1 X47.98 Y54.252 E6.09351
G1 X47.18 Y54.214 E6.10882
G1 X46.385 Y54.076 E6.12426
G1 X45.62 Y53.84 E6.13957
G1 X44.883 Y53.505 E6.15505
G1 X44.2 Y53.086 E6.17037
G1 X43.576 Y52.585 E6.18568
G1 X43.014 Y52.002 E6.20116
G1 X42.537 Y51.365 E6.21638
G1 X42.138 Y50.663 E6.23183
G1 X41.831 Y49.921 E6.24718
G1 X41.62 Y49.147 E6.26253
G1 X41.507 Y48.353 E6.27786
G1 X41.495 Y47.549 E6.29324
G1 X41.584 Y46.748 E6.30865
G1 X41.772 Y45.969 E6.32398
G1 X42.057 Y45.217 E6.33936
G1 X42.435 Y44.506 E6.35476
G1 X42.898 Y43.851 E6.3701
G1 X43.438 Y43.257 E6.38545
M205 X30 Y30
G0 F3600 X43.731 Y43.53
M205 X15 Y15
G1 F1500 X44.304 Y43.045 E6.39981
G1 X44.934 Y42.634 E6.4142
G1 X45.617 Y42.303 E6.42871
G1 X46.329 Y42.064 E6.44307
G1 X47.067 Y41.915 E6.45747
G1 X47.817 Y41.859 E6.47186
G1 X48.565 Y41.896 E6.48618
G1 X49.313 Y42.03 E6.50071
G1 X50.031 Y42.253 E6.51509
G1 X50.714 Y42.566 E6.52946
G1 X51.357 Y42.965 E6.54393
G1 X51.94 Y43.435 E6.55825
G1 X52.465 Y43.983 E6.57277
G1 X52.911 Y44.583 E6.58706
G1 X53.283 Y45.242 E6.60154
G1 X53.568 Y45.939 E6.61594
G1 X53.763 Y46.665 E6.63031
G1 X53.867 Y47.41 E6.6447
G1 X53.876 Y48.163 E6.6591
G1 X53.79 Y48.915 E6.67358
G1 X53.612 Y49.644 E6.68793
G1 X53.342 Y50.348 E6.70235
G1 X52.986 Y51.013 E6.71677
G1 X52.55 Y51.626 E6.73116
G1 X52.04 Y52.182 E6.74559
G1 X51.465 Y52.668 E6.75999
G1 X50.836 Y53.077 E6.77434
G1 X50.155 Y53.408 E6.78882
G1 X49.442 Y53.648 E6.8032
G1 X48.702 Y53.796 E6.81764
G1 X47.954 Y53.853 E6.83198
G1 X47.204 Y53.815 E6.84635
G1 X46.46 Y53.683 E6.8608
G1 X45.743 Y53.46 E6.87516
G1 X45.054 Y53.144 E6.88965
G1 X44.414 Y52.748 E6.90405
G1 X43.83 Y52.276 E6.91841
G1 X43.306 Y51.729 E6.93289
G1 X42.86 Y51.129 E6.94719
G1 X42.488 Y50.47 E6.96166
G1 X42.203 Y49.773 E6.97606
G1 X42.008 Y49.047 E6.99044
G1 X41.904 Y48.302 E7.00483
G1 X41.895 Y47.549 E7.01923
G1 X41.981 Y46.797 E7.0337
G1 X42.159 Y46.068 E7.04806
G1 X42.429 Y45.364 E7.06248
G1 X42.785 Y44.699 E7.0769
G1 X43.221 Y44.086 E7.09129
G1 X43.731 Y43.53 E7.10572
M205 X30 Y30
G0 F3600 X44.023 Y43.803
M205 X15 Y15
G1 F1500 X44.559 Y43.353 E7.1191
G1 X45.149 Y42.971 E7.13254
G1 X45.787 Y42.665 E7.14608
G1 X46.452 Y42.445 E7.15947
G1 X47.143 Y42.308 E7.17294
G1 X47.843 Y42.258 E7.18636
G1 X48.541 Y42.295 E7.19973
G1 X49.238 Y42.423 E7.21329
G1 X49.908 Y42.634 E7.22672
G1 X50.544 Y42.928 E7.24012
G1 X51.143 Y43.303 E7.25363
G1 X51.686 Y43.744 E7.26701
G1 X52.173 Y44.257 E7.28054
G1 X52.588 Y44.819 E7.2939
G1 X52.933 Y45.435 E7.3074
G1 X53.197 Y46.086 E7.32084
G1 X53.376 Y46.764 E7.33425
G1 X53.47 Y47.461 E7.3477
G1 X53.476 Y48.164 E7.36114
G1 X53.393 Y48.865 E7.37464
G1 X53.224 Y49.545 E7.38805
G1 X52.97 Y50.201 E7.4015
G1 X52.635 Y50.821 E7.41498
G1 X52.226 Y51.391 E7.42839
G1 X51.748 Y51.909 E7.44187
G1 X51.21 Y52.36 E7.4553
G1 X50.621 Y52.74 E7.4687
G1 X49.984 Y53.046 E7.48222
G1 X49.319 Y53.267 E7.49562
G1 X48.627 Y53.403 E7.50911
G1 X47.928 Y53.454 E7.52251
G1 X47.229 Y53.416 E7.5359
G1 X46.534 Y53.29 E7.54941
G1 X45.866 Y53.079 E7.56281
G1 X45.224 Y52.782 E7.57633
G1 X44.628 Y52.41 E7.58977
G1 X44.085 Y51.968 E7.60316
G1 X43.598 Y51.455 E7.61669
G1 X43.183 Y50.893 E7.63005
G1 X42.838 Y50.277 E7.64355
G1 X42.574 Y49.626 E7.65699
G1 X42.395 Y48.948 E7.6704
G1 X42.301 Y48.251 E7.68385
G1 X42.295 Y47.548 E7.69729
G1 X42.378 Y46.847 E7.71079
G1 X42.547 Y46.167 E7.72419
G1 X42.801 Y45.511 E7.73765
G1 X43.136 Y44.891 E7.75112
G1 X43.545 Y44.321 E7.76454
G1 X44.023 Y43.803 E7.77802
M205 X30 Y30
G0 F3600 X44.315 Y44.076
M205 X15 Y15
G1 F1500 X44.814 Y43.661 E7.79043
G1 X45.364 Y43.308 E7.80293
G1 X45.958 Y43.027 E7.8155
G1 X46.575 Y42.826 E7.82791
G1 X47.218 Y42.701 E7.84044
G1 X47.868 Y42.657 E7.85289
G1 X48.518 Y42.694 E7.86535
G1 X49.163 Y42.816 E7.8779
G1 X49.785 Y43.015 E7.89039
G1 X50.374 Y43.29 E7.90282
G1 X50.928 Y43.64 E7.91535
G1 X51.431 Y44.053 E7.9278
G1 X51.881 Y44.53 E7.94034
G1 X52.265 Y45.054 E7.95277
G1 X52.582 Y45.628 E7.96531
G1 X52.825 Y46.234 E7.97779
G1 X52.989 Y46.864 E7.99024
G1 X53.073 Y47.512 E8.00274
G1 X53.076 Y48.165 E8.01523
G1 X52.996 Y48.816 E8.02777
G1 X52.837 Y49.446 E8.0402
G1 X52.598 Y50.054 E8.05269
G1 X52.284 Y50.628 E8.0652
G1 X51.903 Y51.156 E8.07766
G1 X51.456 Y51.636 E8.0902
G1 X50.955 Y52.051 E8.10264
G1 X50.406 Y52.403 E8.11511
G1 X49.813 Y52.685 E8.12767
G1 X49.196 Y52.886 E8.14008
G1 X48.552 Y53.01 E8.15262
G1 X47.902 Y53.055 E8.16509
G1 X47.253 Y53.017 E8.17752
G1 X46.608 Y52.897 E8.19007
G1 X45.989 Y52.698 E8.2025
G1 X45.395 Y52.42 E8.21504
G1 X44.842 Y52.072 E8.22754
G1 X44.34 Y51.659 E8.23997
G1 X43.89 Y51.182 E8.25251
G1 X43.506 Y50.658 E8.26494
G1 X43.189 Y50.084 E8.27748
G1 X42.946 Y49.478 E8.28996
G1 X42.782 Y48.848 E8.30241
G1 X42.698 Y48.2 E8.31491
G1 X42.695 Y47.547 E8.3274
G1 X42.775 Y46.896 E8.33994
G1 X42.934 Y46.266 E8.35237
G1 X43.173 Y45.658 E8.36486
G1 X43.487 Y45.084 E8.37737
G1 X43.868 Y44.556 E8.38983
G1 X44.315 Y44.076 E8.40237
M205 X30 Y30
G1 F1200 E4.90237
G1 F120 Z1.1
;MESH:support-ptfe-F.STL
G0 F3600 X49.072 Y43.204 Z1.1
M205 X15 Y15
;TYPE:WALL-OUTER
G1 F120 Z0.1
G1 F1200 E8.40237
G1 F1500 X49.648 Y43.391 E8.41395
G1 X50.193 Y43.647 E8.42547
G1 X50.705 Y43.972 E8.43707
G1 X51.165 Y44.351 E8.44846
