;FLAVOR:Marlin
;TIME:337
;Filament used: 0.156507m
;Layer height: 0.15
;MINX:97.705
;MINY:112.202
;MINZ:0.1
;MAXX:115.282
;MAXY:129.792
;MAXZ:10
;Generated with Cura_SteamEngine 4.5.0
M140 S69
M105
M190 S69
M82 ;absolute extrusion mode
;Gcode by Cura
G90
M106 S255
G28 X Y
M109 R195
G28
M104 S195
G29
M107
G1 X100 Y10 F3000
G1 Z0.5
M109 S195
M82
G92 E0
G1 F200 E10
G92 E0
G1 Z3
G1 X120 Y10
G1 Z0.5
G92 E0
G1 F200 E10
G92 E0
G1 Z3
G1 F6000
G92 E0
G92 E0
G1 F1200 E-3.5
;LAYER_COUNT:67
;LAYER:0
M106 S255
M205 X30 Y30
G1 F120 Z1.1
G0 F3600 X100.377 Y114.684 Z1.1
M205 X15 Y15
;TYPE:SKIRT
G1 F120 Z0.1
G1 F1200 E0
G1 F1500 X101.16 Y114.012 E0.01973
G1 X101.968 Y113.462 E0.03843
G1 X102.872 Y112.988 E0.05795
G1 X103.805 Y112.628 E0.07707
G1 X104.763 Y112.377 E0.09601
G1 X105.778 Y112.234 E0.11562
G1 X106.368 Y112.202 E0.12692
G1 X107.664 Y112.284 E0.15175
G1 X108.215 Y112.371 E0.16242
G1 X108.769 Y112.501 E0.1733
G1 X109.708 Y112.809 E0.1922
G1 X110.622 Y113.229 E0.21144
G1 X111.489 Y113.756 E0.23084
G1 X112.271 Y114.361 E0.24975
G1 X113 Y115.073 E0.26924
G1 X113.628 Y115.846 E0.28829
G1 X114.171 Y116.696 E0.30758
G1 X114.61 Y117.595 E0.32671
G1 X114.947 Y118.55 E0.34608
G1 X115.169 Y119.513 E0.36498
G1 X115.282 Y120.516 E0.38428
G1 X115.282 Y121.513 E0.40335
G1 X115.164 Y122.524 E0.42281
G1 X114.931 Y123.506 E0.44212
G1 X114.595 Y124.44 E0.4611
G1 X114.151 Y125.341 E0.48031
G1 X113.601 Y126.191 E0.49967
G1 X112.968 Y126.962 E0.51875
G1 X112.241 Y127.664 E0.53808
G1 X111.446 Y128.274 E0.55724
G1 X110.584 Y128.791 E0.57646
G1 X109.67 Y129.205 E0.59565
G1 X108.713 Y129.512 E0.61487
G1 X107.727 Y129.709 E0.6341
G1 X106.734 Y129.792 E0.65316
G1 X105.731 Y129.762 E0.67235
G1 X104.736 Y129.618 E0.69158
G1 X103.762 Y129.36 E0.71085
G1 X102.821 Y128.991 E0.73018
G1 X101.938 Y128.521 E0.74931
G1 X101.111 Y127.952 E0.76851
G1 X100.354 Y127.293 E0.7877
G1 X99.674 Y126.548 E0.80699
G1 X99.089 Y125.738 E0.8261
G1 X98.594 Y124.853 E0.84549
G1 X98.209 Y123.934 E0.86455
G1 X97.93 Y122.978 E0.88359
G1 X97.759 Y121.978 E0.903
G1 X97.705 Y120.978 E0.92215
G1 X97.763 Y119.983 E0.94121
G1 X97.938 Y118.985 E0.96059
G1 X98.219 Y118.031 E0.97961
G1 X98.617 Y117.096 E0.99904
G1 X99.111 Y116.227 E1.01816
G1 X99.705 Y115.415 E1.0374
G1 X100.377 Y114.684 E1.05639
M205 X30 Y30
G0 F3600 X100.665 Y114.962
M205 X15 Y15
G1 F1500 X101.412 Y114.322 E1.0752
G1 X102.185 Y113.797 E1.09307
G1 X103.048 Y113.347 E1.11168
G1 X103.94 Y113.005 E1.12995
G1 X104.855 Y112.767 E1.14804
G1 X105.824 Y112.632 E1.16675
G1 X106.382 Y112.602 E1.17743
G1 X107.631 Y112.683 E1.20137
G1 X108.678 Y112.891 E1.22178
G1 X109.575 Y113.187 E1.23985
G1 X110.446 Y113.588 E1.25819
G1 X111.272 Y114.092 E1.27669
G1 X112.019 Y114.672 E1.29478
G1 X112.713 Y115.352 E1.31336
G1 X113.312 Y116.091 E1.33155
G1 X113.829 Y116.903 E1.34996
G1 X114.247 Y117.762 E1.36823
G1 X114.566 Y118.674 E1.38671
G1 X114.777 Y119.594 E1.40476
G1 X114.884 Y120.551 E1.42318
G1 X114.882 Y121.503 E1.44139
G1 X114.768 Y122.468 E1.45997
G1 X114.545 Y123.404 E1.47837
G1 X114.222 Y124.296 E1.49651
G1 X113.797 Y125.155 E1.51484
G1 X113.271 Y125.965 E1.53331
G1 X112.665 Y126.701 E1.55155
G1 X111.97 Y127.37 E1.56999
G1 X111.211 Y127.951 E1.58828
G1 X110.387 Y128.442 E1.60662
G1 X109.514 Y128.836 E1.62494
G1 X108.6 Y129.129 E1.64329
G1 X107.658 Y129.315 E1.66166
G1 X106.71 Y129.393 E1.67985
G1 X105.753 Y129.363 E1.69816
G1 X104.803 Y129.224 E1.71652
G1 X103.874 Y128.976 E1.73491
G1 X102.977 Y128.622 E1.75335
G1 X102.135 Y128.173 E1.7716
G1 X101.346 Y127.629 E1.78993
G1 X100.624 Y126.998 E1.80827
G1 X99.976 Y126.286 E1.82668
G1 X99.419 Y125.512 E1.84492
G1 X98.948 Y124.666 E1.86343
G1 X98.581 Y123.788 E1.88163
G1 X98.316 Y122.875 E1.89981
G1 X98.155 Y121.921 E1.91832
G1 X98.105 Y120.967 E1.93659
G1 X98.162 Y120.016 E1.95481
G1 X98.33 Y119.064 E1.9733
G1 X98.6 Y118.154 E1.99145
G1 X98.981 Y117.262 E2.01
G1 X99.454 Y116.433 E2.02825
G1 X100.022 Y115.659 E2.04661
G1 X100.665 Y114.962 E2.06475
M205 X30 Y30
G0 F3600 X100.953 Y115.239
M205 X15 Y15
G1 F1500 X101.664 Y114.632 E2.08263
G1 X102.403 Y114.133 E2.09968
G1 X103.224 Y113.706 E2.11738
G1 X104.075 Y113.382 E2.13479
G1 X104.947 Y113.156 E2.15202
G1 X105.869 Y113.029 E2.16982
G1 X106.396 Y113.002 E2.17991
G1 X107.597 Y113.081 E2.20293
G1 X108.586 Y113.28 E2.22222
G1 X109.441 Y113.564 E2.23945
G1 X110.27 Y113.947 E2.25692
G1 X111.056 Y114.428 E2.27454
G1 X111.767 Y114.982 E2.29178
G1 X112.426 Y115.631 E2.30947
G1 X112.995 Y116.336 E2.32679
G1 X113.486 Y117.11 E2.34432
G1 X113.883 Y117.928 E2.36171
G1 X114.186 Y118.797 E2.37931
G1 X114.385 Y119.674 E2.39651
G1 X114.485 Y120.586 E2.41406
G1 X114.482 Y121.494 E2.43142
G1 X114.372 Y122.411 E2.44909
G1 X114.158 Y123.302 E2.46661
G1 X113.849 Y124.152 E2.48391
G1 X113.442 Y124.969 E2.50136
G1 X112.94 Y125.74 E2.51896
G1 X112.362 Y126.439 E2.53631
G1 X111.699 Y127.075 E2.55388
G1 X110.975 Y127.627 E2.57129
G1 X110.19 Y128.094 E2.58876
G1 X109.358 Y128.468 E2.6062
G1 X108.487 Y128.745 E2.62368
G1 X107.59 Y128.921 E2.64116
G1 X106.686 Y128.994 E2.65851
G1 X105.775 Y128.964 E2.67594
G1 X104.871 Y128.829 E2.69342
G1 X103.986 Y128.592 E2.71094
G1 X103.132 Y128.254 E2.72851
G1 X102.331 Y127.824 E2.74589
G1 X101.581 Y127.305 E2.76334
G1 X100.894 Y126.702 E2.78082
G1 X100.278 Y126.024 E2.79834
G1 X99.749 Y125.286 E2.8157
G1 X99.302 Y124.48 E2.83333
G1 X98.954 Y123.642 E2.85068
G1 X98.703 Y122.772 E2.868
G1 X98.551 Y121.863 E2.88562
G1 X98.504 Y120.955 E2.90301
G1 X98.56 Y120.049 E2.92037
G1 X98.722 Y119.143 E2.93797
G1 X98.981 Y118.276 E2.95528
G1 X99.345 Y117.428 E2.97293
G1 X99.797 Y116.639 E2.99032
G1 X100.339 Y115.903 E3.0078
G1 X100.953 Y115.239 E3.02509
M205 X30 Y30
G0 F3600 X101.241 Y115.517
M205 X15 Y15
G1 F1500 X101.917 Y114.943 E3.04205
G1 X102.62 Y114.469 E3.05827
G1 X103.401 Y114.065 E3.07509
G1 X104.21 Y113.758 E3.09163
G1 X105.04 Y113.545 E3.10802
G1 X105.914 Y113.427 E3.12489
G1 X106.409 Y113.402 E3.13437
G1 X107.564 Y113.48 E3.15651
G1 X108.495 Y113.67 E3.17468
G1 X109.308 Y113.941 E3.19107
G1 X110.095 Y114.307 E3.20767
G1 X110.839 Y114.765 E3.22438
G1 X111.515 Y115.293 E3.24078
G1 X112.139 Y115.909 E3.25755
G1 X112.679 Y116.581 E3.27404
G1 X113.144 Y117.316 E3.29067
G1 X113.519 Y118.095 E3.3072
G1 X113.805 Y118.92 E3.3239
G1 X113.993 Y119.755 E3.34027
G1 X114.087 Y120.621 E3.35693
G1 X114.082 Y121.484 E3.37343
G1 X113.976 Y122.355 E3.39022
G1 X113.771 Y123.2 E3.40684
G1 X113.476 Y124.007 E3.42328
G1 X113.088 Y124.783 E3.43987
G1 X112.61 Y125.514 E3.45657
G1 X112.059 Y126.178 E3.47307
G1 X111.429 Y126.781 E3.48975
G1 X110.739 Y127.304 E3.50631
G1 X109.993 Y127.746 E3.52289
G1 X109.202 Y128.1 E3.53947
G1 X108.374 Y128.361 E3.55607
G1 X107.521 Y128.527 E3.57269
G1 X106.662 Y128.594 E3.58917
G1 X105.797 Y128.564 E3.60572
G1 X104.938 Y128.435 E3.62233
G1 X104.098 Y128.208 E3.63897
G1 X103.288 Y127.885 E3.65565
G1 X102.527 Y127.476 E3.67217
G1 X101.816 Y126.981 E3.68874
G1 X101.164 Y126.407 E3.70535
G1 X100.581 Y125.761 E3.722
G1 X100.079 Y125.06 E3.73849
G1 X99.656 Y124.294 E3.75522
G1 X99.327 Y123.497 E3.77171
G1 X99.089 Y122.669 E3.78819
G1 X98.947 Y121.806 E3.80491
G1 X98.904 Y120.943 E3.82144
G1 X98.959 Y120.082 E3.83794
G1 X99.114 Y119.222 E3.85465
G1 X99.361 Y118.398 E3.8711
G1 X99.709 Y117.594 E3.88786
G1 X100.14 Y116.845 E3.90438
G1 X100.656 Y116.147 E3.92098
G1 X101.241 Y115.517 E3.93742
M205 X30 Y30
G0 F3600 X101.529 Y115.794
M205 X15 Y15
G1 F1500 X102.169 Y115.253 E3.95345
G1 X102.838 Y114.805 E3.96885
G1 X103.577 Y114.424 E3.98475
G1 X104.344 Y114.135 E4.00043
G1 X105.132 Y113.934 E4.01598
G1 X105.96 Y113.824 E4.03195
G1 X106.423 Y113.801 E4.04082
G1 X107.531 Y113.879 E4.06206
G1 X108.404 Y114.059 E4.07911
G1 X109.175 Y114.318 E4.09466
G1 X109.919 Y114.666 E4.11037
G1 X110.623 Y115.101 E4.1262
G1 X111.263 Y115.603 E4.14175
G1 X111.852 Y116.188 E4.15763
G1 X112.363 Y116.826 E4.17326
G1 X112.801 Y117.523 E4.18901
G1 X113.156 Y118.262 E4.20468
G1 X113.425 Y119.044 E4.2205
G1 X113.602 Y119.836 E4.23602
G1 X113.689 Y120.656 E4.25179
G1 X113.682 Y121.474 E4.26743
G1 X113.58 Y122.298 E4.28331
G1 X113.384 Y123.098 E4.29907
G1 X113.103 Y123.863 E4.31465
G1 X112.734 Y124.597 E4.33036
G1 X112.28 Y125.289 E4.34619
G1 X111.756 Y125.916 E4.36182
G1 X111.158 Y126.487 E4.37763
G1 X110.504 Y126.981 E4.39331
G1 X109.796 Y127.398 E4.40902
G1 X109.046 Y127.731 E4.42471
G1 X108.261 Y127.977 E4.44045
G1 X107.453 Y128.133 E4.45619
G1 X106.638 Y128.195 E4.47182
G1 X105.818 Y128.165 E4.48751
G1 X105.005 Y128.041 E4.50324
G1 X104.209 Y127.824 E4.51902
G1 X103.444 Y127.517 E4.53478
G1 X102.724 Y127.128 E4.55043
G1 X102.051 Y126.657 E4.56614
G1 X101.434 Y126.112 E4.58189
G1 X100.883 Y125.499 E4.59765
G1 X100.409 Y124.833 E4.61328
G1 X100.009 Y124.107 E4.62913
G1 X99.699 Y123.351 E4.64476
G1 X99.476 Y122.566 E4.66037
G1 X99.343 Y121.749 E4.6762
G1 X99.304 Y120.931 E4.69186
G1 X99.357 Y120.115 E4.7075
G1 X99.506 Y119.301 E4.72332
G1 X99.742 Y118.521 E4.73891
G1 X100.073 Y117.76 E4.75478
G1 X100.483 Y117.051 E4.77044
G1 X100.973 Y116.391 E4.78616
G1 X101.529 Y115.794 E4.80177
M205 X30 Y30
G0 F3600 X101.817 Y116.072
M205 X15 Y15
G1 F1500 X102.421 Y115.563 E4.81687
G1 X103.055 Y115.14 E4.83145
G1 X103.753 Y114.783 E4.84644
G1 X104.479 Y114.511 E4.86127
G1 X105.224 Y114.323 E4.87596
G1 X106.005 Y114.222 E4.89102
G1 X106.437 Y114.201 E4.8993
G1 X107.497 Y114.277 E4.91962
G1 X108.312 Y114.449 E4.93555
G1 X109.041 Y114.695 E4.95026
G1 X109.743 Y115.025 E4.9651
G1 X110.406 Y115.437 E4.98003
G1 X111.011 Y115.914 E4.99476
G1 X111.565 Y116.466 E5.00972
G1 X112.047 Y117.071 E5.02451
G1 X112.459 Y117.73 E5.03937
G1 X112.792 Y118.429 E5.05418
G1 X113.044 Y119.167 E5.0691
G1 X113.21 Y119.917 E5.08379
G1 X113.29 Y120.691 E5.09867
G1 X113.282 Y121.464 E5.11345
G1 X113.184 Y122.242 E5.12845
G1 X112.998 Y122.996 E5.1433
G1 X112.73 Y123.719 E5.15805
G1 X112.38 Y124.411 E5.17288
G1 X111.949 Y125.063 E5.18782
G1 X111.454 Y125.655 E5.20258
G1 X110.887 Y126.192 E5.21752
G1 X110.268 Y126.658 E5.23234
G1 X109.599 Y127.05 E5.24716
G1 X108.89 Y127.363 E5.26199
G1 X108.148 Y127.594 E5.27685
G1 X107.384 Y127.738 E5.29172
G1 X106.614 Y127.796 E5.30648
G1 X105.84 Y127.765 E5.3213
G1 X105.072 Y127.646 E5.33616
G1 X104.321 Y127.44 E5.35105
G1 X103.599 Y127.148 E5.36595
G1 X102.92 Y126.779 E5.38073
G1 X102.285 Y126.333 E5.39557
G1 X101.704 Y125.817 E5.41043
G1 X101.185 Y125.237 E5.42531
G1 X100.739 Y124.607 E5.44008
G1 X100.363 Y123.921 E5.45504
G1 X100.072 Y123.205 E5.46982
G1 X99.862 Y122.464 E5.48455
G1 X99.739 Y121.692 E5.4995
G1 X99.704 Y120.919 E5.5143
G1 X99.756 Y120.148 E5.52908
G1 X99.898 Y119.38 E5.54401
G1 X100.123 Y118.643 E5.55875
G1 X100.437 Y117.926 E5.57372
G1 X100.825 Y117.258 E5.58849
G1 X101.29 Y116.635 E5.60336
G1 X101.817 Y116.072 E5.61811
M205 X30 Y30
G0 F3600 X102.105 Y116.35
M205 X15 Y15
G1 F1500 X102.674 Y115.874 E5.6323
G1 X103.273 Y115.476 E5.64605
G1 X103.93 Y115.142 E5.66014
G1 X104.614 Y114.888 E5.6741
G1 X105.316 Y114.713 E5.68794
G1 X106.05 Y114.619 E5.70209
G1 X106.451 Y114.601 E5.70976
G1 X107.464 Y114.676 E5.72919
G1 X108.221 Y114.838 E5.744
G1 X108.908 Y115.072 E5.75788
G1 X109.567 Y115.384 E5.77182
G1 X110.19 Y115.774 E5.78588
G1 X110.759 Y116.225 E5.79976
G1 X111.278 Y116.745 E5.81381
G1 X111.731 Y117.316 E5.82775
G1 X112.117 Y117.936 E5.84172
G1 X112.429 Y118.595 E5.85566
G1 X112.664 Y119.29 E5.86969
G1 X112.818 Y119.997 E5.88353
G1 X112.892 Y120.726 E5.89755
G1 X112.883 Y121.454 E5.91147
G1 X112.788 Y122.185 E5.92557
G1 X112.611 Y122.894 E5.93954
G1 X112.357 Y123.575 E5.95344
G1 X112.026 Y124.226 E5.96741
G1 X111.619 Y124.838 E5.98147
G1 X111.151 Y125.394 E5.99536
G1 X110.617 Y125.898 E6.00941
G1 X110.033 Y126.334 E6.02335
G1 X109.402 Y126.702 E6.03732
G1 X108.733 Y126.995 E6.05128
G1 X108.035 Y127.21 E6.06525
G1 X107.316 Y127.344 E6.07924
G1 X106.591 Y127.397 E6.09314
G1 X105.862 Y127.366 E6.10709
G1 X105.139 Y127.252 E6.12109
G1 X104.433 Y127.056 E6.13511
G1 X103.755 Y126.78 E6.1491
G1 X103.117 Y126.431 E6.16301
G1 X102.52 Y126.009 E6.17699
G1 X101.974 Y125.522 E6.19099
G1 X101.487 Y124.975 E6.20499
G1 X101.068 Y124.381 E6.21889
G1 X100.717 Y123.734 E6.23297
G1 X100.444 Y123.06 E6.24688
G1 X100.249 Y122.361 E6.26076
G1 X100.134 Y121.634 E6.27483
G1 X100.104 Y120.907 E6.28875
G1 X100.155 Y120.181 E6.30267
G1 X100.291 Y119.459 E6.31672
G1 X100.504 Y118.765 E6.3306
G1 X100.8 Y118.092 E6.34466
G1 X101.168 Y117.464 E6.35858
G1 X101.607 Y116.879 E6.37257
G1 X102.105 Y116.35 E6.38647
M205 X30 Y30
G0 F3600 X102.393 Y116.627
M205 X15 Y15
G1 F1500 X102.926 Y116.184 E6.39972
G1 X103.49 Y115.812 E6.41264
G1 X104.106 Y115.501 E6.42584
G1 X104.749 Y115.265 E6.43894
G1 X105.408 Y115.102 E6.45192
G1 X106.096 Y115.016 E6.46518
G1 X106.465 Y115.001 E6.47224
G1 X107.43 Y115.074 E6.49075
G1 X108.129 Y115.227 E6.50444
G1 X108.774 Y115.449 E6.51748
G1 X109.391 Y115.744 E6.53056
G1 X109.973 Y116.11 E6.54371
G1 X110.507 Y116.535 E6.55676
G1 X110.991 Y117.024 E6.56992
G1 X111.414 Y117.561 E6.58299
G1 X111.774 Y118.143 E6.59608
G1 X112.065 Y118.762 E6.60916
G1 X112.283 Y119.414 E6.62231
G1 X112.426 Y120.078 E6.6353
G1 X112.493 Y120.761 E6.64842
G1 X112.483 Y121.445 E6.66151
G1 X112.392 Y122.128 E6.67468
G1 X112.224 Y122.792 E6.68778
G1 X111.984 Y123.431 E6.70084
G1 X111.671 Y124.04 E6.71393
G1 X111.289 Y124.612 E6.72709
G1 X110.848 Y125.132 E6.74013
G1 X110.346 Y125.603 E6.75329
G1 X109.797 Y126.011 E6.76637
G1 X109.205 Y126.353 E6.77945
G1 X108.577 Y126.627 E6.79255
G1 X107.922 Y126.826 E6.80564
G1 X107.247 Y126.95 E6.81877
G1 X106.567 Y126.997 E6.8318
G1 X105.884 Y126.967 E6.84488
G1 X105.206 Y126.858 E6.85801
G1 X104.545 Y126.672 E6.87114
G1 X103.91 Y126.411 E6.88427
G1 X103.313 Y126.082 E6.89731
G1 X102.755 Y125.686 E6.9104
G1 X102.244 Y125.227 E6.92353
G1 X101.789 Y124.713 E6.93666
G1 X101.398 Y124.155 E6.94969
G1 X101.071 Y123.548 E6.96288
G1 X100.817 Y122.914 E6.97594
G1 X100.636 Y122.258 E6.98895
G1 X100.53 Y121.577 E7.00213
G1 X100.503 Y120.895 E7.01519
G1 X100.553 Y120.214 E7.02825
G1 X100.683 Y119.538 E7.04141
G1 X100.885 Y118.887 E7.05445
G1 X101.164 Y118.259 E7.06759
G1 X101.511 Y117.67 E7.08066
G1 X101.924 Y117.123 E7.09377
G1 X102.393 Y116.627 E7.10683
M205 X30 Y30
G0 F3600 X102.681 Y116.905
M205 X15 Y15
G1 F1500 X103.178 Y116.494 E7.11916
G1 X103.708 Y116.147 E7.13128
G1 X104.282 Y115.86 E7.14355
G1 X104.884 Y115.641 E7.1558
G1 X105.501 Y115.491 E7.16794
G1 X106.141 Y115.414 E7.18027
G1 X106.478 Y115.4 E7.18672
G1 X107.397 Y115.473 E7.20435
G1 X108.038 Y115.617 E7.21692
G1 X108.641 Y115.826 E7.22912
G1 X109.216 Y116.103 E7.24133
G1 X109.757 Y116.446 E7.25358
G1 X110.255 Y116.846 E7.26579
G1 X110.704 Y117.302 E7.27803
G1 X111.098 Y117.806 E7.29027
G1 X111.432 Y118.35 E7.30248
G1 X111.701 Y118.929 E7.31469
G1 X111.903 Y119.537 E7.32694
G1 X112.035 Y120.159 E7.3391
G1 X112.095 Y120.796 E7.35134
G1 X112.083 Y121.435 E7.36356
G1 X111.996 Y122.072 E7.37585
G1 X111.837 Y122.69 E7.38806
G1 X111.611 Y123.286 E7.40025
G1 X111.317 Y123.854 E7.41248
G1 X110.958 Y124.386 E7.42475
G1 X110.545 Y124.871 E7.43694
G1 X110.075 Y125.309 E7.44922
G1 X109.561 Y125.688 E7.46144
G1 X109.008 Y126.005 E7.47363
G1 X108.421 Y126.258 E7.48585
G1 X107.809 Y126.443 E7.49808
G1 X107.179 Y126.556 E7.51032
G1 X106.543 Y126.598 E7.52251
G1 X105.905 Y126.567 E7.53472
G1 X105.273 Y126.463 E7.54697
G1 X104.657 Y126.288 E7.55922
G1 X104.066 Y126.043 E7.57146
G1 X103.509 Y125.734 E7.58364
G1 X102.99 Y125.362 E7.59585
G1 X102.514 Y124.932 E7.60812
G1 X102.091 Y124.45 E7.62038
G1 X101.728 Y123.928 E7.63254
