;FLAVOR:Marlin
;TIME:534
;Filament used: 0.285552m
;Layer height: 0.15
;MINX:99.71
;MINY:29.475
;MINZ:0.1
;MAXX:117.29
;MAXY:47.058
;MAXZ:14.95
;Generated with Cura_SteamEngine 4.5.0
M140 S69
M105
M190 S69
M82 ;absolute extrusion mode
;Gcode by Cura
G90
M106 S255
G28 X Y
M109 R195
G28
M104 S195
G29
M107
G1 X100 Y10 F3000
G1 Z0.5
M109 S195
M82
G92 E0
G1 F200 E10
G92 E0
G1 Z3
G1 X120 Y10
G1 Z0.5
G92 E0
G1 F200 E10
G92 E0
G1 Z3
G1 F6000
G92 E0
G92 E0
G1 F1200 E-3.5
;LAYER_COUNT:100
;LAYER:0
M106 S255
M205 X30 Y30
G1 F120 Z1.1
G0 F3600 X100.062 Y35.784 Z1.1
M205 X15 Y15
;TYPE:SKIRT
G1 F120 Z0.1
G1 F1200 E0
G1 F1500 X100.44 Y34.745 E0.02114
G1 X100.942 Y33.767 E0.04217
G1 X101.571 Y32.85 E0.06343
G1 X102.299 Y32.029 E0.08442
G1 X103.137 Y31.296 E0.10571
G1 X104.044 Y30.684 E0.12664
G1 X105.033 Y30.184 E0.14783
G1 X106.085 Y29.811 E0.16918
G1 X107.151 Y29.577 E0.19005
G1 X108.254 Y29.476 E0.21123
G1 X108.721 Y29.475 E0.22016
G1 X109.346 Y29.512 E0.23214
G1 X110.452 Y29.69 E0.25356
G1 X111.502 Y29.999 E0.27449
G1 X112.523 Y30.445 E0.2958
G1 X113.469 Y31.01 E0.31687
G1 X114.336 Y31.685 E0.33789
G1 X115.123 Y32.48 E0.35928
G1 X115.789 Y33.345 E0.38016
G1 X116.352 Y34.306 E0.40146
G1 X116.785 Y35.316 E0.42248
G1 X117.089 Y36.378 E0.4436
G1 X117.258 Y37.464 E0.46462
G1 X117.29 Y38.57 E0.48578
G1 X117.183 Y39.672 E0.50696
G1 X116.938 Y40.75 E0.5281
G1 X116.56 Y41.789 E0.54924
G1 X116.058 Y42.767 E0.57027
G1 X115.429 Y43.684 E0.59153
G1 X114.701 Y44.505 E0.61252
G1 X113.863 Y45.238 E0.63381
G1 X112.96 Y45.848 E0.65465
G1 X111.962 Y46.353 E0.67604
G1 X110.915 Y46.723 E0.69728
G1 X109.849 Y46.957 E0.71815
G1 X108.746 Y47.058 E0.73933
G1 X107.654 Y47.022 E0.76023
G1 X106.548 Y46.844 E0.78165
G1 X105.495 Y46.534 E0.80265
G1 X104.48 Y46.091 E0.82383
G1 X103.526 Y45.521 E0.84508
G1 X102.664 Y44.849 E0.86598
G1 X101.877 Y44.054 E0.88738
G1 X101.211 Y43.189 E0.90825
G1 X100.648 Y42.228 E0.92956
G1 X100.215 Y41.218 E0.95057
G1 X99.911 Y40.156 E0.9717
G1 X99.742 Y39.07 E0.99272
G1 X99.71 Y37.964 E1.01388
G1 X99.817 Y36.862 E1.03505
G1 X100.062 Y35.784 E1.05619
M205 X30 Y30
G0 F3600 X100.449 Y35.883
M205 X15 Y15
G1 F1500 X100.812 Y34.892 E1.07638
G1 X101.293 Y33.959 E1.09645
G1 X101.894 Y33.085 E1.11674
G1 X102.591 Y32.302 E1.13679
G1 X103.392 Y31.604 E1.1571
G1 X104.259 Y31.021 E1.17709
G1 X105.204 Y30.545 E1.19732
G1 X106.208 Y30.191 E1.21768
G1 X107.227 Y29.969 E1.23763
G1 X108.279 Y29.875 E1.25783
G1 X108.697 Y29.874 E1.26582
G1 X109.322 Y29.911 E1.27779
G1 X110.377 Y30.083 E1.29824
G1 X111.379 Y30.379 E1.31822
G1 X112.353 Y30.807 E1.33856
G1 X113.255 Y31.348 E1.35868
G1 X114.081 Y31.994 E1.37873
G1 X114.831 Y32.753 E1.39914
G1 X115.466 Y33.581 E1.4191
G1 X116.002 Y34.499 E1.43943
G1 X116.413 Y35.464 E1.45949
G1 X116.702 Y36.477 E1.47963
G1 X116.861 Y37.515 E1.49971
G1 X116.89 Y38.571 E1.51992
G1 X116.786 Y39.622 E1.54012
G1 X116.551 Y40.651 E1.5603
G1 X116.188 Y41.642 E1.58049
G1 X115.707 Y42.575 E1.60056
G1 X115.106 Y43.449 E1.62085
G1 X114.409 Y44.232 E1.64089
G1 X113.608 Y44.93 E1.66121
G1 X112.745 Y45.511 E1.68111
G1 X111.792 Y45.991 E1.70152
G1 X110.792 Y46.343 E1.72179
G1 X109.773 Y46.565 E1.74174
G1 X108.721 Y46.659 E1.76194
G1 X107.678 Y46.623 E1.78189
G1 X106.623 Y46.451 E1.80234
G1 X105.618 Y46.154 E1.82238
G1 X104.65 Y45.729 E1.8426
G1 X103.741 Y45.184 E1.86287
G1 X102.919 Y44.54 E1.88284
G1 X102.169 Y43.781 E1.90324
G1 X101.534 Y42.953 E1.9232
G1 X100.998 Y42.035 E1.94353
G1 X100.587 Y41.07 E1.96359
G1 X100.298 Y40.057 E1.98373
G1 X100.139 Y39.019 E2.00382
G1 X100.11 Y37.963 E2.02402
G1 X100.214 Y36.912 E2.04422
G1 X100.449 Y35.883 E2.0644
M205 X30 Y30
G0 F3600 X100.837 Y35.982
M205 X15 Y15
G1 F1500 X101.184 Y35.04 E2.0836
G1 X101.644 Y34.151 E2.10275
G1 X102.218 Y33.32 E2.12206
G1 X102.884 Y32.575 E2.14117
G1 X103.647 Y31.913 E2.16049
G1 X104.474 Y31.359 E2.17953
G1 X105.375 Y30.907 E2.19881
G1 X106.331 Y30.572 E2.21818
G1 X107.303 Y30.362 E2.2372
G1 X108.305 Y30.274 E2.25643
G1 X108.673 Y30.273 E2.26347
G1 X109.298 Y30.31 E2.27545
G1 X110.302 Y30.476 E2.29491
G1 X111.256 Y30.76 E2.31394
G1 X112.182 Y31.169 E2.3333
G1 X113.041 Y31.686 E2.35248
G1 X113.827 Y32.303 E2.37159
G1 X114.539 Y33.027 E2.39101
G1 X115.143 Y33.816 E2.41001
G1 X115.651 Y34.691 E2.42936
G1 X116.041 Y35.611 E2.44847
G1 X116.314 Y36.577 E2.46767
G1 X116.465 Y37.566 E2.4868
G1 X116.49 Y38.571 E2.50603
G1 X116.389 Y39.573 E2.52529
G1 X116.163 Y40.552 E2.5445
G1 X115.816 Y41.494 E2.5637
G1 X115.356 Y42.383 E2.58284
G1 X114.782 Y43.214 E2.60216
G1 X114.116 Y43.959 E2.62127
G1 X113.353 Y44.621 E2.64059
G1 X112.529 Y45.174 E2.65957
G1 X111.622 Y45.629 E2.67897
G1 X110.669 Y45.962 E2.69828
G1 X109.697 Y46.172 E2.7173
G1 X108.695 Y46.26 E2.73654
G1 X107.702 Y46.224 E2.75554
G1 X106.698 Y46.058 E2.775
G1 X105.741 Y45.773 E2.7941
G1 X104.82 Y45.367 E2.81335
G1 X103.955 Y44.846 E2.83266
G1 X103.173 Y44.231 E2.85168
G1 X102.461 Y43.507 E2.8711
G1 X101.857 Y42.718 E2.89011
G1 X101.349 Y41.843 E2.90946
G1 X100.959 Y40.923 E2.92857
G1 X100.686 Y39.957 E2.94777
G1 X100.535 Y38.968 E2.9669
G1 X100.51 Y37.963 E2.98612
G1 X100.611 Y36.961 E3.00538
G1 X100.837 Y35.982 E3.0246
M205 X30 Y30
G0 F3600 X101.224 Y36.082
M205 X15 Y15
G1 F1500 X101.556 Y35.187 E3.04286
G1 X101.995 Y34.343 E3.06105
G1 X102.541 Y33.556 E3.07937
G1 X103.176 Y32.848 E3.09756
G1 X103.902 Y32.221 E3.1159
G1 X104.689 Y31.696 E3.134
G1 X105.546 Y31.269 E3.15231
G1 X106.454 Y30.953 E3.17069
G1 X107.378 Y30.755 E3.18877
G1 X108.33 Y30.673 E3.20704
G1 X108.65 Y30.673 E3.21316
G1 X109.275 Y30.71 E3.22513
G1 X110.227 Y30.869 E3.24359
G1 X111.133 Y31.141 E3.26168
G1 X112.012 Y31.531 E3.28007
G1 X112.827 Y32.024 E3.29829
G1 X113.572 Y32.611 E3.31643
G1 X114.247 Y33.3 E3.33488
G1 X114.819 Y34.052 E3.35295
G1 X115.3 Y34.884 E3.37132
G1 X115.669 Y35.759 E3.38949
G1 X115.927 Y36.677 E3.40772
G1 X116.068 Y37.617 E3.4259
G1 X116.09 Y38.572 E3.44417
G1 X115.992 Y39.523 E3.46245
G1 X115.776 Y40.452 E3.48069
G1 X115.444 Y41.347 E3.49895
G1 X115.005 Y42.191 E3.51714
G1 X114.459 Y42.978 E3.53546
G1 X113.824 Y43.686 E3.55365
G1 X113.098 Y44.313 E3.572
G1 X112.314 Y44.837 E3.59003
G1 X111.451 Y45.267 E3.60847
G1 X110.546 Y45.581 E3.62679
G1 X109.622 Y45.779 E3.64486
G1 X108.67 Y45.861 E3.66314
G1 X107.725 Y45.824 E3.68122
G1 X106.773 Y45.665 E3.69968
G1 X105.863 Y45.392 E3.71785
G1 X104.99 Y45.005 E3.73611
G1 X104.17 Y44.509 E3.75444
G1 X103.428 Y43.923 E3.77252
G1 X102.753 Y43.234 E3.79097
G1 X102.181 Y42.482 E3.80904
G1 X101.7 Y41.65 E3.82742
G1 X101.331 Y40.775 E3.84558
G1 X101.073 Y39.857 E3.86382
G1 X100.932 Y38.917 E3.882
G1 X100.91 Y37.962 E3.90026
G1 X101.008 Y37.011 E3.91855
G1 X101.224 Y36.082 E3.93679
M205 X30 Y30
G0 F3600 X101.612 Y36.181
M205 X15 Y15
G1 F1500 X101.928 Y35.334 E3.95408
G1 X102.346 Y34.535 E3.97132
G1 X102.865 Y33.791 E3.98867
G1 X103.468 Y33.122 E4.0059
G1 X104.156 Y32.53 E4.02325
G1 X104.904 Y32.034 E4.04042
G1 X105.717 Y31.63 E4.05778
G1 X106.576 Y31.333 E4.07516
G1 X107.454 Y31.148 E4.09232
G1 X108.356 Y31.072 E4.10964
G1 X108.626 Y31.072 E4.1148
G1 X109.251 Y31.109 E4.12677
G1 X110.152 Y31.262 E4.14425
G1 X111.011 Y31.521 E4.16141
G1 X111.841 Y31.893 E4.1788
G1 X112.613 Y32.362 E4.19608
G1 X113.318 Y32.92 E4.21327
G1 X113.955 Y33.574 E4.23073
G1 X114.496 Y34.287 E4.24785
G1 X114.95 Y35.076 E4.26526
G1 X115.298 Y35.907 E4.28249
G1 X115.54 Y36.777 E4.29976
G1 X115.671 Y37.668 E4.31698
G1 X115.69 Y38.572 E4.33428
G1 X115.595 Y39.474 E4.35162
G1 X115.388 Y40.353 E4.36889
G1 X115.072 Y41.2 E4.38618
G1 X114.654 Y41.999 E4.40343
G1 X114.135 Y42.743 E4.42077
G1 X113.532 Y43.412 E4.438
G1 X112.844 Y44.004 E4.45536
G1 X112.099 Y44.5 E4.47247
G1 X111.281 Y44.905 E4.48993
G1 X110.424 Y45.201 E4.50727
G1 X109.546 Y45.386 E4.52443
G1 X108.644 Y45.462 E4.54174
G1 X107.749 Y45.425 E4.55887
G1 X106.848 Y45.272 E4.57635
G1 X105.986 Y45.012 E4.59357
G1 X105.16 Y44.643 E4.61087
G1 X104.384 Y44.171 E4.62824
G1 X103.682 Y43.614 E4.64538
G1 X103.045 Y42.96 E4.66284
G1 X102.504 Y42.247 E4.67996
G1 X102.05 Y41.458 E4.69737
G1 X101.702 Y40.627 E4.7146
G1 X101.46 Y39.757 E4.73187
G1 X101.329 Y38.866 E4.74909
G1 X101.31 Y37.962 E4.76638
G1 X101.405 Y37.06 E4.78373
G1 X101.612 Y36.181 E4.801
M205 X30 Y30
G0 F3600 X101.999 Y36.28
M205 X15 Y15
G1 F1500 X102.3 Y35.481 E4.81733
G1 X102.697 Y34.727 E4.83362
G1 X103.188 Y34.026 E4.84999
G1 X103.76 Y33.395 E4.86628
G1 X104.411 Y32.838 E4.88266
G1 X105.119 Y32.371 E4.89888
G1 X105.888 Y31.992 E4.91528
G1 X106.699 Y31.714 E4.93168
G1 X107.53 Y31.54 E4.94791
G1 X108.381 Y31.472 E4.96424
G1 X109.227 Y31.508 E4.98043
G1 X110.077 Y31.655 E4.99693
G1 X110.888 Y31.902 E5.01314
G1 X111.671 Y32.255 E5.02957
G1 X112.399 Y32.699 E5.04588
G1 X113.064 Y33.229 E5.06214
G1 X113.664 Y33.847 E5.07861
G1 X114.173 Y34.523 E5.0948
G1 X114.599 Y35.269 E5.11123
G1 X114.926 Y36.054 E5.12749
G1 X115.152 Y36.876 E5.14379
G1 X115.274 Y37.719 E5.16008
G1 X115.29 Y38.573 E5.17642
G1 X115.198 Y39.425 E5.19281
G1 X115.001 Y40.254 E5.2091
G1 X114.7 Y41.053 E5.22543
G1 X114.303 Y41.807 E5.24173
G1 X113.812 Y42.508 E5.2581
G1 X113.24 Y43.139 E5.27438
G1 X112.589 Y43.696 E5.29077
G1 X111.883 Y44.163 E5.30696
G1 X111.11 Y44.543 E5.32343
G1 X110.301 Y44.82 E5.33979
G1 X109.47 Y44.994 E5.35602
G1 X108.619 Y45.062 E5.37235
G1 X107.773 Y45.026 E5.38854
G1 X106.923 Y44.879 E5.40504
G1 X106.109 Y44.631 E5.42131
G1 X105.33 Y44.281 E5.43765
G1 X104.599 Y43.833 E5.45404
G1 X103.936 Y43.305 E5.47025
G1 X103.336 Y42.687 E5.48673
G1 X102.827 Y42.011 E5.50291
G1 X102.401 Y41.265 E5.51934
G1 X102.074 Y40.48 E5.5356
G1 X101.848 Y39.658 E5.55191
G1 X101.726 Y38.815 E5.5682
G1 X101.71 Y37.961 E5.58453
G1 X101.802 Y37.109 E5.60092
G1 X101.999 Y36.28 E5.61722
M205 X30 Y30
G0 F3600 X102.387 Y36.38
M205 X15 Y15
G1 F1500 X102.672 Y35.628 E5.63259
G1 X103.048 Y34.919 E5.64794
G1 X103.512 Y34.262 E5.66333
G1 X104.052 Y33.668 E5.67868
G1 X104.666 Y33.146 E5.69409
G1 X105.334 Y32.708 E5.70937
G1 X106.059 Y32.353 E5.72481
G1 X106.822 Y32.095 E5.74021
G1 X107.605 Y31.933 E5.7555
G1 X108.407 Y31.871 E5.77088
G1 X109.204 Y31.907 E5.78614
G1 X110.002 Y32.048 E5.80164
G1 X110.765 Y32.283 E5.81691
G1 X111.501 Y32.616 E5.83236
G1 X112.185 Y33.037 E5.84772
G1 X112.809 Y33.538 E5.86302
G1 X113.372 Y34.121 E5.87852
G1 X113.849 Y34.758 E5.89374
G1 X114.248 Y35.461 E5.9092
G1 X114.554 Y36.202 E5.92453
G1 X114.765 Y36.976 E5.93988
G1 X114.878 Y37.77 E5.95521
G1 X114.89 Y38.574 E5.97059
G1 X114.801 Y39.375 E5.986
G1 X114.613 Y40.154 E6.00133
G1 X114.328 Y40.906 E6.01671
G1 X113.952 Y41.615 E6.03206
G1 X113.488 Y42.272 E6.04744
G1 X112.948 Y42.866 E6.06279
G1 X112.334 Y43.388 E6.07821
G1 X111.668 Y43.826 E6.09345
G1 X110.94 Y44.181 E6.10894
G1 X110.178 Y44.439 E6.12433
G1 X109.395 Y44.601 E6.13962
G1 X108.593 Y44.663 E6.155
G1 X107.796 Y44.627 E6.17026
G1 X106.998 Y44.486 E6.18576
G1 X106.232 Y44.25 E6.20109
G1 X105.501 Y43.919 E6.21643
G1 X104.813 Y43.496 E6.23188
G1 X104.191 Y42.996 E6.24714
G1 X103.628 Y42.413 E6.26264
G1 X103.151 Y41.776 E6.27786
G1 X102.752 Y41.073 E6.29332
G1 X102.446 Y40.332 E6.30865
G1 X102.235 Y39.558 E6.32399
G1 X102.122 Y38.764 E6.33933
G1 X102.11 Y37.96 E6.35471
G1 X102.199 Y37.159 E6.37012
G1 X102.387 Y36.38 E6.38545
M205 X30 Y30
G0 F3600 X102.774 Y36.479
M205 X15 Y15
G1 F1500 X103.044 Y35.775 E6.39987
G1 X103.399 Y35.111 E6.41427
G1 X103.835 Y34.497 E6.42867
G1 X104.345 Y33.941 E6.4431
G1 X104.92 Y33.455 E6.4575
G1 X105.549 Y33.046 E6.47185
G1 X106.23 Y32.715 E6.48633
G1 X106.945 Y32.475 E6.50075
G1 X107.681 Y32.326 E6.51511
G1 X108.432 Y32.27 E6.52951
G1 X109.18 Y32.307 E6.54384
G1 X109.927 Y32.441 E6.55835
G1 X110.642 Y32.663 E6.57267
G1 X111.33 Y32.978 E6.58714
G1 X111.971 Y33.375 E6.60156
G1 X112.555 Y33.846 E6.61591
G1 X113.08 Y34.394 E6.63042
G1 X113.526 Y34.994 E6.64472
G1 X113.898 Y35.654 E6.65921
G1 X114.182 Y36.35 E6.67358
G1 X114.377 Y37.076 E6.68796
G1 X114.481 Y37.821 E6.70235
G1 X114.49 Y38.574 E6.71675
G1 X114.404 Y39.326 E6.73122
G1 X114.226 Y40.055 E6.74558
G1 X113.956 Y40.759 E6.76
G1 X113.601 Y41.423 E6.7744
G1 X113.165 Y42.037 E6.7888
G1 X112.655 Y42.593 E6.80323
G1 X112.08 Y43.079 E6.81762
G1 X111.452 Y43.489 E6.83197
G1 X110.769 Y43.82 E6.84648
G1 X110.055 Y44.059 E6.86088
G1 X109.319 Y44.208 E6.87524
G1 X108.568 Y44.264 E6.88965
G1 X107.82 Y44.227 E6.90397
G1 X107.073 Y44.093 E6.91848
G1 X106.355 Y43.87 E6.93286
G1 X105.671 Y43.557 E6.94725
G1 X105.028 Y43.158 E6.96172
G1 X104.445 Y42.688 E6.97604
G1 X103.92 Y42.14 E6.99055
G1 X103.474 Y41.54 E7.00485
G1 X103.102 Y40.88 E7.01934
G1 X102.818 Y40.184 E7.03372
G1 X102.623 Y39.458 E7.04809
G1 X102.519 Y38.713 E7.06248
G1 X102.51 Y37.96 E7.07688
G1 X102.596 Y37.208 E7.09136
G1 X102.774 Y36.479 E7.10571
M205 X30 Y30
G0 F3600 X103.162 Y36.578
M205 X15 Y15
G1 F1500 X103.416 Y35.922 E7.11916
G1 X103.75 Y35.303 E7.13261
G1 X104.159 Y34.732 E7.14605
G1 X104.637 Y34.214 E7.15953
G1 X105.175 Y33.763 E7.17295
G1 X105.764 Y33.383 E7.18636
G1 X106.401 Y33.077 E7.19987
G1 X107.068 Y32.856 E7.21331
G1 X107.757 Y32.719 E7.22675
G1 X108.458 Y32.669 E7.24019
G1 X109.156 Y32.706 E7.25355
G1 X109.852 Y32.834 E7.26709
G1 X110.519 Y33.044 E7.28046
G1 X111.16 Y33.34 E7.29396
G1 X111.757 Y33.713 E7.30743
G1 X112.301 Y34.155 E7.32083
G1 X112.788 Y34.668 E7.33436
G1 X113.203 Y35.23 E7.34772
G1 X113.547 Y35.846 E7.36121
G1 X113.811 Y36.497 E7.37465
G1 X113.99 Y37.175 E7.38806
G1 X114.084 Y37.872 E7.40151
G1 X114.09 Y38.575 E7.41495
G1 X114.007 Y39.276 E7.42845
G1 X113.838 Y39.956 E7.44185
G1 X113.584 Y40.612 E7.45531
G1 X113.25 Y41.231 E7.46876
G1 X112.841 Y41.802 E7.48219
G1 X112.363 Y42.32 E7.49567
G1 X111.825 Y42.771 E7.5091
G1 X111.237 Y43.152 E7.5225
G1 X110.599 Y43.458 E7.53603
G1 X109.932 Y43.678 E7.54946
G1 X109.243 Y43.815 E7.5629
G1 X108.542 Y43.865 E7.57634
G1 X107.844 Y43.828 E7.5897
G1 X107.148 Y43.7 E7.60324
G1 X106.478 Y43.489 E7.61667
G1 X105.841 Y43.195 E7.63009
G1 X105.242 Y42.82 E7.6436
G1 X104.699 Y42.379 E7.65698
G1 X104.212 Y41.866 E7.67051
G1 X103.797 Y41.304 E7.68387
G1 X103.453 Y40.688 E7.69736
G1 X103.189 Y40.037 E7.7108
G1 X103.01 Y39.359 E7.72421
G1 X102.916 Y38.662 E7.73766
G1 X102.91 Y37.959 E7.75111
G1 X102.993 Y37.258 E7.76461
G1 X103.162 Y36.578 E7.77801
M205 X30 Y30
G0 F3600 X103.549 Y36.677
M205 X15 Y15
G1 F1500 X103.788 Y36.069 E7.7905
G1 X104.101 Y35.495 E7.803
G1 X104.482 Y34.967 E7.81546
G1 X104.929 Y34.487 E7.828
G1 X105.43 Y34.072 E7.84044
G1 X105.979 Y33.72 E7.85291
G1 X106.572 Y33.438 E7.86547
G1 X107.191 Y33.237 E7.87792
G1 X107.832 Y33.112 E7.89041
G1 X108.483 Y33.068 E7.90289
G1 X109.133 Y33.105 E7.91534
G1 X109.777 Y33.227 E7.92787
G1 X110.396 Y33.425 E7.9403
G1 X110.989 Y33.702 E7.95282
G1 X111.543 Y34.051 E7.96534
G1 X112.046 Y34.464 E7.97779
G1 X112.496 Y34.941 E7.99033
G1 X112.88 Y35.465 E8.00275
G1 X113.196 Y36.039 E8.01528
G1 X113.439 Y36.645 E8.02777
G1 X113.603 Y37.275 E8.04022
G1 X113.687 Y37.923 E8.05272
G1 X113.69 Y38.576 E8.06521
G1 X113.61 Y39.227 E8.07775
G1 X113.451 Y39.857 E8.09018
G1 X113.212 Y40.465 E8.10267
G1 X112.899 Y41.039 E8.11517
G1 X112.518 Y41.567 E8.12763
G1 X112.071 Y42.047 E8.14017
G1 X111.57 Y42.462 E8.15261
G1 X111.022 Y42.815 E8.16508
G1 X110.428 Y43.096 E8.17764
G1 X109.809 Y43.297 E8.19009
G1 X109.168 Y43.422 E8.20258
G1 X108.517 Y43.466 E8.21506
G1 X107.867 Y43.429 E8.22751
G1 X107.223 Y43.307 E8.24005
G1 X106.601 Y43.108 E8.25253
G1 X106.011 Y42.833 E8.26498
G1 X105.457 Y42.483 E8.27752
G1 X104.954 Y42.07 E8.28996
G1 X104.504 Y41.593 E8.3025
G1 X104.12 Y41.069 E8.31493
G1 X103.804 Y40.495 E8.32746
