;FLAVOR:Marlin
;TIME:561
;Filament used: 0.300123m
;Layer height: 0.15
;MINX:156.641
;MINY:19.018
;MINZ:0.1
;MAXX:174.222
;MAXY:36.601
;MAXZ:14.95
;Generated with Cura_SteamEngine 4.5.0
M140 S69
M105
M190 S69
M82 ;absolute extrusion mode
;Gcode by Cura
G90
M106 S255
G28 X Y
M109 R195
G28
M104 S195
G29
M107
G1 X100 Y10 F3000
G1 Z0.5
M109 S195
M82
G92 E0
G1 F200 E10
G92 E0
G1 Z3
G1 X120 Y10
G1 Z0.5
G92 E0
G1 F200 E10
G92 E0
G1 Z3
G1 F6000
G92 E0
G92 E0
G1 F1200 E-3.5
;LAYER_COUNT:100
;LAYER:0
M106 S255
M205 X30 Y30
G1 F120 Z1.1
G0 F3600 X156.748 Y26.405 Z1.1
M205 X15 Y15
;TYPE:SKIRT
G1 F120 Z0.1
G1 F1200 E0
G1 F1500 X156.993 Y25.327 E0.02114
G1 X157.371 Y24.288 E0.04229
G1 X157.877 Y23.305 E0.06343
G1 X158.503 Y22.393 E0.08459
G1 X159.231 Y21.572 E0.10557
G1 X160.069 Y20.839 E0.12686
G1 X160.976 Y20.227 E0.14779
G1 X161.965 Y19.727 E0.16898
G1 X163.014 Y19.354 E0.19027
G1 X164.09 Y19.119 E0.21134
G1 X165.18 Y19.019 E0.23227
G1 X165.659 Y19.018 E0.24143
G1 X166.283 Y19.056 E0.25339
G1 X167.377 Y19.232 E0.27458
G1 X168.435 Y19.542 E0.29566
G1 X169.454 Y19.988 E0.31694
G1 X170.4 Y20.553 E0.33801
G1 X171.267 Y21.228 E0.35902
G1 X172.054 Y22.023 E0.38042
G1 X172.72 Y22.888 E0.40129
G1 X173.282 Y23.845 E0.42252
G1 X173.717 Y24.859 E0.44362
G1 X174.021 Y25.921 E0.46475
G1 X174.19 Y27.007 E0.48577
G1 X174.222 Y28.113 E0.50693
G1 X174.115 Y29.215 E0.5281
G1 X173.87 Y30.293 E0.54924
G1 X173.492 Y31.332 E0.57039
G1 X172.986 Y32.315 E0.59153
G1 X172.36 Y33.227 E0.61269
G1 X171.632 Y34.048 E0.63367
G1 X170.794 Y34.781 E0.65496
G1 X169.891 Y35.391 E0.6758
G1 X168.893 Y35.896 E0.6972
G1 X167.849 Y36.266 E0.71838
G1 X166.778 Y36.501 E0.73935
G1 X165.679 Y36.601 E0.76045
G1 X164.586 Y36.565 E0.78137
G1 X163.481 Y36.387 E0.80277
G1 X162.425 Y36.077 E0.82382
G1 X161.412 Y35.634 E0.84496
G1 X160.458 Y35.064 E0.86622
G1 X159.596 Y34.392 E0.88712
G1 X158.809 Y33.597 E0.90852
G1 X158.143 Y32.732 E0.92939
G1 X157.581 Y31.775 E0.95062
G1 X157.146 Y30.761 E0.97172
G1 X156.842 Y29.699 E0.99285
G1 X156.673 Y28.613 E1.01386
G1 X156.641 Y27.507 E1.03503
G1 X156.748 Y26.405 E1.0562
M205 X30 Y30
G0 F3600 X157.145 Y26.455
M205 X15 Y15
G1 F1500 X157.38 Y25.426 E1.07639
G1 X157.743 Y24.435 E1.09657
G1 X158.227 Y23.498 E1.11674
G1 X158.826 Y22.628 E1.13694
G1 X159.523 Y21.845 E1.15699
G1 X160.324 Y21.147 E1.17731
G1 X161.191 Y20.564 E1.19729
G1 X162.136 Y20.088 E1.21752
G1 X163.137 Y19.735 E1.23782
G1 X164.165 Y19.512 E1.25794
G1 X165.206 Y19.418 E1.27793
G1 X165.635 Y19.417 E1.28613
G1 X166.259 Y19.455 E1.29809
G1 X167.302 Y19.625 E1.3183
G1 X168.312 Y19.923 E1.33844
G1 X169.284 Y20.35 E1.35874
G1 X170.186 Y20.891 E1.37886
G1 X171.012 Y21.537 E1.39891
G1 X171.762 Y22.296 E1.41932
G1 X172.397 Y23.124 E1.43927
G1 X172.931 Y24.038 E1.45952
G1 X173.345 Y25.007 E1.47967
G1 X173.634 Y26.02 E1.49982
G1 X173.793 Y27.058 E1.5199
G1 X173.822 Y28.114 E1.5401
G1 X173.718 Y29.165 E1.5603
G1 X173.483 Y30.194 E1.58049
G1 X173.12 Y31.185 E1.60067
G1 X172.636 Y32.122 E1.62084
G1 X172.037 Y32.992 E1.64104
G1 X171.34 Y33.775 E1.66109
G1 X170.539 Y34.473 E1.68141
G1 X169.676 Y35.054 E1.7013
G1 X168.723 Y35.534 E1.72171
G1 X167.726 Y35.885 E1.74193
G1 X166.703 Y36.108 E1.76195
G1 X165.653 Y36.202 E1.78211
G1 X164.61 Y36.166 E1.80207
G1 X163.555 Y35.994 E1.82251
G1 X162.548 Y35.696 E1.8426
G1 X161.582 Y35.272 E1.86277
G1 X160.673 Y34.727 E1.88304
G1 X159.851 Y34.083 E1.90301
G1 X159.101 Y33.324 E1.92342
G1 X158.466 Y32.496 E1.94337
G1 X157.932 Y31.582 E1.96362
G1 X157.518 Y30.613 E1.98377
G1 X157.229 Y29.6 E2.00392
G1 X157.07 Y28.562 E2.024
G1 X157.041 Y27.506 E2.0442
G1 X157.145 Y26.455 E2.0644
M205 X30 Y30
G0 F3600 X157.542 Y26.504
M205 X15 Y15
G1 F1500 X157.768 Y25.525 E2.08362
G1 X158.115 Y24.583 E2.10282
G1 X158.578 Y23.69 E2.12205
G1 X159.15 Y22.863 E2.14128
G1 X159.816 Y22.118 E2.16039
G1 X160.579 Y21.456 E2.17971
G1 X161.406 Y20.902 E2.19875
G1 X162.307 Y20.45 E2.21803
G1 X163.26 Y20.115 E2.23735
G1 X164.24 Y19.905 E2.25651
G1 X165.232 Y19.817 E2.27556
G1 X165.61 Y19.817 E2.28279
G1 X166.234 Y19.855 E2.29475
G1 X167.228 Y20.018 E2.31401
G1 X168.189 Y20.303 E2.33318
G1 X169.113 Y20.712 E2.3525
G1 X169.972 Y21.229 E2.37168
G1 X170.758 Y21.846 E2.39079
G1 X171.47 Y22.57 E2.41021
G1 X172.074 Y23.359 E2.42921
G1 X172.581 Y24.231 E2.4485
G1 X172.973 Y25.154 E2.46768
G1 X173.246 Y26.12 E2.48688
G1 X173.397 Y27.109 E2.50601
G1 X173.422 Y28.114 E2.52524
G1 X173.321 Y29.116 E2.5445
G1 X173.095 Y30.095 E2.56371
G1 X172.748 Y31.037 E2.58291
G1 X172.285 Y31.93 E2.60215
G1 X171.713 Y32.757 E2.62138
G1 X171.047 Y33.502 E2.64049
G1 X170.284 Y34.164 E2.65981
G1 X169.46 Y34.717 E2.67879
G1 X168.553 Y35.172 E2.69819
G1 X167.603 Y35.505 E2.71745
G1 X166.627 Y35.715 E2.73654
G1 X165.628 Y35.803 E2.75572
G1 X164.634 Y35.767 E2.77474
G1 X163.63 Y35.601 E2.7942
G1 X162.671 Y35.316 E2.81334
G1 X161.752 Y34.91 E2.83255
G1 X160.887 Y34.389 E2.85186
G1 X160.105 Y33.774 E2.87089
G1 X159.393 Y33.05 E2.89031
G1 X158.789 Y32.261 E2.90931
G1 X158.282 Y31.389 E2.9286
G1 X157.89 Y30.466 E2.94778
G1 X157.617 Y29.5 E2.96698
G1 X157.466 Y28.511 E2.98611
G1 X157.441 Y27.506 E3.00534
G1 X157.542 Y26.504 E3.0246
M205 X30 Y30
G0 F3600 X157.939 Y26.554
M205 X15 Y15
G1 F1500 X158.155 Y25.625 E3.04284
G1 X158.487 Y24.73 E3.06109
G1 X158.929 Y23.883 E3.07936
G1 X159.473 Y23.099 E3.09761
G1 X160.108 Y22.391 E3.1158
G1 X160.834 Y21.764 E3.13415
G1 X161.621 Y21.239 E3.15224
G1 X162.478 Y20.812 E3.17055
G1 X163.383 Y20.496 E3.18889
G1 X164.315 Y20.298 E3.20711
G1 X165.258 Y20.217 E3.22521
G1 X165.586 Y20.216 E3.23148
G1 X166.21 Y20.254 E3.24344
G1 X167.154 Y20.411 E3.26174
G1 X168.066 Y20.684 E3.27994
G1 X168.943 Y21.074 E3.2983
G1 X169.758 Y21.567 E3.31652
G1 X170.503 Y22.154 E3.33466
G1 X171.178 Y22.843 E3.3531
G1 X171.75 Y23.595 E3.37117
G1 X172.23 Y24.424 E3.38949
G1 X172.601 Y25.302 E3.40772
G1 X172.859 Y26.22 E3.42596
G1 X173 Y27.16 E3.44414
G1 X173.022 Y28.115 E3.4624
G1 X172.924 Y29.066 E3.48069
G1 X172.708 Y29.995 E3.49893
G1 X172.376 Y30.89 E3.51718
G1 X171.934 Y31.737 E3.53546
G1 X171.39 Y32.521 E3.55371
G1 X170.755 Y33.229 E3.57189
G1 X170.029 Y33.856 E3.59024
G1 X169.245 Y34.38 E3.60827
G1 X168.382 Y34.81 E3.62671
G1 X167.48 Y35.124 E3.64498
G1 X166.552 Y35.322 E3.66313
G1 X165.602 Y35.404 E3.68136
G1 X164.657 Y35.367 E3.69945
G1 X163.705 Y35.208 E3.71791
G1 X162.794 Y34.935 E3.7361
G1 X161.922 Y34.548 E3.75434
G1 X161.102 Y34.052 E3.77267
G1 X160.36 Y33.466 E3.79075
G1 X159.685 Y32.777 E3.8092
G1 X159.113 Y32.025 E3.82727
G1 X158.633 Y31.196 E3.84559
G1 X158.262 Y30.318 E3.86382
G1 X158.004 Y29.4 E3.88205
G1 X157.863 Y28.46 E3.90023
G1 X157.841 Y27.505 E3.9185
G1 X157.939 Y26.554 E3.93678
M205 X30 Y30
G0 F3600 X158.336 Y26.603
M205 X15 Y15
G1 F1500 X158.543 Y25.724 E3.95405
G1 X158.859 Y24.877 E3.97134
G1 X159.279 Y24.075 E3.98866
G1 X159.797 Y23.334 E4.00595
G1 X160.4 Y22.665 E4.02317
G1 X161.088 Y22.073 E4.04053
G1 X161.836 Y21.577 E4.05769
G1 X162.649 Y21.173 E4.07506
G1 X163.506 Y20.877 E4.0924
G1 X164.39 Y20.691 E4.10967
G1 X165.284 Y20.616 E4.12683
G1 X165.562 Y20.615 E4.13215
G1 X166.186 Y20.653 E4.1441
G1 X167.08 Y20.804 E4.16144
G1 X167.943 Y21.065 E4.17869
G1 X168.772 Y21.436 E4.19605
G1 X169.544 Y21.905 E4.21333
G1 X170.249 Y22.463 E4.23052
G1 X170.886 Y23.117 E4.24798
G1 X171.427 Y23.83 E4.2651
G1 X171.88 Y24.617 E4.28247
G1 X172.23 Y25.45 E4.29975
G1 X172.472 Y26.32 E4.31702
G1 X172.603 Y27.211 E4.33424
G1 X172.622 Y28.115 E4.35153
G1 X172.527 Y29.017 E4.36888
G1 X172.32 Y29.896 E4.38615
G1 X172.004 Y30.743 E4.40344
G1 X171.584 Y31.545 E4.42075
G1 X171.066 Y32.286 E4.43804
G1 X170.463 Y32.955 E4.45527
G1 X169.775 Y33.547 E4.47263
G1 X169.03 Y34.043 E4.48974
G1 X168.212 Y34.448 E4.5072
G1 X167.357 Y34.743 E4.5245
G1 X166.476 Y34.929 E4.54172
G1 X165.577 Y35.005 E4.55897
G1 X164.681 Y34.968 E4.57612
G1 X163.78 Y34.815 E4.5936
G1 X162.917 Y34.554 E4.61084
G1 X162.092 Y34.186 E4.62812
G1 X161.316 Y33.714 E4.64549
G1 X160.614 Y33.157 E4.66263
G1 X159.977 Y32.503 E4.68009
G1 X159.436 Y31.79 E4.6972
G1 X158.983 Y31.003 E4.71457
G1 X158.633 Y30.17 E4.73185
G1 X158.391 Y29.3 E4.74912
G1 X158.26 Y28.409 E4.76634
G1 X158.241 Y27.505 E4.78364
G1 X158.336 Y26.603 E4.80098
M205 X30 Y30
G0 F3600 X158.733 Y26.652
M205 X15 Y15
G1 F1500 X158.93 Y25.823 E4.81728
G1 X159.231 Y25.024 E4.83361
G1 X159.63 Y24.268 E4.84995
G1 X160.12 Y23.569 E4.86628
G1 X160.692 Y22.938 E4.88257
G1 X161.343 Y22.381 E4.89895
G1 X162.051 Y21.914 E4.91517
G1 X162.82 Y21.535 E4.93157
G1 X163.629 Y21.257 E4.94793
G1 X164.465 Y21.084 E4.96426
G1 X165.31 Y21.015 E4.98047
G1 X165.537 Y21.014 E4.98481
G1 X166.161 Y21.052 E4.99677
G1 X167.006 Y21.197 E5.01316
G1 X167.82 Y21.445 E5.02944
G1 X168.602 Y21.798 E5.04585
G1 X169.33 Y22.242 E5.06215
G1 X169.995 Y22.772 E5.07842
G1 X170.595 Y23.39 E5.09489
G1 X171.104 Y24.066 E5.11107
G1 X171.53 Y24.81 E5.12747
G1 X171.858 Y25.597 E5.14377
G1 X172.084 Y26.419 E5.16008
G1 X172.206 Y27.262 E5.17637
G1 X172.222 Y28.116 E5.1927
G1 X172.13 Y28.968 E5.20909
G1 X171.933 Y29.797 E5.22539
G1 X171.632 Y30.596 E5.24172
G1 X171.233 Y31.352 E5.25807
G1 X170.743 Y32.051 E5.27439
G1 X170.171 Y32.682 E5.29068
G1 X169.52 Y33.239 E5.30706
G1 X168.814 Y33.706 E5.32325
G1 X168.041 Y34.086 E5.33973
G1 X167.234 Y34.363 E5.35604
G1 X166.401 Y34.537 E5.37232
G1 X165.551 Y34.605 E5.38863
G1 X164.705 Y34.569 E5.40482
G1 X163.854 Y34.422 E5.42134
G1 X163.04 Y34.174 E5.43761
G1 X162.262 Y33.824 E5.45392
G1 X161.531 Y33.376 E5.47032
G1 X160.868 Y32.848 E5.48653
G1 X160.268 Y32.23 E5.503
G1 X159.759 Y31.554 E5.51919
G1 X159.333 Y30.81 E5.53558
G1 X159.005 Y30.023 E5.55189
G1 X158.779 Y29.201 E5.56819
G1 X158.657 Y28.358 E5.58448
G1 X158.641 Y27.504 E5.60082
G1 X158.733 Y26.652 E5.61721
M205 X30 Y30
G0 F3600 X159.13 Y26.702
M205 X15 Y15
G1 F1500 X159.318 Y25.923 E5.63253
G1 X159.603 Y25.171 E5.64791
G1 X159.981 Y24.46 E5.66331
G1 X160.444 Y23.805 E5.67865
G1 X160.984 Y23.211 E5.694
G1 X161.598 Y22.689 E5.70942
G1 X162.266 Y22.251 E5.72469
G1 X162.991 Y21.896 E5.74013
G1 X163.752 Y21.638 E5.7555
G1 X164.54 Y21.477 E5.77088
G1 X165.337 Y21.414 E5.78617
G1 X166.137 Y21.452 E5.80149
G1 X166.932 Y21.59 E5.81692
G1 X167.697 Y21.826 E5.83223
G1 X168.432 Y22.159 E5.84766
G1 X169.116 Y22.58 E5.86302
G1 X169.74 Y23.081 E5.87833
G1 X170.303 Y23.664 E5.89383
G1 X170.78 Y24.301 E5.90905
G1 X171.179 Y25.003 E5.92449
G1 X171.486 Y25.745 E5.93985
G1 X171.697 Y26.519 E5.95519
G1 X171.81 Y27.313 E5.97053
G1 X171.822 Y28.117 E5.9859
G1 X171.733 Y28.918 E6.00132
G1 X171.545 Y29.697 E6.01664
G1 X171.26 Y30.449 E6.03202
G1 X170.882 Y31.16 E6.04742
G1 X170.419 Y31.815 E6.06276
G1 X169.879 Y32.409 E6.07811
G1 X169.265 Y32.931 E6.09353
G1 X168.599 Y33.369 E6.10877
G1 X167.871 Y33.724 E6.12426
G1 X167.111 Y33.982 E6.13961
G1 X166.325 Y34.144 E6.15496
G1 X165.525 Y34.206 E6.1703
G1 X164.728 Y34.17 E6.18556
G1 X163.929 Y34.029 E6.20108
G1 X163.163 Y33.793 E6.21641
G1 X162.433 Y33.462 E6.23174
G1 X161.745 Y33.039 E6.24718
G1 X161.123 Y32.539 E6.26244
G1 X160.56 Y31.956 E6.27794
G1 X160.083 Y31.319 E6.29316
G1 X159.684 Y30.617 E6.30861
G1 X159.377 Y29.875 E6.32396
G1 X159.166 Y29.101 E6.33931
G1 X159.053 Y28.307 E6.35464
G1 X159.041 Y27.503 E6.37002
G1 X159.13 Y26.702 E6.38544
M205 X30 Y30
G0 F3600 X159.527 Y26.751
M205 X15 Y15
G1 F1500 X159.705 Y26.022 E6.39979
G1 X159.975 Y25.318 E6.41421
G1 X160.331 Y24.653 E6.42863
G1 X160.767 Y24.04 E6.44302
G1 X161.277 Y23.484 E6.45745
G1 X161.852 Y22.998 E6.47185
G1 X162.481 Y22.589 E6.48619
G1 X163.162 Y22.258 E6.50068
G1 X163.875 Y22.018 E6.51506
G1 X164.615 Y21.87 E6.5295
G1 X165.363 Y21.813 E6.54384
G1 X166.113 Y21.851 E6.5582
G1 X166.857 Y21.983 E6.57265
G1 X167.574 Y22.206 E6.58702
G1 X168.261 Y22.521 E6.60147
G1 X168.902 Y22.918 E6.61589
G1 X169.486 Y23.389 E6.63024
G1 X170.011 Y23.937 E6.64475
G1 X170.457 Y24.537 E6.65905
G1 X170.829 Y25.196 E6.67352
G1 X171.114 Y25.893 E6.68792
G1 X171.309 Y26.619 E6.7023
G1 X171.413 Y27.364 E6.71668
G1 X171.422 Y28.117 E6.73109
G1 X171.336 Y28.869 E6.74556
G1 X171.158 Y29.598 E6.75991
G1 X170.888 Y30.302 E6.77433
G1 X170.532 Y30.967 E6.78876
G1 X170.096 Y31.58 E6.80314
G1 X169.586 Y32.136 E6.81757
G1 X169.011 Y32.622 E6.83197
G1 X168.383 Y33.032 E6.84632
G1 X167.7 Y33.363 E6.86083
G1 X166.988 Y33.602 E6.87519
G1 X166.25 Y33.751 E6.88959
G1 X165.5 Y33.807 E6.90398
G1 X164.752 Y33.77 E6.9183
G1 X164.004 Y33.636 E6.93283
G1 X163.286 Y33.413 E6.94721
G1 X162.603 Y33.1 E6.96158
G1 X161.96 Y32.701 E6.97605
G1 X161.377 Y32.231 E6.99037
G1 X160.852 Y31.683 E7.00489
G1 X160.406 Y31.083 E7.01918
G1 X160.034 Y30.424 E7.03366
G1 X159.749 Y29.727 E7.04806
G1 X159.554 Y29.001 E7.06243
G1 X159.45 Y28.256 E7.07682
G1 X159.441 Y27.503 E7.09122
G1 X159.527 Y26.751 E7.1057
M205 X30 Y30
G0 F3600 X159.924 Y26.801
M205 X15 Y15
G1 F1500 X160.093 Y26.121 E7.1191
G1 X160.347 Y25.465 E7.13255
G1 X160.682 Y24.845 E7.14603
G1 X161.091 Y24.275 E7.15945
G1 X161.569 Y23.757 E7.17293
G1 X162.107 Y23.306 E7.18635
G1 X162.696 Y22.926 E7.19976
G1 X163.333 Y22.62 E7.21327
G1 X163.998 Y22.399 E7.22667
G1 X164.69 Y22.263 E7.24016
G1 X165.389 Y22.212 E7.25356
G1 X166.088 Y22.25 E7.26695
G1 X166.783 Y22.376 E7.28046
G1 X167.451 Y22.587 E7.29386
G1 X168.091 Y22.883 E7.30734
G1 X168.688 Y23.256 E7.32081
G1 X169.232 Y23.698 E7.33421
G1 X169.719 Y24.211 E7.34774
G1 X170.134 Y24.773 E7.3611
G1 X170.479 Y25.389 E7.3746
G1 X170.743 Y26.04 E7.38804
G1 X170.922 Y26.718 E7.40145
G1 X171.016 Y27.415 E7.4149
G1 X171.022 Y28.118 E7.42834
G1 X170.939 Y28.819 E7.44184
G1 X170.77 Y29.499 E7.45524
G1 X170.516 Y30.155 E7.4687
G1 X170.181 Y30.775 E7.48217
G1 X169.772 Y31.345 E7.49559
G1 X169.294 Y31.863 E7.50907
G1 X168.756 Y32.314 E7.5225
G1 X168.168 Y32.695 E7.5359
G1 X167.53 Y33.001 E7.54943
G1 X166.865 Y33.221 E7.56282
G1 X166.174 Y33.358 E7.5763
G1 X165.474 Y33.408 E7.58972
G1 X164.776 Y33.371 E7.60309
G1 X164.079 Y33.243 E7.61664
G1 X163.409 Y33.032 E7.63007
G1 X162.773 Y32.738 E7.64347
G1 X162.174 Y32.363 E7.65699
G1 X161.631 Y31.922 E7.67037
G1 X161.144 Y31.409 E7.68389
G1 X160.729 Y30.847 E7.69725
G1 X160.384 Y30.231 E7.71076
G1 X160.12 Y29.58 E7.72419
G1 X159.941 Y28.902 E7.7376
G1 X159.847 Y28.205 E7.75105
G1 X159.841 Y27.502 E7.7645
G1 X159.924 Y26.801 E7.778
M205 X30 Y30
G0 F3600 X160.321 Y26.85
M205 X15 Y15
G1 F1500 X160.48 Y26.22 E7.79042
G1 X160.719 Y25.612 E7.80292
G1 X161.033 Y25.038 E7.81543
G1 X161.414 Y24.51 E7.82788
G1 X161.861 Y24.03 E7.84043
G1 X162.362 Y23.615 E7.85287
G1 X162.911 Y23.263 E7.86534
G1 X163.504 Y22.981 E7.8779
G1 X164.121 Y22.78 E7.89031
G1 X164.765 Y22.656 E7.90285
G1 X165.415 Y22.611 E7.91531
G1 X166.064 Y22.649 E7.92775
G1 X166.709 Y22.769 E7.94029
G1 X167.328 Y22.968 E7.95273
G1 X167.92 Y23.245 E7.96523
G1 X168.474 Y23.594 E7.97775
G1 X168.977 Y24.007 E7.9902
G1 X169.427 Y24.484 E8.00274
G1 X169.811 Y25.008 E8.01516
G1 X170.128 Y25.582 E8.0277
G1 X170.371 Y26.188 E8.04019
G1 X170.535 Y26.818 E8.05264
G1 X170.619 Y27.466 E8.06513
G1 X170.622 Y28.119 E8.07762
G1 X170.542 Y28.77 E8.09017
G1 X170.383 Y29.4 E8.10259
G1 X170.144 Y30.008 E8.11509
G1 X169.83 Y30.582 E8.1276
G1 X169.449 Y31.11 E8.14005
G1 X169.002 Y31.59 E8.1526
G1 X168.501 Y32.005 E8.16504
G1 X167.953 Y32.358 E8.1775
G1 X167.359 Y32.639 E8.19007
G1 X166.742 Y32.84 E8.20248
G1 X166.099 Y32.965 E8.21501
G1 X165.449 Y33.009 E8.22747
G1 X164.799 Y32.972 E8.23992
G1 X164.154 Y32.85 E8.25247
G1 X163.532 Y32.651 E8.26496
G1 X162.943 Y32.376 E8.27739
G1 X162.389 Y32.026 E8.28993
G1 X161.886 Y31.613 E8.30237
G1 X161.436 Y31.136 E8.31491
