;FLAVOR:Marlin
;TIME:2284
;Filament used: 1.76015m
;Layer height: 0.15
;MINX:121.151
;MINY:144.439
;MINZ:0.1
;MAXX:162.151
;MAXY:174.439
;MAXZ:13.9
;Generated with Cura_SteamEngine 4.5.0
M140 S69
M105
M190 S69
M82 ;absolute extrusion mode
;Gcode by Cura
G90
M106 S255
G28 X Y
M109 R195
G28
M104 S190
G29
M107
G1 X100 Y10 F3000
G1 Z0.5
M109 S190
M82
G92 E0
G1 F200 E10
G92 E0
G1 Z3
G1 F6000
G92 E0
G92 E0
G1 F1200 E-3.5
;LAYER_COUNT:93
;LAYER:0
M106 S255
M205 X30 Y30
G1 F120 Z1.1
G0 F3600 X122.097 Y145.252 Z1.1
M205 X15 Y15
;TYPE:SKIRT
G1 F120 Z0.1
G1 F1200 E0
G1 F1500 X122.48 Y144.947 E0.00814
G1 X122.908 Y144.709 E0.01629
G1 X123.368 Y144.543 E0.02442
G1 X124.151 Y144.439 E0.03755
G1 X137.586 Y144.439 E0.26098
G1 X138.549 Y144.598 E0.27721
G1 X138.998 Y144.792 E0.28535
G1 X139.41 Y145.057 E0.29349
G1 X139.773 Y145.385 E0.30163
G1 X140.078 Y145.768 E0.30977
G1 X140.316 Y146.196 E0.31791
G1 X140.482 Y146.656 E0.32605
G1 X140.586 Y147.439 E0.33918
G1 X140.586 Y149.439 E0.37244
G1 X159.151 Y149.439 E0.68118
G1 X159.639 Y149.479 E0.68932
G1 X160.114 Y149.598 E0.69747
G1 X160.563 Y149.792 E0.7056
G1 X160.975 Y150.057 E0.71375
G1 X161.338 Y150.385 E0.72188
G1 X161.643 Y150.768 E0.73002
G1 X161.881 Y151.196 E0.73817
G1 X162.047 Y151.656 E0.7463
G1 X162.151 Y152.439 E0.75944
G1 X162.151 Y166.439 E0.99226
G1 X162.111 Y166.927 E1.0004
G1 X161.992 Y167.402 E1.00854
G1 X161.798 Y167.851 E1.01668
G1 X161.533 Y168.263 E1.02482
G1 X161.205 Y168.626 E1.03296
G1 X160.822 Y168.931 E1.0411
G1 X160.394 Y169.169 E1.04925
G1 X159.934 Y169.335 E1.05738
G1 X159.151 Y169.439 E1.07052
G1 X142.476 Y169.439 E1.34782
G1 X142.476 Y171.439 E1.38108
G1 X142.436 Y171.927 E1.38922
G1 X142.317 Y172.402 E1.39737
G1 X142.123 Y172.851 E1.4055
G1 X141.858 Y173.263 E1.41365
G1 X141.53 Y173.626 E1.42178
G1 X141.147 Y173.931 E1.42993
G1 X140.719 Y174.169 E1.43807
G1 X140.259 Y174.335 E1.4462
G1 X139.476 Y174.439 E1.45934
G1 X124.151 Y174.439 E1.7142
G1 X123.663 Y174.399 E1.72234
G1 X123.188 Y174.28 E1.73048
G1 X122.739 Y174.086 E1.73862
G1 X122.327 Y173.821 E1.74676
G1 X121.964 Y173.493 E1.7549
G1 X121.659 Y173.11 E1.76304
G1 X121.421 Y172.682 E1.77118
G1 X121.255 Y172.222 E1.77932
G1 X121.151 Y171.439 E1.79245
G1 X121.151 Y147.439 E2.19157
G1 X121.191 Y146.951 E2.19972
G1 X121.31 Y146.476 E2.20786
G1 X121.504 Y146.027 E2.21599
G1 X121.769 Y145.615 E2.22414
G1 X122.097 Y145.252 E2.23228
M205 X30 Y30
G0 F3600 X122.489 Y145.439
M205 X15 Y15
G1 F1500 X122.864 Y145.18 E2.23986
G1 X123.278 Y144.99 E2.24743
G1 X123.719 Y144.875 E2.25501
G1 X124.151 Y144.839 E2.26222
G1 X137.586 Y144.839 E2.48564
G1 X138.48 Y144.997 E2.50074
G1 X138.892 Y145.191 E2.50832
G1 X139.265 Y145.454 E2.51591
G1 X139.586 Y145.777 E2.52348
G1 X139.845 Y146.152 E2.53106
G1 X140.035 Y146.566 E2.53863
G1 X140.15 Y147.007 E2.54621
G1 X140.186 Y147.439 E2.55342
G1 X140.186 Y149.839 E2.59333
G1 X159.151 Y149.839 E2.90872
G1 X159.605 Y149.879 E2.9163
G1 X160.045 Y149.997 E2.92388
G1 X160.457 Y150.191 E2.93145
G1 X160.83 Y150.454 E2.93904
G1 X161.151 Y150.777 E2.94661
G1 X161.41 Y151.152 E2.95419
G1 X161.6 Y151.566 E2.96177
G1 X161.715 Y152.007 E2.96935
G1 X161.751 Y152.439 E2.97656
G1 X161.751 Y166.439 E3.20938
G1 X161.711 Y166.893 E3.21696
G1 X161.593 Y167.333 E3.22453
G1 X161.399 Y167.745 E3.23211
G1 X161.136 Y168.118 E3.2397
G1 X160.813 Y168.439 E3.24727
G1 X160.438 Y168.698 E3.25485
G1 X160.024 Y168.888 E3.26242
G1 X159.583 Y169.003 E3.27
G1 X159.151 Y169.039 E3.27721
G1 X142.076 Y169.039 E3.56117
G1 X142.076 Y171.439 E3.60108
G1 X142.036 Y171.893 E3.60866
G1 X141.918 Y172.333 E3.61624
G1 X141.724 Y172.745 E3.62381
G1 X141.461 Y173.118 E3.6314
G1 X141.138 Y173.439 E3.63897
G1 X140.763 Y173.698 E3.64655
G1 X140.349 Y173.888 E3.65413
G1 X139.908 Y174.003 E3.66171
G1 X139.476 Y174.039 E3.66892
G1 X124.151 Y174.039 E3.92377
G1 X123.697 Y173.999 E3.93135
G1 X123.257 Y173.881 E3.93893
G1 X122.845 Y173.687 E3.9465
G1 X122.472 Y173.424 E3.95409
G1 X122.151 Y173.101 E3.96166
G1 X121.892 Y172.726 E3.96924
G1 X121.702 Y172.312 E3.97682
G1 X121.587 Y171.871 E3.9844
G1 X121.551 Y171.439 E3.9916
G1 X121.551 Y147.439 E4.39073
G1 X121.591 Y146.985 E4.39831
G1 X121.709 Y146.545 E4.40588
G1 X121.903 Y146.133 E4.41345
G1 X122.166 Y145.76 E4.42104
G1 X122.489 Y145.439 E4.42862
M205 X30 Y30
G0 F3600 X122.561 Y145.919
M205 X15 Y15
G1 F1500 X122.878 Y145.645 E4.43559
G1 X123.241 Y145.436 E4.44255
G1 X123.638 Y145.3 E4.44953
G1 X124.151 Y145.239 E4.45812
G1 X137.586 Y145.239 E4.68155
G1 X138.405 Y145.397 E4.69542
G1 X138.777 Y145.59 E4.70239
G1 X139.106 Y145.849 E4.70935
G1 X139.38 Y146.166 E4.71632
G1 X139.589 Y146.529 E4.72328
G1 X139.725 Y146.926 E4.73026
G1 X139.786 Y147.439 E4.73885
G1 X139.786 Y150.239 E4.78542
G1 X159.151 Y150.239 E5.10746
G1 X159.568 Y150.279 E5.11443
G1 X159.97 Y150.397 E5.12139
G1 X160.342 Y150.59 E5.12836
G1 X160.671 Y150.849 E5.13533
G1 X160.945 Y151.166 E5.14229
G1 X161.154 Y151.529 E5.14926
G1 X161.29 Y151.926 E5.15624
G1 X161.351 Y152.439 E5.16483
G1 X161.351 Y166.439 E5.39765
G1 X161.311 Y166.856 E5.40462
G1 X161.193 Y167.258 E5.41159
G1 X161 Y167.63 E5.41855
G1 X160.741 Y167.959 E5.42552
G1 X160.424 Y168.233 E5.43249
G1 X160.061 Y168.442 E5.43945
G1 X159.664 Y168.578 E5.44643
G1 X159.151 Y168.639 E5.45502
G1 X141.676 Y168.639 E5.74563
G1 X141.676 Y171.439 E5.7922
G1 X141.636 Y171.856 E5.79916
G1 X141.518 Y172.258 E5.80613
G1 X141.325 Y172.63 E5.8131
G1 X141.066 Y172.959 E5.82006
G1 X140.749 Y173.233 E5.82703
G1 X140.386 Y173.442 E5.834
G1 X139.989 Y173.578 E5.84098
G1 X139.476 Y173.639 E5.84957
G1 X124.151 Y173.639 E6.10442
G1 X123.734 Y173.599 E6.11139
G1 X123.332 Y173.481 E6.11836
G1 X122.96 Y173.288 E6.12533
G1 X122.631 Y173.029 E6.13229
G1 X122.357 Y172.712 E6.13926
G1 X122.148 Y172.349 E6.14622
G1 X122.012 Y171.952 E6.1532
G1 X121.951 Y171.439 E6.16179
G1 X121.951 Y147.439 E6.56092
G1 X121.991 Y147.022 E6.56788
G1 X122.109 Y146.62 E6.57485
G1 X122.302 Y146.248 E6.58182
G1 X122.561 Y145.919 E6.58878
M205 X30 Y30
G0 F3600 X122.954 Y146.094
M205 X15 Y15
G1 F1500 X123.263 Y145.874 E6.59509
G1 X123.61 Y145.722 E6.60139
G1 X124.151 Y145.639 E6.61049
G1 X137.586 Y145.639 E6.83392
G1 X138.323 Y145.797 E6.84645
G1 X138.65 Y145.987 E6.85274
G1 X138.931 Y146.242 E6.85905
G1 X139.151 Y146.551 E6.86536
G1 X139.303 Y146.898 E6.87166
G1 X139.386 Y147.439 E6.88076
G1 X139.386 Y150.639 E6.93398
G1 X159.151 Y150.639 E7.26267
G1 X159.528 Y150.679 E7.26898
G1 X159.888 Y150.797 E7.27528
G1 X160.215 Y150.987 E7.28157
G1 X160.496 Y151.242 E7.28788
G1 X160.716 Y151.551 E7.29418
G1 X160.868 Y151.898 E7.30048
G1 X160.951 Y152.439 E7.30959
G1 X160.951 Y166.439 E7.54241
G1 X160.911 Y166.816 E7.54871
G1 X160.793 Y167.176 E7.55501
G1 X160.603 Y167.503 E7.5613
G1 X160.348 Y167.784 E7.56761
G1 X160.039 Y168.004 E7.57392
G1 X159.692 Y168.156 E7.58022
G1 X159.151 Y168.239 E7.58932
G1 X141.276 Y168.239 E7.88658
G1 X141.276 Y171.439 E7.9398
G1 X141.236 Y171.816 E7.94611
G1 X141.118 Y172.176 E7.95241
G1 X140.928 Y172.503 E7.95869
G1 X140.673 Y172.784 E7.965
G1 X140.364 Y173.004 E7.97131
G1 X140.017 Y173.156 E7.97761
G1 X139.476 Y173.239 E7.98672
G1 X124.151 Y173.239 E8.24157
G1 X123.774 Y173.199 E8.24788
G1 X123.414 Y173.081 E8.25418
G1 X123.087 Y172.891 E8.26047
G1 X122.806 Y172.636 E8.26678
G1 X122.586 Y172.327 E8.27308
G1 X122.434 Y171.98 E8.27938
G1 X122.351 Y171.439 E8.28849
G1 X122.351 Y147.439 E8.68761
G1 X122.391 Y147.062 E8.69391
G1 X122.509 Y146.702 E8.70021
G1 X122.699 Y146.375 E8.7065
G1 X122.954 Y146.094 E8.71281
M205 X30 Y30
G0 F3600 X123.096 Y146.518
M205 X15 Y15
G1 F1500 X123.344 Y146.295 E8.71836
G1 X123.638 Y146.136 E8.72392
G1 X124.151 Y146.039 E8.7326
G1 X137.586 Y146.039 E8.95602
G1 X138.23 Y146.196 E8.96705
G1 X138.507 Y146.384 E8.97262
G1 X138.73 Y146.632 E8.97816
G1 X138.889 Y146.926 E8.98372
G1 X138.986 Y147.439 E8.9924
G1 X138.986 Y151.039 E9.05227
G1 X159.151 Y151.039 E9.38762
G1 X159.483 Y151.079 E9.39318
G1 X159.795 Y151.196 E9.39872
G1 X160.072 Y151.384 E9.40429
G1 X160.295 Y151.632 E9.40983
G1 X160.454 Y151.926 E9.41539
G1 X160.551 Y152.439 E9.42407
G1 X160.551 Y166.439 E9.65689
G1 X160.511 Y166.771 E9.66245
G1 X160.394 Y167.083 E9.668
G1 X160.206 Y167.36 E9.67356
G1 X159.958 Y167.583 E9.67911
G1 X159.664 Y167.742 E9.68467
G1 X159.151 Y167.839 E9.69335
G1 X140.876 Y167.839 E9.99727
G1 X140.876 Y171.439 E10.05713
G1 X140.836 Y171.771 E10.06269
G1 X140.719 Y172.083 E10.06824
G1 X140.531 Y172.36 E10.0738
G1 X140.283 Y172.583 E10.07935
G1 X139.989 Y172.742 E10.08491
G1 X139.476 Y172.839 E10.09359
G1 X124.151 Y172.839 E10.34845
G1 X123.819 Y172.799 E10.35401
G1 X123.507 Y172.682 E10.35955
G1 X123.23 Y172.494 E10.36512
G1 X123.007 Y172.246 E10.37066
G1 X122.848 Y171.952 E10.37622
G1 X122.751 Y171.439 E10.3849
G1 X122.751 Y147.439 E10.78403
G1 X122.791 Y147.107 E10.78959
G1 X122.908 Y146.795 E10.79513
G1 X123.096 Y146.518 E10.80069
M205 X30 Y30
G0 F3600 X123.49 Y146.688
M205 X15 Y15
G1 F1500 X123.726 Y146.534 E10.80538
G1 X124.151 Y146.439 E10.81262
G1 X137.586 Y146.439 E11.03605
G1 X138.122 Y146.595 E11.04533
G1 X138.337 Y146.778 E11.05003
G1 X138.491 Y147.014 E11.05471
G1 X138.586 Y147.439 E11.06196
G1 X138.586 Y151.439 E11.12848
G1 X159.151 Y151.439 E11.47047
G1 X159.43 Y151.479 E11.47516
G1 X159.687 Y151.595 E11.47985
G1 X159.902 Y151.778 E11.48455
G1 X160.056 Y152.014 E11.48923
G1 X160.151 Y152.439 E11.49647
G1 X160.151 Y166.439 E11.72929
G1 X160.111 Y166.718 E11.73398
G1 X159.995 Y166.975 E11.73867
G1 X159.812 Y167.19 E11.74337
G1 X159.576 Y167.344 E11.74805
G1 X159.151 Y167.439 E11.75529
G1 X140.476 Y167.439 E12.06586
G1 X140.476 Y171.439 E12.13238
G1 X140.436 Y171.718 E12.13707
G1 X140.32 Y171.975 E12.14176
G1 X140.137 Y172.19 E12.14645
G1 X139.901 Y172.344 E12.15114
G1 X139.476 Y172.439 E12.15838
G1 X124.151 Y172.439 E12.41324
G1 X123.872 Y172.399 E12.41792
G1 X123.615 Y172.283 E12.42261
G1 X123.4 Y172.1 E12.42731
G1 X123.246 Y171.864 E12.432
G1 X123.151 Y171.439 E12.43924
G1 X123.151 Y147.439 E12.83836
G1 X123.191 Y147.16 E12.84305
G1 X123.307 Y146.903 E12.84774
G1 X123.49 Y146.688 E12.85243
M205 X30 Y30
G0 F3600 X123.704 Y147.038
M205 X15 Y15
G1 F1500 X123.877 Y146.905 E12.85606
G1 X124.151 Y146.839 E12.86075
G1 X137.586 Y146.839 E13.08417
G1 X137.987 Y146.992 E13.09131
G1 X138.12 Y147.165 E13.09494
G1 X138.186 Y147.439 E13.09963
G1 X138.186 Y151.839 E13.1728
G1 X159.151 Y151.839 E13.52145
G1 X159.366 Y151.879 E13.52508
G1 X159.552 Y151.992 E13.5287
G1 X159.685 Y152.165 E13.53233
G1 X159.751 Y152.439 E13.53702
G1 X159.751 Y166.439 E13.76984
G1 X159.711 Y166.654 E13.77348
G1 X159.598 Y166.84 E13.7771
G1 X159.425 Y166.973 E13.78073
G1 X159.151 Y167.039 E13.78541
G1 X140.076 Y167.039 E14.10263
G1 X140.076 Y171.439 E14.1758
G1 X140.036 Y171.654 E14.17944
G1 X139.923 Y171.84 E14.18306
G1 X139.75 Y171.973 E14.18669
G1 X139.476 Y172.039 E14.19137
G1 X124.151 Y172.039 E14.44623
G1 X123.936 Y171.999 E14.44987
G1 X123.75 Y171.886 E14.45349
G1 X123.617 Y171.713 E14.45712
G1 X123.551 Y171.439 E14.4618
G1 X123.551 Y147.439 E14.86092
G1 X123.591 Y147.224 E14.86456
G1 X123.704 Y147.038 E14.86818
M205 X30 Y30
G0 F3600 X123.99 Y147.32
M205 X15 Y15
G1 F1500 X124.151 Y147.239 E14.87118
G1 X137.586 Y147.239 E15.0946
G1 X137.705 Y147.278 E15.09669
G1 X137.786 Y147.439 E15.09968
G1 X137.786 Y152.239 E15.17951
G1 X159.151 Y152.239 E15.53481
G1 X159.27 Y152.278 E15.53689
G1 X159.351 Y152.439 E15.53989
G1 X159.351 Y166.439 E15.77271
G1 X159.312 Y166.558 E15.77479
G1 X159.151 Y166.639 E15.77779
G1 X139.676 Y166.639 E16.10166
G1 X139.676 Y171.439 E16.18148
G1 X139.637 Y171.558 E16.18357
G1 X139.476 Y171.639 E16.18656
G1 X124.151 Y171.639 E16.44142
G1 X124.032 Y171.6 E16.4435
G1 X123.951 Y171.439 E16.4465
G1 X123.951 Y147.439 E16.84562
G1 X123.99 Y147.32 E16.8477
M205 X30 Y30
G1 F1200 E13.3477
G1 F120 Z1.1
;MESH:fixation.stl
G0 F3600 X139.276 Y166.239 Z1.1
M205 X15 Y15
;TYPE:WALL-OUTER
G1 F120 Z0.1
G1 F1200 E16.8477
G1 F1500 X139.276 Y171.239 E16.93085
G1 X124.351 Y171.239 E17.17906
G1 X124.351 Y147.639 E17.57153
G1 X137.386 Y147.639 E17.7883
G1 X137.386 Y152.639 E17.87145
G1 X158.951 Y152.639 E18.23008
G1 X158.951 Y166.239 E18.45625
G1 X139.276 Y166.239 E18.78344
M205 X30 Y30
G0 F3600 X139.276 Y166.439
G0 X138.836 Y166.439
G0 X138.776 Y166.439
G0 X129.147 Y154.516
G0 X129.357 Y153.88
M205 X15 Y15
G1 F1500 X129.53 Y154.293 E18.79089
G1 X129.801 Y154.645 E18.79828
G1 X130.15 Y154.913 E18.80559
G1 X130.561 Y155.083 E18.81299
G1 X131.001 Y155.141 E18.82037
G1 X131.445 Y155.082 E18.82782
G1 X131.855 Y154.91 E18.83521
G1 X132.207 Y154.639 E18.8426
G1 X132.476 Y154.286 E18.84998
G1 X132.645 Y153.877 E18.85734
G1 X132.703 Y153.436 E18.86474
G1 X132.644 Y152.995 E18.87214
G1 X132.472 Y152.585 E18.87953
G1 X132.201 Y152.234 E18.88691
G1 X131.848 Y151.964 E18.8943
G1 X131.438 Y151.796 E18.90167
G1 X130.998 Y151.737 E18.90905
G1 X130.561 Y151.796 E18.91638
G1 X130.15 Y151.965 E18.92377
G1 X129.797 Y152.236 E18.93117
G1 X129.527 Y152.588 E18.93855
G1 X129.357 Y152.999 E18.94595
G1 X129.3 Y153.435 E18.95326
G1 X129.357 Y153.88 E18.96072
M205 X30 Y30
G0 F3600 X129.434 Y154.064
G0 X128.967 Y153.985
M205 X15 Y15
;TYPE:WALL-INNER
G1 F1500 X129.181 Y154.496 E18.96993
G1 X129.516 Y154.93 E18.97905
G1 X129.948 Y155.262 E18.98811
G1 X130.457 Y155.473 E18.99727
G1 X131.001 Y155.544 E19.0064
G1 X131.551 Y155.471 E19.01562
G1 X132.058 Y155.259 E19.02476
G1 X132.493 Y154.924 E19.03389
G1 X132.826 Y154.487 E19.04303
G1 X133.035 Y153.981 E19.05214
G1 X133.107 Y153.436 E19.06128
G1 X133.033 Y152.889 E19.07046
G1 X132.821 Y152.382 E19.0796
G1 X132.486 Y151.948 E19.08871
G1 X132.049 Y151.614 E19.09786
G1 X131.542 Y151.406 E19.10697
G1 X130.998 Y151.333 E19.1161
G1 X130.456 Y151.406 E19.1252
G1 X129.949 Y151.615 E19.13432
G1 X129.512 Y151.951 E19.14348
G1 X129.178 Y152.386 E19.1526
G1 X128.967 Y152.895 E19.16177
G1 X128.897 Y153.434 E19.17081
G1 X128.967 Y153.985 E19.18004
M205 X30 Y30
G0 F3600 X128.577 Y154.089
M205 X15 Y15
G1 F1500 X128.832 Y154.699 E19.19104
G1 X129.231 Y155.216 E19.2019
G1 X129.746 Y155.611 E19.21269
G1 X130.353 Y155.863 E19.22362
G1 X131.001 Y155.947 E19.23449
G1 X131.656 Y155.861 E19.24547
G1 X132.261 Y155.608 E19.25638
G1 X132.779 Y155.209 E19.26725
G1 X133.176 Y154.688 E19.27815
G1 X133.425 Y154.085 E19.289
G1 X133.511 Y153.435 E19.2999
G1 X133.422 Y152.783 E19.31084
G1 X133.17 Y152.179 E19.32173
G1 X132.771 Y151.662 E19.33259
G1 X132.25 Y151.264 E19.34349
G1 X131.646 Y151.016 E19.35435
G1 X130.998 Y150.929 E19.36522
G1 X130.351 Y151.016 E19.37608
G1 X129.747 Y151.265 E19.38694
G1 X129.227 Y151.666 E19.39786
G1 X128.829 Y152.184 E19.40873
G1 X128.577 Y152.791 E19.41966
G1 X128.494 Y153.433 E19.43042
G1 X128.577 Y154.089 E19.44142
M205 X30 Y30
G0 F3600 X128.861 Y165.942
G0 X129.357 Y165.88
M205 X15 Y15
;TYPE:WALL-OUTER
G1 F1500 X129.53 Y166.293 E19.44886
G1 X129.801 Y166.645 E19.45625
G1 X130.15 Y166.913 E19.46357
G1 X130.561 Y167.083 E19.47097
G1 X131.001 Y167.141 E19.47835
G1 X131.445 Y167.082 E19.4858
G1 X131.855 Y166.91 E19.49319
G1 X132.207 Y166.639 E19.50058
G1 X132.476 Y166.286 E19.50796
G1 X132.645 Y165.877 E19.51532
G1 X132.703 Y165.436 E19.52271
G1 X132.644 Y164.995 E19.53011
G1 X132.472 Y164.585 E19.53751
G1 X132.201 Y164.234 E19.54488
G1 X131.848 Y163.964 E19.55227
G1 X131.438 Y163.796 E19.55964
G1 X130.998 Y163.737 E19.56702
G1 X130.561 Y163.796 E19.57436
G1 X130.15 Y163.965 E19.58175
G1 X129.797 Y164.236 E19.58915
G1 X129.527 Y164.588 E19.59653
G1 X129.357 Y164.999 E19.60392
G1 X129.3 Y165.435 E19.61123
G1 X129.357 Y165.88 E19.6187
