;FLAVOR:Marlin
;TIME:15075
;Filament used: 10.8406m
;Layer height: 0.15
;MINX:55.449
;MINY:54.949
;MINZ:0.1
;MAXX:161.551
;MAXY:155.051
;MAXZ:16.9
;Generated with Cura_SteamEngine 4.5.0
M140 S69
M105
M190 S69
M82 ;absolute extrusion mode
;Gcode by Cura
G90
M106 S255
G28 X Y
M109 R195
G28
M104 S190
G29
M107
G1 X100 Y10 F3000
G1 Z0.5
M109 S190
M82
G92 E0
G1 F200 E10
G92 E0
G1 Z3
G1 F6000
G92 E0
G92 E0
G1 F1200 E-3.5
;LAYER_COUNT:113
;LAYER:0
M106 S255
M205 X30 Y30
G1 F120 Z1.1
G0 F3600 X56.4 Y55.808 Z1.1
M205 X15 Y15
;TYPE:SKIRT
G1 F120 Z0.1
G1 F1200 E0
G1 F1500 X56.776 Y55.495 E0.00814
G1 X57.198 Y55.247 E0.01628
G1 X57.655 Y55.071 E0.02442
G1 X58.135 Y54.972 E0.03257
G1 X153.499 Y54.949 E1.61848
G1 X159.068 Y55.045 E1.71111
G1 X159.541 Y55.169 E1.71924
G1 X159.989 Y55.367 E1.72738
G1 X160.398 Y55.636 E1.73553
G1 X160.757 Y55.968 E1.74366
G1 X161.058 Y56.354 E1.7518
G1 X161.293 Y56.784 E1.75995
G1 X161.454 Y57.246 E1.76808
G1 X161.55 Y58 E1.78072
G1 X161.551 Y152 E3.34395
G1 X161.511 Y152.488 E3.35209
G1 X161.392 Y152.963 E3.36024
G1 X161.198 Y153.412 E3.36837
G1 X160.933 Y153.824 E3.37652
G1 X160.6 Y154.192 E3.38477
G1 X160.224 Y154.505 E3.39291
G1 X159.802 Y154.753 E3.40105
G1 X159.345 Y154.929 E3.40919
G1 X158.865 Y155.028 E3.41734
G1 X63.501 Y155.051 E5.00325
G1 X58.5 Y155.05 E5.08642
G1 X58.012 Y155.01 E5.09456
G1 X57.537 Y154.891 E5.1027
G1 X57.088 Y154.697 E5.11084
G1 X56.676 Y154.432 E5.11898
G1 X56.329 Y154.121 E5.12673
G1 X56.012 Y153.748 E5.13487
G1 X55.76 Y153.328 E5.14302
G1 X55.58 Y152.873 E5.15116
G1 X55.476 Y152.395 E5.15929
G1 X55.45 Y152 E5.16587
G1 X55.449 Y58 E6.7291
G1 X55.489 Y57.512 E6.73724
G1 X55.608 Y57.037 E6.74539
G1 X55.802 Y56.588 E6.75352
G1 X56.067 Y56.176 E6.76167
G1 X56.4 Y55.808 E6.76992
M205 X30 Y30
G0 F3600 X56.629 Y56.143
M205 X15 Y15
G1 F1500 X57.032 Y55.804 E6.77868
G1 X57.429 Y55.581 E6.78625
G1 X57.859 Y55.43 E6.79383
G1 X58.5 Y55.35 E6.80457
G1 X153.499 Y55.349 E8.38441
G1 X159.03 Y55.445 E8.47641
G1 X159.468 Y55.568 E8.48397
G1 X159.879 Y55.765 E8.49155
G1 X160.249 Y56.032 E8.49914
G1 X160.566 Y56.358 E8.5067
G1 X160.822 Y56.736 E8.51429
G1 X161.008 Y57.152 E8.52187
G1 X161.118 Y57.594 E8.52945
G1 X161.15 Y58 E8.53622
G1 X161.151 Y152 E10.09945
G1 X161.111 Y152.454 E10.10703
G1 X160.993 Y152.894 E10.1146
G1 X160.799 Y153.306 E10.12217
G1 X160.371 Y153.857 E10.13378
G1 X159.968 Y154.196 E10.14253
G1 X159.571 Y154.419 E10.15011
G1 X159.141 Y154.57 E10.15769
G1 X158.5 Y154.65 E10.16843
G1 X63.501 Y154.651 E11.74827
G1 X58.5 Y154.65 E11.83144
G1 X58.046 Y154.61 E11.83901
G1 X57.606 Y154.492 E11.84659
G1 X57.194 Y154.298 E11.85416
G1 X56.662 Y153.888 E11.86533
G1 X56.319 Y153.489 E11.87408
G1 X56.092 Y153.094 E11.88166
G1 X55.937 Y152.666 E11.88923
G1 X55.85 Y152 E11.9004
G1 X55.849 Y58 E13.46363
G1 X55.889 Y57.546 E13.47121
G1 X56.007 Y57.106 E13.47878
G1 X56.201 Y56.694 E13.48635
G1 X56.629 Y56.143 E13.49796
M205 X30 Y30
G0 F3600 X56.96 Y56.379
M205 X15 Y15
G1 F1500 X57.286 Y56.116 E13.50492
G1 X57.656 Y55.919 E13.51189
G1 X58.056 Y55.795 E13.51886
G1 X58.5 Y55.75 E13.52628
G1 X153.499 Y55.749 E15.10612
G1 X158.989 Y55.844 E15.19743
G1 X159.39 Y55.967 E15.20441
G1 X159.76 Y56.163 E15.21137
G1 X160.086 Y56.425 E15.21833
G1 X160.357 Y56.745 E15.2253
G1 X160.562 Y57.111 E15.23228
G1 X160.694 Y57.508 E15.23923
G1 X160.75 Y58 E15.24747
G1 X160.751 Y152 E16.81069
G1 X160.711 Y152.417 E16.81766
G1 X160.593 Y152.819 E16.82463
G1 X160.4 Y153.191 E16.8316
G1 X160.04 Y153.621 E16.84092
G1 X159.714 Y153.884 E16.84789
G1 X159.344 Y154.081 E16.85486
G1 X158.944 Y154.205 E16.86182
G1 X158.5 Y154.25 E16.86925
G1 X63.501 Y154.251 E18.44909
G1 X58.5 Y154.25 E18.53225
G1 X58.083 Y154.21 E18.53922
G1 X57.681 Y154.092 E18.54619
G1 X57.309 Y153.899 E18.55316
G1 X56.894 Y153.556 E18.56211
G1 X56.628 Y153.232 E18.56908
G1 X56.427 Y152.865 E18.57604
G1 X56.3 Y152.465 E18.58302
G1 X56.25 Y152 E18.5908
G1 X56.249 Y58 E20.15402
G1 X56.289 Y57.583 E20.16099
G1 X56.407 Y57.181 E20.16796
G1 X56.6 Y56.809 E20.17493
G1 X56.96 Y56.379 E20.18425
M205 X30 Y30
G0 F3600 X57.24 Y56.665
M205 X15 Y15
G1 F1500 X57.537 Y56.429 E20.19056
G1 X57.877 Y56.261 E20.19687
G1 X58.244 Y56.168 E20.20316
G1 X153.499 Y56.149 E21.78726
G1 X158.945 Y56.244 E21.87784
G1 X159.304 Y56.365 E21.88414
G1 X159.629 Y56.559 E21.89044
G1 X159.907 Y56.817 E21.89674
G1 X160.124 Y57.127 E21.90304
G1 X160.272 Y57.476 E21.90934
G1 X160.35 Y58 E21.91815
G1 X160.351 Y152 E23.48138
G1 X160.311 Y152.377 E23.48768
G1 X160.193 Y152.737 E23.49398
G1 X160.003 Y153.064 E23.50027
G1 X159.76 Y153.335 E23.50633
G1 X159.463 Y153.571 E23.51263
G1 X159.123 Y153.739 E23.51894
G1 X158.756 Y153.832 E23.52524
G1 X63.501 Y153.851 E25.10933
G1 X58.5 Y153.85 E25.1925
G1 X58.123 Y153.81 E25.19881
G1 X57.763 Y153.692 E25.20511
G1 X57.436 Y153.502 E25.2114
G1 X57.177 Y153.273 E25.21715
G1 X56.939 Y152.978 E25.22345
G1 X56.768 Y152.64 E25.22975
G1 X56.671 Y152.274 E25.23604
G1 X56.649 Y58 E26.80383
G1 X56.689 Y57.623 E26.81013
G1 X56.807 Y57.263 E26.81643
G1 X56.997 Y56.936 E26.82272
G1 X57.24 Y56.665 E26.82878
M205 X30 Y30
G0 F3600 X57.52 Y56.95
M205 X15 Y15
G1 F1500 X57.785 Y56.747 E26.83433
G1 X58.09 Y56.611 E26.83988
G1 X58.5 Y56.55 E26.84677
G1 X153.499 Y56.549 E28.42661
G1 X158.895 Y56.643 E28.51636
G1 X159.207 Y56.764 E28.52193
G1 X159.481 Y56.955 E28.52748
G1 X159.702 Y57.205 E28.53303
G1 X159.858 Y57.501 E28.5386
G1 X159.95 Y58 E28.54703
G1 X159.951 Y152 E30.11026
G1 X159.911 Y152.332 E30.11582
G1 X159.794 Y152.644 E30.12136
G1 X159.48 Y153.05 E30.1299
G1 X159.215 Y153.253 E30.13545
G1 X158.91 Y153.389 E30.141
G1 X158.5 Y153.45 E30.1479
G1 X63.501 Y153.451 E31.72774
G1 X58.5 Y153.45 E31.8109
G1 X58.168 Y153.41 E31.81646
G1 X57.856 Y153.293 E31.82201
G1 X57.46 Y152.99 E31.8303
G1 X57.254 Y152.727 E31.83585
G1 X57.115 Y152.423 E31.84141
G1 X57.05 Y152 E31.84853
G1 X57.049 Y58 E33.41176
G1 X57.089 Y57.668 E33.41732
G1 X57.206 Y57.356 E33.42286
G1 X57.52 Y56.95 E33.43139
M205 X30 Y30
G0 F3600 X57.8 Y57.236
M205 X15 Y15
G1 F1500 X58.027 Y57.069 E33.43608
G1 X58.292 Y56.972 E33.44077
G1 X153.499 Y56.949 E35.02407
G1 X158.839 Y57.043 E35.11289
G1 X159.095 Y57.161 E35.11758
G1 X159.307 Y57.347 E35.12227
G1 X159.46 Y57.585 E35.12697
G1 X159.55 Y58 E35.13404
G1 X159.551 Y152 E36.69726
G1 X159.511 Y152.279 E36.70195
G1 X159.395 Y152.536 E36.70664
G1 X159.2 Y152.764 E36.71163
G1 X158.973 Y152.931 E36.71631
G1 X158.708 Y153.028 E36.72101
G1 X63.501 Y153.051 E38.30431
G1 X58.5 Y153.05 E38.38747
G1 X58.221 Y153.01 E38.39216
G1 X57.964 Y152.894 E38.39685
G1 X57.743 Y152.707 E38.40166
G1 X57.574 Y152.481 E38.40636
G1 X57.474 Y152.217 E38.41105
G1 X57.449 Y58 E39.97789
G1 X57.489 Y57.721 E39.98257
G1 X57.605 Y57.464 E39.98726
G1 X57.8 Y57.236 E39.99225
M205 X30 Y30
G0 F3600 X58.08 Y57.522
M205 X15 Y15
G1 F1500 X58.261 Y57.4 E39.99588
G1 X58.5 Y57.35 E39.99994
G1 X153.499 Y57.349 E41.57978
G1 X158.77 Y57.442 E41.66745
G1 X158.955 Y57.557 E41.67108
G1 X159.087 Y57.732 E41.67472
G1 X159.15 Y58 E41.6793
G1 X159.151 Y152 E43.24253
G1 X159.111 Y152.215 E43.24616
G1 X158.92 Y152.478 E43.25157
G1 X158.739 Y152.6 E43.2552
G1 X158.5 Y152.65 E43.25926
G1 X63.501 Y152.651 E44.8391
G1 X58.5 Y152.65 E44.92227
G1 X58.285 Y152.61 E44.9259
G1 X58.026 Y152.424 E44.93121
G1 X57.902 Y152.245 E44.93483
G1 X57.85 Y152 E44.93899
G1 X57.849 Y58 E46.50222
G1 X57.889 Y57.785 E46.50585
G1 X58.08 Y57.522 E46.51126
M205 X30 Y30
G0 F3600 X58.36 Y57.807
M205 X15 Y15
G1 F1500 X58.5 Y57.75 E46.51377
G1 X153.499 Y57.749 E48.09361
G1 X158.67 Y57.84 E48.17962
G1 X158.75 Y58 E48.1826
G1 X158.751 Y152 E49.74582
G1 X158.64 Y152.193 E49.74953
G1 X158.5 Y152.25 E49.75204
G1 X63.501 Y152.251 E51.33188
G1 X58.5 Y152.25 E51.41505
G1 X58.309 Y152.141 E51.4187
G1 X58.25 Y152 E51.42124
G1 X58.249 Y58 E52.98447
G1 X58.36 Y57.807 E52.98817
M205 X30 Y30
G1 F1200 E49.48817
G1 F120 Z1.1
;MESH:Frame_SmartLCD12864.stl
G0 F3600 X158.151 Y151.85 Z1.1
M205 X15 Y15
;TYPE:WALL-OUTER
G1 F120 Z0.1
G1 F1200 E52.98817
G1 F1500 X63.501 Y151.851 E54.56221
G1 X58.65 Y151.85 E54.64288
G1 X58.649 Y58.35 E56.19779
G1 X58.649 Y58.15 E56.20112
G1 X58.849 Y58.15 E56.20327
G1 X153.499 Y58.149 E57.77731
G1 X158.35 Y58.15 E57.85798
G1 X158.351 Y151.65 E59.41289
G1 X158.351 Y151.85 E59.41622
G1 X158.151 Y151.85 E59.41837
M205 X30 Y30
G0 F3600 X157.951 Y151.85
G0 X157.91 Y151.409
G0 X157.85 Y151.408
G0 X127.5 Y142.689
G0 X68.622 Y121.628
G0 X69.05 Y121.2
M205 X15 Y15
G1 F1500 X148.15 Y121.2 E60.73381
G1 X148.15 Y69.653 E61.59104
G1 X148.133 Y69.4 E61.59526
G1 X69.433 Y69.4 E62.90404
G1 X69.05 Y69.41 E62.91042
G1 X69.05 Y121.2 E63.77169
M205 X30 Y30
G0 F3600 X69.25 Y121.2
G0 X68.65 Y121.6
M205 X15 Y15
;TYPE:WALL-INNER
G1 F1500 X148.55 Y121.6 E65.10043
G1 X148.55 Y69.64 E65.96453
G1 X148.507 Y69 E65.97519
G1 X69.428 Y69 E67.29028
G1 X68.65 Y69.02 E67.30323
G1 X68.65 Y121.6 E68.17763
M205 X30 Y30
G0 F3600 X68.25 Y122
M205 X15 Y15
G1 F1500 X148.95 Y122 E69.51968
G1 X148.95 Y69.627 E70.39065
G1 X148.881 Y68.6 E70.40777
G1 X69.423 Y68.6 E71.72916
G1 X68.25 Y68.63 E71.74867
G1 X68.25 Y122 E72.63622
M205 X30 Y30
G0 F3600 X67.925 Y135.967
G0 X68.812 Y138.183
G0 X69.149 Y137.85
M205 X15 Y15
;TYPE:WALL-OUTER
G1 F1500 X71 Y138.616 E72.66953
G1 X72.85 Y137.85 E72.70283
G1 X73.616 Y136 E72.73613
G1 X72.864 Y134.18 E72.76888
G1 X71.032 Y133.397 E72.80201
G1 X69.269 Y134.1 E72.83357
G1 X69.149 Y134.152 E72.83575
G1 X68.397 Y135.97 E72.86847
G1 X69.149 Y137.85 E72.90214
M205 X30 Y30
G0 F3600 X69.333 Y137.926
G0 X68.84 Y138.155
M205 X15 Y15
;TYPE:WALL-INNER
G1 F1500 X71 Y139.049 E72.94102
G1 X73.156 Y138.156 E72.97982
G1 X74.049 Y136 E73.01863
G1 X73.171 Y133.876 E73.05685
G1 X71.037 Y132.964 E73.09545
G1 X69.115 Y133.731 E73.12986
G1 X68.841 Y133.849 E73.13482
G1 X67.965 Y135.967 E73.17294
G1 X68.84 Y138.155 E73.21213
M205 X30 Y30
G0 F3600 X68.531 Y138.46
M205 X15 Y15
G1 F1500 X71 Y139.482 E73.25656
G1 X73.462 Y138.462 E73.30088
G1 X74.482 Y136 E73.3452
G1 X73.478 Y133.572 E73.38889
G1 X71.042 Y132.531 E73.43295
G1 X68.962 Y133.361 E73.47019
G1 X68.533 Y133.546 E73.47796
G1 X67.533 Y135.964 E73.52148
G1 X68.531 Y138.46 E73.56618
M205 X30 Y30
G0 F3600 X71 Y139.089
G0 X109.197 Y140.756
G0 X109.697 Y140.763
M205 X15 Y15
;TYPE:WALL-OUTER
G1 F1500 X111.206 Y141.966 E73.59827
G1 X113.085 Y141.538 E73.63032
G1 X113.922 Y139.8 E73.6624
G1 X113.1 Y138.091 E73.69394
G1 X111.238 Y137.64 E73.7258
G1 X109.723 Y138.814 E73.75767
G1 X109.697 Y140.763 E73.79009
M205 X30 Y30
G0 F3600 X109.853 Y140.887
G0 X109.294 Y140.954
M205 X15 Y15
;TYPE:WALL-INNER
G1 F1500 X111.107 Y142.399 E73.82864
G1 X113.362 Y141.885 E73.86711
G1 X114.366 Y139.8 E73.90559
G1 X113.378 Y137.747 E73.94348
G1 X111.145 Y137.206 E73.98169
G1 X109.326 Y138.616 E74.01996
G1 X109.294 Y140.954 E74.05885
M205 X30 Y30
G0 F3600 X108.891 Y141.145
M205 X15 Y15
G1 F1500 X111.008 Y142.832 E74.10386
G1 X113.639 Y142.232 E74.14874
G1 X114.81 Y139.8 E74.19363
G1 X113.656 Y137.403 E74.23787
G1 X111.052 Y136.772 E74.28243
G1 X108.929 Y138.418 E74.3271
G1 X108.891 Y141.145 E74.37246
M205 X30 Y30
G0 F3600 X111.099 Y142.437
G0 X124.323 Y139.303
G0 X124.783 Y139.499
M205 X15 Y15
;TYPE:WALL-OUTER
G1 F1500 X125.579 Y141.421 E74.40705
G1 X127.5 Y142.216 E74.44163
G1 X129.421 Y141.421 E74.4762
G1 X130.216 Y139.5 E74.51078
G1 X129.42 Y137.578 E74.54537
G1 X127.501 Y136.783 E74.57991
G1 X125.744 Y137.51 E74.61154
G1 X125.578 Y137.58 E74.61453
G1 X124.854 Y139.332 E74.64606
G1 X124.783 Y139.499 E74.64908
M205 X30 Y30
G0 F3600 X124.859 Y139.683
G0 X124.349 Y139.497
M205 X15 Y15
;TYPE:WALL-INNER
G1 F1500 X125.273 Y141.727 E74.68922
G1 X127.5 Y142.649 E74.7293
G1 X129.727 Y141.727 E74.76939
G1 X130.649 Y139.5 E74.80947
G1 X129.726 Y137.272 E74.84957
G1 X127.501 Y136.35 E74.88963
G1 X125.59 Y137.141 E74.92402
G1 X125.271 Y137.275 E74.92978
G1 X124.486 Y139.175 E74.96396
G1 X124.349 Y139.497 E74.96978
M205 X30 Y30
G0 F3600 X123.915 Y139.495
M205 X15 Y15
G1 F1500 X124.967 Y142.033 E75.01547
G1 X127.5 Y143.082 E75.06107
G1 X130.033 Y142.033 E75.10666
G1 X131.082 Y139.5 E75.15225
G1 X130.032 Y136.966 E75.19787
G1 X127.501 Y135.917 E75.24343
G1 X125.436 Y136.772 E75.2806
G1 X124.964 Y136.97 E75.28911
G1 X124.118 Y139.018 E75.32596
G1 X123.915 Y139.495 E75.33458
M205 X30 Y30
G0 F3600 X125.245 Y141.755
G0 X127.5 Y142.689
G0 X140.417 Y141.204
G0 X140.916 Y141.206
M205 X15 Y15
;TYPE:WALL-OUTER
G1 F1500 X141.852 Y142.989 E75.36807
G1 X143.509 Y144.133 E75.40156
G1 X145.507 Y144.375 E75.43503
G1 X147.389 Y143.662 E75.46849
G1 X148.724 Y142.155 E75.50198
G1 X149.206 Y140.2 E75.53546
G1 X148.731 Y138.266 E75.56858
G1 X147.404 Y136.754 E75.60203
G1 X145.527 Y136.033 E75.63547
G1 X143.53 Y136.264 E75.6689
G1 X141.869 Y137.399 E75.70236
G1 X140.926 Y139.175 E75.7358
G1 X140.916 Y141.206 E75.76958
M205 X30 Y30
G0 F3600 X141.008 Y141.383
G0 X140.516 Y141.304
M205 X15 Y15
;TYPE:WALL-INNER
G1 F1500 X141.544 Y143.262 E75.80635
G1 X143.363 Y144.518 E75.84311
G1 X145.557 Y144.784 E75.87987
G1 X147.623 Y144.001 E75.91661
G1 X149.089 Y142.346 E75.95338
G1 X149.618 Y140.2 E75.99013
G1 X149.096 Y138.076 E76.02651
G1 X147.64 Y136.416 E76.06323
G1 X145.579 Y135.624 E76.09995
G1 X143.386 Y135.878 E76.13666
G1 X141.562 Y137.124 E76.17339
G1 X140.526 Y139.074 E76.21012
G1 X140.516 Y141.304 E76.2472
M205 X30 Y30
G0 F3600 X140.116 Y141.402
M205 X15 Y15
G1 F1500 X141.236 Y143.535 E76.28727
G1 X143.217 Y144.903 E76.3273
G1 X145.607 Y145.193 E76.36734
G1 X147.857 Y144.34 E76.40736
G1 X149.454 Y142.537 E76.44741
G1 X150.03 Y140.2 E76.48744
G1 X149.461 Y137.886 E76.52707
G1 X147.876 Y136.078 E76.56705
G1 X145.631 Y135.215 E76.60705
G1 X143.242 Y135.492 E76.64704
G1 X141.255 Y136.849 E76.68706
G1 X140.126 Y138.973 E76.72706
G1 X140.116 Y141.402 E76.76746
M205 X30 Y30
G0 F3600 X141.515 Y143.288
G0 X143.165 Y144.428
G0 X157.881 Y151.38
G0 X157.951 Y151.45
M205 X15 Y15
G1 F1500 X157.752 Y151.45 E76.77077
G1 X63.501 Y151.451 E78.33817
G1 X59.05 Y151.45 E78.41219
G1 X59.049 Y58.749 E79.95381
G1 X59.049 Y58.55 E79.95712
G1 X59.248 Y58.55 E79.95926
G1 X153.499 Y58.549 E81.52666
G1 X157.95 Y58.55 E81.60068
G1 X157.951 Y151.251 E83.14231
G1 X157.951 Y151.45 E83.14445
M205 X30 Y30
G0 F3600 X157.551 Y151.05
M205 X15 Y15
G1 F1500 X157.352 Y151.05 E83.14776
G1 X63.501 Y151.051 E84.7085
G1 X59.45 Y151.05 E84.77587
G1 X59.449 Y59.149 E86.30419
G1 X59.449 Y58.95 E86.3075
G1 X59.648 Y58.95 E86.30964
G1 X153.499 Y58.949 E87.87039
G1 X157.55 Y58.95 E87.93776
G1 X157.551 Y150.851 E89.46608
G1 X157.551 Y151.05 E89.46822
M205 X30 Y30
G0 F3600 X157.161 Y150.66
M205 X15 Y15
;TYPE:SKIN
G1 F1500 X63.501 Y150.661 E91.02579
G1 X59.84 Y150.66 E91.08668
G1 X59.839 Y59.34 E92.60533
G1 X153.499 Y59.339 E94.16291
G1 X157.16 Y59.34 E94.22379
G1 X157.161 Y150.66 E95.74245
M205 X30 Y30
G0 F3600 X149.809 Y142.724
M205 X15 Y15
G1 F1500 X150.432 Y140.2 E95.78568
G1 X149.817 Y137.701 E95.82848
G1 X148.106 Y135.748 E95.87166
G1 X145.682 Y134.817 E95.91484
G1 X143.102 Y135.116 E95.95803
G1 X140.956 Y136.581 E96.00124
G1 X139.736 Y138.875 E96.04445
G1 X139.726 Y141.497 E96.08806
G1 X140.936 Y143.802 E96.13135
G1 X143.075 Y145.279 E96.17458
G1 X145.656 Y145.591 E96.21781
G1 X148.085 Y144.671 E96.26101
G1 X149.809 Y142.724 E96.30426
M205 X30 Y30
G0 F3600 X147.645 Y144.033
G0 X145.561 Y144.823
G0 X143.349 Y144.555
G0 X131.504 Y139.5
M205 X15 Y15
G1 F1500 X130.33 Y136.668 E96.35524
G1 X127.501 Y135.495 E96.40617
G1 X125.286 Y136.411 E96.44603
G1 X124.666 Y136.672 E96.45722
G1 X123.758 Y138.867 E96.49672
