;FLAVOR:Marlin
;TIME:9538
;Filament used: 4.92343m
;Layer height: 0.15
;MINX:62.65
;MINY:73.549
;MINZ:0.1
;MAXX:154.551
;MAXY:136.451
;MAXZ:9.95
;Generated with Cura_SteamEngine 4.4.0
M140 S65
M105
M190 S65
M104 S197
M105
M109 S197
M82 ;absolute extrusion mode
;FLAVOR:Marlin
;TIME:14262
;Filament used: 9.7911m
;Layer height: 0.15
;MINX:3.359
;MINY:57.703
;MINZ:0.05
;MAXX:193.586
;MAXY:152.285
;MAXZ:5.85
;Generated with Cura_SteamEngine 4.4.0
M140 S62
M105
M190 S62
M82 ;absolute extrusion mode
;Gcode by Cura
G90
M106 S255
G28
M104 S195
M107
G1 X100 Y20 F3000
G1 Z0.5
M109 S195
M82
G92 E0
G1 F200 E10
G92 E0
G1 Z3
G1 F6000
G92 E0
G92 E0
G1 F1200 E-3
G92 E0
G92 E0
G1 F1200 E-1
;LAYER_COUNT:60
;LAYER:0
M106 S255
M205 X30 Y30
G1 F180 Z1.1
G0 F4800 X63.244 Y73.806 Z1.1
M205 X15 Y15
;TYPE:SKIRT
G1 F180 Z0.1
G1 F1200 E0
G1 X63.538 Y73.647 E0.00639
G1 X63.862 Y73.563 E0.01279
G1 X64.051 Y73.55 E0.01642
G1 X119.614 Y73.549 E1.07904
G1 X153.151 Y73.55 E1.72042
G1 X153.483 Y73.59 E1.72681
G1 X153.796 Y73.707 E1.7332
G1 X154.072 Y73.895 E1.73959
G1 X154.295 Y74.143 E1.74597
G1 X154.454 Y74.437 E1.75236
G1 X154.538 Y74.761 E1.75876
G1 X154.551 Y74.95 E1.76238
G1 X154.551 Y135.05 E2.91177
G1 X154.511 Y135.382 E2.91817
G1 X154.394 Y135.694 E2.92454
G1 X154.206 Y135.971 E2.93094
G1 X153.958 Y136.194 E2.93732
G1 X153.664 Y136.353 E2.94371
G1 X153.34 Y136.437 E2.95011
G1 X153.151 Y136.45 E2.95374
G1 X141.939 Y136.45 E3.16816
G1 X86.426 Y136.451 E4.22982
G1 X64.051 Y136.45 E4.65774
G1 X63.719 Y136.41 E4.66413
G1 X63.407 Y136.293 E4.6705
G1 X63.13 Y136.105 E4.67691
G1 X62.907 Y135.857 E4.68328
G1 X62.748 Y135.563 E4.68968
G1 X62.664 Y135.239 E4.69608
G1 X62.651 Y135.05 E4.6997
G1 X62.65 Y80.309 E5.7466
G1 X62.651 Y74.95 E5.84909
G1 X62.691 Y74.618 E5.85548
G1 X62.808 Y74.306 E5.86186
G1 X62.996 Y74.029 E5.86826
G1 X63.244 Y73.806 E5.87464
M205 X30 Y30
G0 F4800 X63.39 Y74.199
M205 X15 Y15
G1 F1200 X63.626 Y74.045 E5.88003
G1 X63.896 Y73.962 E5.88543
G1 X64.051 Y73.95 E5.8884
G1 X119.614 Y73.949 E6.95102
G1 X153.151 Y73.95 E7.5924
G1 X153.43 Y73.99 E7.59779
G1 X153.687 Y74.106 E7.60318
G1 X153.902 Y74.289 E7.60858
G1 X154.056 Y74.525 E7.61397
G1 X154.139 Y74.795 E7.61938
G1 X154.151 Y74.95 E7.62235
G1 X154.151 Y135.05 E8.77174
G1 X154.111 Y135.329 E8.77713
G1 X153.995 Y135.586 E8.78252
G1 X153.812 Y135.801 E8.78792
G1 X153.576 Y135.955 E8.79331
G1 X153.306 Y136.038 E8.79871
G1 X153.151 Y136.05 E8.80168
G1 X141.939 Y136.05 E9.01611
G1 X86.426 Y136.051 E10.07777
G1 X64.051 Y136.05 E10.50568
G1 X63.772 Y136.01 E10.51107
G1 X63.515 Y135.894 E10.51647
G1 X63.3 Y135.711 E10.52186
G1 X63.146 Y135.475 E10.52725
G1 X63.063 Y135.205 E10.53266
G1 X63.051 Y135.05 E10.53563
G1 X63.05 Y80.309 E11.58253
G1 X63.051 Y74.95 E11.68502
G1 X63.091 Y74.671 E11.69041
G1 X63.207 Y74.414 E11.6958
G1 X63.39 Y74.199 E11.7012
M205 X30 Y30
G0 F4800 X63.777 Y74.416
M205 X15 Y15
G1 F1200 X64.051 Y74.35 E11.70659
G1 X119.614 Y74.349 E12.76921
G1 X153.151 Y74.35 E13.41059
G1 X153.366 Y74.39 E13.41477
G1 X153.552 Y74.503 E13.41893
G1 X153.685 Y74.676 E13.42311
G1 X153.751 Y74.95 E13.4285
G1 X153.751 Y135.05 E14.57788
G1 X153.711 Y135.265 E14.58207
G1 X153.598 Y135.451 E14.58623
G1 X153.425 Y135.584 E14.5904
G1 X153.151 Y135.65 E14.59579
G1 X141.939 Y135.65 E14.81022
G1 X86.426 Y135.651 E15.87188
G1 X64.051 Y135.65 E16.29979
G1 X63.836 Y135.61 E16.30397
G1 X63.65 Y135.497 E16.30814
G1 X63.517 Y135.324 E16.31231
G1 X63.451 Y135.05 E16.3177
G1 X63.45 Y80.309 E17.3646
G1 X63.451 Y74.95 E17.46709
G1 X63.491 Y74.735 E17.47127
G1 X63.604 Y74.549 E17.47543
G1 X63.777 Y74.416 E17.4796
M205 X30 Y30
G0 F4800 X63.89 Y74.831
M205 X15 Y15
G1 F1200 X64.051 Y74.75 E17.48305
G1 X119.614 Y74.749 E18.54567
G1 X153.151 Y74.75 E19.18705
G1 X153.27 Y74.789 E19.18945
G1 X153.351 Y74.95 E19.19289
G1 X153.351 Y135.05 E20.34228
G1 X153.312 Y135.169 E20.34467
G1 X153.151 Y135.25 E20.34812
G1 X141.939 Y135.25 E20.56255
G1 X86.426 Y135.251 E21.62421
G1 X64.051 Y135.25 E22.05212
G1 X63.932 Y135.211 E22.05452
G1 X63.851 Y135.05 E22.05796
G1 X63.85 Y80.309 E23.10486
G1 X63.851 Y74.95 E23.20735
G1 X63.89 Y74.831 E23.20974
M205 X30 Y30
G1 F1200 E22.20974
G1 F180 Z1.1
G0 F4800 X144.784 Y93.322 Z1.1
M205 X15 Y15
G1 F180 Z0.1
G1 F1200 E23.20974
G1 X144.784 Y116.42 E23.65148
G1 X148.382 Y116.42 E23.72029
G1 X148.382 Y93.322 E24.16203
G1 X144.784 Y93.322 E24.23084
M205 X30 Y30
G0 F4800 X144.384 Y92.922
M205 X15 Y15
G1 F1200 X144.384 Y116.82 E24.68788
G1 X148.782 Y116.82 E24.77199
G1 X148.782 Y92.922 E25.22903
G1 X144.384 Y92.922 E25.31314
M205 X30 Y30
G0 F4800 X143.984 Y92.522
M205 X15 Y15
G1 F1200 X143.984 Y117.22 E25.78548
G1 X149.182 Y117.22 E25.88489
G1 X149.182 Y92.522 E26.35723
G1 X143.984 Y92.522 E26.45664
M205 X30 Y30
G0 F4800 X143.584 Y92.122
M205 X15 Y15
G1 F1200 X143.584 Y117.62 E26.94428
G1 X149.582 Y117.62 E27.05899
G1 X149.582 Y92.122 E27.54663
G1 X143.584 Y92.122 E27.66133
M205 X30 Y30
G1 F1200 E26.66133
G1 F180 Z1.1
G0 F4800 X85.25 Y118.982 Z1.1
M205 X15 Y15
G1 F180 Z0.1
G1 F1200 E27.66133
G1 X85.25 Y127.041 E27.81546
G1 X91.829 Y133.62 E27.9934
G1 X145.203 Y133.62 E29.01415
G1 X145.203 Y125.122 E29.17667
G1 X99.532 Y125.121 E30.05011
G1 X99.391 Y125.062 E30.05303
G1 X93.309 Y118.982 E30.2175
G1 X85.25 Y118.982 E30.37163
M205 X30 Y30
G0 F4800 X85.65 Y119.382
M205 X15 Y15
G1 F1200 X85.65 Y126.875 E30.51493
G1 X91.995 Y133.22 E30.68654
G1 X144.803 Y133.22 E31.69647
G1 X144.803 Y125.522 E31.84369
G1 X99.532 Y125.521 E32.70948
G1 X99.317 Y125.481 E32.71366
G1 X99.108 Y125.345 E32.71843
G1 X93.143 Y119.382 E32.87973
G1 X85.65 Y119.382 E33.02303
M205 X30 Y30
G0 F4800 X86.05 Y119.782
M205 X15 Y15
G1 F1200 X86.05 Y126.709 E33.15551
G1 X92.161 Y132.82 E33.32079
G1 X144.403 Y132.82 E34.31989
G1 X144.403 Y125.922 E34.45181
G1 X99.532 Y125.921 E35.30995
G1 X99.253 Y125.881 E35.31534
G1 X98.996 Y125.765 E35.32074
G1 X98.825 Y125.628 E35.32493
G1 X92.977 Y119.782 E35.48307
G1 X86.05 Y119.782 E35.61554
M205 X30 Y30
G0 F4800 X86.45 Y120.182
M205 X15 Y15
G1 F1200 X86.45 Y126.543 E35.73719
G1 X92.327 Y132.42 E35.89614
G1 X144.003 Y132.42 E36.88443
G1 X144.003 Y126.322 E37.00105
G1 X99.532 Y126.321 E37.85154
G1 X99.2 Y126.281 E37.85793
G1 X98.887 Y126.164 E37.86432
G1 X98.542 Y125.911 E37.8725
G1 X92.811 Y120.182 E38.02748
G1 X86.45 Y120.182 E38.14913
M205 X30 Y30
G1 F1200 E37.14913
G1 F180 Z1.1
G0 F4800 X108.417 Y110.94 Z1.1
M205 X15 Y15
G1 F180 Z0.1
G1 F1200 E38.14913
G1 X108.435 Y111.121 E38.15261
G1 X108.572 Y111.957 E38.16881
G1 X108.779 Y112.852 E38.18638
G1 X109.032 Y113.685 E38.20303
G1 X109.343 Y114.512 E38.21993
G1 X109.711 Y115.322 E38.23694
G1 X110.107 Y116.063 E38.25301
G1 X110.581 Y116.521 E38.26561
G1 X111.15 Y117.014 E38.28001
G1 X111.7 Y117.439 E38.29331
G1 X112.28 Y117.835 E38.30674
G1 X112.852 Y118.181 E38.31952
G1 X113.452 Y118.501 E38.33253
G1 X114.063 Y118.783 E38.3454
G1 X114.663 Y119.02 E38.35773
G1 X115.288 Y119.227 E38.37032
G1 X115.916 Y119.397 E38.38277
G1 X116.512 Y119.521 E38.39441
G1 X117.133 Y119.614 E38.40642
G1 X117.729 Y119.67 E38.41787
G1 X118.335 Y119.692 E38.42946
G1 X118.929 Y119.679 E38.44083
G1 X119.499 Y119.635 E38.45176
G1 X120.074 Y119.556 E38.46286
G1 X120.597 Y119.454 E38.47305
G1 X121.169 Y119.309 E38.48434
G1 X121.677 Y119.146 E38.49454
G1 X122.19 Y118.949 E38.50505
G1 X122.665 Y118.734 E38.51502
G1 X123.13 Y118.489 E38.52507
G1 X123.556 Y118.233 E38.53458
G1 X123.969 Y117.949 E38.54416
G1 X124.366 Y117.641 E38.55377
G1 X124.725 Y117.325 E38.56292
G1 X125.37 Y116.648 E38.5808
G1 X125.909 Y115.925 E38.59805
G1 X126.339 Y115.173 E38.61461
G1 X126.66 Y114.404 E38.63055
G1 X126.874 Y113.636 E38.6458
G1 X126.983 Y112.882 E38.66037
G1 X126.996 Y112.155 E38.67427
G1 X126.917 Y111.467 E38.68752
G1 X126.759 Y110.842 E38.69985
G1 X126.523 Y110.249 E38.71205
G1 X126.07 Y109.519 E38.72848
G1 X125.684 Y109.086 E38.73958
G1 X125.284 Y108.761 E38.74943
G1 X124.862 Y108.514 E38.75879
G1 X124.415 Y108.343 E38.76794
G1 X124.368 Y108.334 E38.76885
G1 X124.471 Y108.605 E38.7744
G1 X124.482 Y108.649 E38.77527
G1 X124.565 Y109.26 E38.78706
G1 X124.871 Y109.544 E38.79504
G1 X124.892 Y109.567 E38.79564
G1 X125.2 Y109.955 E38.80511
G1 X125.217 Y109.98 E38.80569
G1 X125.469 Y110.422 E38.81542
G1 X125.482 Y110.45 E38.81601
G1 X125.677 Y110.964 E38.82652
G1 X125.685 Y110.992 E38.82708
G1 X125.809 Y111.56 E38.8382
G1 X125.814 Y111.589 E38.83876
G1 X125.855 Y112.183 E38.85015
G1 X125.855 Y112.21 E38.85067
G1 X125.814 Y112.84 E38.86274
G1 X125.81 Y112.868 E38.86328
G1 X125.671 Y113.531 E38.87624
G1 X125.663 Y113.557 E38.87676
G1 X125.426 Y114.225 E38.89031
G1 X125.416 Y114.249 E38.89081
G1 X125.074 Y114.915 E38.90513
G1 X125.061 Y114.938 E38.90563
G1 X124.625 Y115.57 E38.92032
G1 X124.609 Y115.59 E38.92081
G1 X124.071 Y116.189 E38.9362
G1 X124.053 Y116.206 E38.93668
G1 X123.419 Y116.755 E38.95272
G1 X123.399 Y116.77 E38.95319
G1 X122.671 Y117.257 E38.96995
G1 X122.65 Y117.27 E38.97042
G1 X121.84 Y117.678 E38.98776
G1 X121.818 Y117.687 E38.98822
G1 X120.928 Y118.008 E39.00631
G1 X120.905 Y118.015 E39.00677
G1 X119.953 Y118.236 E39.02546
G1 X119.935 Y118.239 E39.02581
G1 X119.434 Y118.306 E39.03548
G1 X119.423 Y118.307 E39.03569
G1 X118.912 Y118.347 E39.04549
G1 X118.9 Y118.348 E39.04572
G1 X118.381 Y118.358 E39.05565
G1 X118.369 Y118.358 E39.05588
G1 X117.839 Y118.337 E39.06602
G1 X117.827 Y118.336 E39.06625
G1 X117.29 Y118.283 E39.07657
G1 X117.279 Y118.282 E39.07678
G1 X116.737 Y118.197 E39.08728
G1 X116.725 Y118.194 E39.08751
G1 X116.179 Y118.074 E39.0982
G1 X116.168 Y118.072 E39.09842
G1 X115.624 Y117.92 E39.10922
G1 X115.614 Y117.916 E39.10943
G1 X115.071 Y117.731 E39.1204
G1 X115.059 Y117.727 E39.12064
G1 X114.516 Y117.503 E39.13187
G1 X114.506 Y117.499 E39.13208
G1 X113.971 Y117.245 E39.1434
G1 X113.96 Y117.239 E39.14364
G1 X113.431 Y116.947 E39.1552
G1 X113.422 Y116.942 E39.1554
G1 X112.904 Y116.618 E39.16708
G1 X112.894 Y116.611 E39.16732
G1 X112.387 Y116.252 E39.1792
G1 X112.378 Y116.245 E39.17941
G1 X111.884 Y115.85 E39.19151
G1 X111.876 Y115.843 E39.19171
G1 X111.4 Y115.418 E39.20392
G1 X111.391 Y115.41 E39.20415
G1 X110.933 Y114.95 E39.21656
G1 X110.926 Y114.942 E39.21677
G1 X110.489 Y114.451 E39.22934
G1 X110.481 Y114.442 E39.22957
G1 X110.066 Y113.919 E39.24234
G1 X110.06 Y113.91 E39.24254
G1 X109.669 Y113.357 E39.25549
G1 X109.662 Y113.348 E39.25571
G1 X109.3 Y112.765 E39.26884
G1 X109.295 Y112.756 E39.26903
G1 X108.96 Y112.148 E39.28231
G1 X108.955 Y112.138 E39.28252
G1 X108.652 Y111.507 E39.29591
G1 X108.647 Y111.496 E39.29614
G1 X108.417 Y110.94 E39.30765
M205 X30 Y30
G1 F1200 E38.30765
G1 F180 Z1.1
G0 F4800 X122.16 Y106.584 Z1.1
M205 X15 Y15
G1 F180 Z0.1
G1 F1200 E39.30765
G1 X122.448 Y106.631 E39.31323
G1 X122.492 Y106.643 E39.3141
G1 X123.063 Y106.876 E39.3259
G1 X123.458 Y106.755 E39.3338
G1 X123.487 Y106.748 E39.33437
G1 X123.98 Y106.674 E39.3439
G1 X124.011 Y106.672 E39.34449
G1 X124.521 Y106.675 E39.35425
G1 X124.552 Y106.678 E39.35484
G1 X125.097 Y106.766 E39.3654
G1 X125.126 Y106.773 E39.36597
G1 X125.673 Y106.949 E39.37696
G1 X125.7 Y106.959 E39.37751
G1 X126.241 Y107.223 E39.38903
G1 X126.265 Y107.237 E39.38956
G1 X126.792 Y107.591 E39.4017
G1 X126.813 Y107.608 E39.40221
G1 X127.316 Y108.058 E39.41512
G1 X127.335 Y108.077 E39.41564
G1 X127.784 Y108.603 E39.42886
G1 X127.8 Y108.624 E39.42937
G1 X128.213 Y109.261 E39.44389
G1 X128.226 Y109.284 E39.44439
G1 X128.556 Y109.98 E39.45912
G1 X128.565 Y110.004 E39.45961
G1 X128.814 Y110.769 E39.475
G1 X128.82 Y110.793 E39.47547
G1 X128.979 Y111.619 E39.49156
G1 X128.983 Y111.644 E39.49204
G1 X129.041 Y112.514 E39.50872
G1 X129.041 Y112.538 E39.50918
G1 X128.989 Y113.444 E39.52653
G1 X128.986 Y113.468 E39.52699
G1 X128.819 Y114.401 E39.54512
G1 X128.813 Y114.425 E39.54559
G1 X128.527 Y115.359 E39.56428
G1 X128.521 Y115.376 E39.56462
G1 X128.33 Y115.843 E39.57427
G1 X128.325 Y115.853 E39.57448
G1 X128.105 Y116.314 E39.58425
G1 X128.1 Y116.325 E39.58448
G1 X127.848 Y116.782 E39.59446
G1 X127.842 Y116.792 E39.59469
G1 X127.56 Y117.24 E39.60481
G1 X127.553 Y117.25 E39.60504
G1 X127.237 Y117.688 E39.61537
G1 X127.231 Y117.697 E39.61558
G1 X126.886 Y118.125 E39.62609
G1 X126.878 Y118.134 E39.62632
G1 X126.503 Y118.546 E39.63698
G1 X126.495 Y118.554 E39.63719
G1 X126.092 Y118.95 E39.648
G1 X126.083 Y118.958 E39.64823
G1 X125.649 Y119.335 E39.65922
G1 X125.64 Y119.342 E39.65944
G1 X125.176 Y119.701 E39.67066
G1 X125.167 Y119.708 E39.67088
G1 X124.679 Y120.044 E39.68221
G1 X124.669 Y120.05 E39.68243
G1 X124.153 Y120.362 E39.69397
G1 X124.144 Y120.368 E39.69417
G1 X123.602 Y120.655 E39.7059
G1 X123.591 Y120.66 E39.70613
G1 X123.028 Y120.918 E39.71798
G1 X123.018 Y120.922 E39.71818
G1 X122.43 Y121.153 E39.73027
G1 X122.419 Y121.157 E39.73049
G1 X121.811 Y121.357 E39.74273
G1 X121.801 Y121.36 E39.74293
G1 X121.175 Y121.527 E39.75532
G1 X121.163 Y121.53 E39.75556
G1 X120.517 Y121.663 E39.76817
G1 X120.506 Y121.665 E39.76838
G1 X119.846 Y121.763 E39.78114
G1 X119.835 Y121.764 E39.78136
G1 X119.161 Y121.825 E39.7943
G1 X119.15 Y121.826 E39.79451
G1 X118.464 Y121.85 E39.80764
G1 X118.453 Y121.85 E39.80785
G1 X117.761 Y121.835 E39.82109
G1 X117.75 Y121.834 E39.8213
G1 X117.052 Y121.781 E39.83468
G1 X117.041 Y121.78 E39.8349
G1 X116.44 Y121.7 E39.84649
G1 X116.608 Y121.776 E39.85002
G1 X117.43 Y122.086 E39.86682
G1 X118.268 Y122.341 E39.88357
G1 X119.163 Y122.55 E39.90115
G1 X119.998 Y122.685 E39.91732
G1 X120.877 Y122.771 E39.93421
G1 X121.727 Y122.799 E39.95048
G1 X122.362 Y122.618 E39.96311
G1 X123.043 Y122.381 E39.9769
G1 X123.718 Y122.105 E39.99084
G1 X124.335 Y121.808 E40.00394
G1 X124.932 Y121.479 E40.01698
G1 X125.515 Y121.117 E40.0301
G1 X126.05 Y120.741 E40.04261
G1 X126.049 Y120.74 E40.04263
G1 X126.572 Y120.324 E40.05541
G1 X127.056 Y119.894 E40.06779
G1 X127.507 Y119.444 E40.07998
G1 X127.919 Y118.983 E40.0918
G1 X128.305 Y118.499 E40.10364
G1 X128.66 Y118 E40.11535
G1 X128.982 Y117.485 E40.12697
G1 X129.261 Y116.977 E40.13805
G1 X129.516 Y116.442 E40.14939
G1 X129.728 Y115.926 E40.16006
G1 X129.913 Y115.388 E40.17094
G1 X130.072 Y114.819 E40.18224
G1 X130.181 Y114.31 E40.19219
G1 X130.265 Y113.779 E40.20247
G1 X130.316 Y113.262 E40.21241
G1 X130.337 Y112.735 E40.22249
G1 X130.327 Y112.226 E40.23223
G1 X130.289 Y111.739 E40.24157
G1 X130.22 Y111.24 E40.25121
G1 X130.125 Y110.769 E40.2604
G1 X129.862 Y109.875 E40.27822
G1 X129.505 Y109.045 E40.2955
G1 X129.065 Y108.291 E40.31219
G1 X128.565 Y107.636 E40.32795
G1 X128.007 Y107.067 E40.34319
G1 X127.404 Y106.592 E40.35787
G1 X126.784 Y106.219 E40.37171
G1 X126.151 Y105.944 E40.38491
G1 X125.533 Y105.769 E40.39719
G1 X124.899 Y105.677 E40.40945
G1 X124.043 Y105.701 E40.42582
G1 X123.468 Y105.823 E40.43706
G1 X122.987 Y106.006 E40.44691
G1 X122.565 Y106.246 E40.45619
G1 X122.19 Y106.549 E40.46541
G1 X122.16 Y106.584 E40.46629
M205 X30 Y30
G1 F1200 E39.46629
G1 F180 Z1.1
G0 F4800 X120.123 Y104.797 Z1.1
M205 X15 Y15
G1 F180 Z0.1
G1 F1200 E40.46629
G1 X119.72 Y105.551 E40.48264
G1 X119.537 Y106.106 E40.49382
G1 X119.454 Y106.614 E40.50366
G1 X119.45 Y107.11 E40.51315
G1 X119.524 Y107.567 E40.522
G1 X119.542 Y107.619 E40.52306
G1 X119.726 Y107.394 E40.52861
G1 X119.759 Y107.363 E40.52948
G1 X120.246 Y106.986 E40.54126
G1 X120.338 Y106.582 E40.54918
G1 X120.347 Y106.554 E40.54975
G1 X120.529 Y106.09 E40.55928
G1 X120.543 Y106.061 E40.55989
G1 X120.801 Y105.623 E40.56962
G1 X120.818 Y105.599 E40.57018
G1 X121.167 Y105.17 E40.58075
G1 X121.188 Y105.148 E40.58134
G1 X121.614 Y104.761 E40.59234
G1 X121.636 Y104.743 E40.59289
G1 X122.136 Y104.406 E40.60442
G1 X122.16 Y104.392 E40.60495
G1 X122.73 Y104.113 E40.61709
G1 X122.756 Y104.103 E40.61762
G1 X123.397 Y103.894 E40.63051
G1 X123.423 Y103.887 E40.63103
G1 X124.106 Y103.761 E40.64431
G1 X124.131 Y103.758 E40.64479
G1 X124.885 Y103.718 E40.65923
G1 X124.912 Y103.719 E40.65975
G1 X125.68 Y103.782 E40.67449
G1 X125.705 Y103.785 E40.67497
G1 X126.495 Y103.952 E40.69041
G1 X126.52 Y103.959 E40.69091
G1 X127.312 Y104.234 E40.70694
G1 X127.334 Y104.244 E40.7074
G1 X128.116 Y104.629 E40.72407
G1 X128.138 Y104.641 E40.72455
