;FLAVOR:Marlin
;TIME:405
;Filament used: 0.29696m
;Layer height: 0.15
;MINX:87.7
;MINY:87.7
;MINZ:0.2
;MAXX:123.3
;MAXY:123.3
;MAXZ:2
;Generated with Cura_SteamEngine 4.4.0
M82 ;absolute extrusion mode
;Gcode by Cura
G90
;M106 S255
G28
M104 S210
M107
G1 X100 Y20 F3000
G1 Z0.5
M109 S210
M82
G92 E0
G1 F200 E10
G92 E0
G1 Z3
G1 F6000

G92 E0
G92 E0
G1 F3000 E-3.5
;LAYER_COUNT:13
;LAYER:0
M107
M205 X30 Y30
G1 F600 Z1.2
G0 F3600 X100.227 Y92.344 Z1.2
M205 X20 Y20
;TYPE:SKIRT
G1 F600 Z0.2
G1 F3000 E0
G1 F1800 X100.344 Y92.227 E0.0055
G1 X100.639 Y91.989 E0.01811
G1 X100.977 Y91.818 E0.03071
G1 X101.343 Y91.721 E0.0433
G1 X101.617 Y91.7 E0.05244
G1 X105.383 Y91.7 E0.1777
G1 X105.76 Y91.74 E0.19031
G1 X106.12 Y91.858 E0.20291
G1 X106.447 Y92.048 E0.21549
G1 X106.656 Y92.227 E0.22464
G1 X106.773 Y92.344 E0.23014
G1 X107.011 Y92.639 E0.24275
G1 X107.182 Y92.977 E0.25535
G1 X107.279 Y93.343 E0.26794
G1 X107.3 Y93.617 E0.27708
G1 X107.3 Y93.7 E0.27984
G1 X109.383 Y93.7 E0.34912
G1 X109.76 Y93.74 E0.36173
G1 X110.12 Y93.858 E0.37433
G1 X110.447 Y94.048 E0.38691
G1 X110.505 Y94.097 E0.38944
G1 X110.639 Y93.989 E0.39516
G1 X110.977 Y93.818 E0.40776
G1 X111.343 Y93.721 E0.42036
G1 X111.617 Y93.7 E0.4295
G1 X111.7 Y93.7 E0.43226
G1 X111.7 Y93.617 E0.43502
G1 X111.74 Y93.24 E0.44763
G1 X111.858 Y92.88 E0.46023
G1 X112.048 Y92.553 E0.47281
G1 X112.227 Y92.344 E0.48196
G1 X112.344 Y92.227 E0.48746
G1 X112.639 Y91.989 E0.50007
G1 X112.977 Y91.818 E0.51267
G1 X113.343 Y91.721 E0.52526
G1 X113.617 Y91.7 E0.5344
G1 X113.7 Y91.7 E0.53716
G1 X113.7 Y89.617 E0.60644
G1 X113.74 Y89.24 E0.61905
G1 X113.858 Y88.88 E0.63165
G1 X114.048 Y88.553 E0.64423
G1 X114.227 Y88.344 E0.65338
G1 X114.344 Y88.227 E0.65889
G1 X114.639 Y87.989 E0.67149
G1 X114.977 Y87.818 E0.68409
G1 X115.343 Y87.721 E0.69668
G1 X115.617 Y87.7 E0.70582
G1 X121.383 Y87.7 E0.8976
G1 X121.76 Y87.74 E0.91021
G1 X122.12 Y87.858 E0.92281
G1 X122.447 Y88.048 E0.93539
G1 X122.656 Y88.227 E0.94454
G1 X122.773 Y88.344 E0.95005
G1 X123.011 Y88.639 E0.96265
G1 X123.182 Y88.977 E0.97525
G1 X123.279 Y89.343 E0.98785
G1 X123.3 Y89.617 E0.99699
G1 X123.3 Y95.383 E1.18876
G1 X123.26 Y95.76 E1.20137
G1 X123.142 Y96.12 E1.21397
G1 X122.952 Y96.447 E1.22655
G1 X122.773 Y96.656 E1.2357
G1 X122.656 Y96.773 E1.24121
G1 X122.361 Y97.011 E1.25382
G1 X122.023 Y97.182 E1.26641
G1 X121.657 Y97.279 E1.27901
G1 X121.383 Y97.3 E1.28815
G1 X119.3 Y97.3 E1.35743
G1 X119.3 Y97.383 E1.36019
G1 X119.26 Y97.76 E1.3728
G1 X119.142 Y98.12 E1.3854
G1 X118.952 Y98.447 E1.39798
G1 X118.773 Y98.656 E1.40713
G1 X118.656 Y98.773 E1.41263
G1 X118.361 Y99.011 E1.42524
G1 X118.023 Y99.182 E1.43784
G1 X117.657 Y99.279 E1.45043
G1 X117.383 Y99.3 E1.45957
G1 X117.3 Y99.3 E1.46233
G1 X117.3 Y99.383 E1.46509
G1 X117.26 Y99.76 E1.4777
G1 X117.142 Y100.12 E1.4903
G1 X116.952 Y100.447 E1.50288
G1 X116.903 Y100.505 E1.50541
G1 X117.011 Y100.639 E1.51113
G1 X117.182 Y100.977 E1.52373
G1 X117.279 Y101.343 E1.53632
G1 X117.3 Y101.617 E1.54546
G1 X117.3 Y103.7 E1.61474
G1 X117.383 Y103.7 E1.61751
G1 X117.76 Y103.74 E1.63011
G1 X118.12 Y103.858 E1.64272
G1 X118.447 Y104.048 E1.65529
G1 X118.656 Y104.227 E1.66445
G1 X118.773 Y104.344 E1.66995
G1 X119.011 Y104.639 E1.68256
G1 X119.182 Y104.977 E1.69516
G1 X119.279 Y105.343 E1.70775
G1 X119.3 Y105.617 E1.71689
G1 X119.3 Y109.383 E1.84215
G1 X119.26 Y109.76 E1.85476
G1 X119.142 Y110.12 E1.86736
G1 X118.952 Y110.447 E1.87993
G1 X118.773 Y110.656 E1.88909
G1 X118.656 Y110.773 E1.89459
G1 X118.361 Y111.011 E1.9072
G1 X118.023 Y111.182 E1.9198
G1 X117.657 Y111.279 E1.93239
G1 X117.383 Y111.3 E1.94153
G1 X113.617 Y111.3 E2.06679
G1 X113.24 Y111.26 E2.0794
G1 X112.88 Y111.142 E2.092
G1 X112.553 Y110.952 E2.10458
G1 X112.344 Y110.773 E2.11373
G1 X112.227 Y110.656 E2.11923
G1 X111.989 Y110.361 E2.13184
G1 X111.818 Y110.023 E2.14444
G1 X111.721 Y109.657 E2.15703
G1 X111.7 Y109.383 E2.16617
G1 X111.7 Y109.3 E2.16893
G1 X111.617 Y109.3 E2.17169
G1 X111.24 Y109.26 E2.1843
G1 X110.88 Y109.142 E2.1969
G1 X110.553 Y108.952 E2.20948
G1 X110.495 Y108.903 E2.21201
G1 X110.361 Y109.011 E2.21773
G1 X110.023 Y109.182 E2.23033
G1 X109.657 Y109.279 E2.24292
G1 X109.383 Y109.3 E2.25206
G1 X109.3 Y109.3 E2.25482
G1 X109.3 Y109.383 E2.25758
G1 X109.26 Y109.76 E2.27019
G1 X109.142 Y110.12 E2.28279
G1 X108.952 Y110.447 E2.29537
G1 X108.773 Y110.656 E2.30452
G1 X108.656 Y110.773 E2.31003
G1 X108.361 Y111.011 E2.32263
G1 X108.023 Y111.182 E2.33523
G1 X107.657 Y111.279 E2.34783
G1 X107.383 Y111.3 E2.35697
G1 X107.3 Y111.3 E2.35973
G1 X107.3 Y111.383 E2.36249
G1 X107.26 Y111.76 E2.3751
G1 X107.142 Y112.12 E2.3877
G1 X106.952 Y112.447 E2.40028
G1 X106.773 Y112.656 E2.40943
G1 X106.656 Y112.773 E2.41493
G1 X106.361 Y113.011 E2.42754
G1 X106.023 Y113.182 E2.44014
G1 X105.657 Y113.279 E2.45273
G1 X105.383 Y113.3 E2.46187
G1 X105.3 Y113.3 E2.46463
G1 X105.3 Y113.383 E2.46739
G1 X105.26 Y113.76 E2.48
G1 X105.142 Y114.12 E2.4926
G1 X104.952 Y114.447 E2.50518
G1 X104.773 Y114.656 E2.51433
G1 X104.656 Y114.773 E2.51984
G1 X104.361 Y115.011 E2.53244
G1 X104.023 Y115.182 E2.54504
G1 X103.657 Y115.279 E2.55764
G1 X103.383 Y115.3 E2.56678
G1 X103.3 Y115.3 E2.56954
G1 X103.3 Y115.383 E2.5723
G1 X103.26 Y115.76 E2.58491
G1 X103.142 Y116.12 E2.59751
G1 X102.952 Y116.447 E2.61009
G1 X102.773 Y116.656 E2.61924
G1 X102.656 Y116.773 E2.62474
G1 X102.361 Y117.011 E2.63735
G1 X102.023 Y117.182 E2.64995
G1 X101.657 Y117.279 E2.66254
G1 X101.383 Y117.3 E2.67168
G1 X101.3 Y117.3 E2.67444
G1 X101.3 Y117.383 E2.6772
G1 X101.26 Y117.76 E2.68981
G1 X101.142 Y118.12 E2.70241
G1 X100.952 Y118.447 E2.71499
G1 X100.773 Y118.656 E2.72414
G1 X100.656 Y118.773 E2.72965
G1 X100.361 Y119.011 E2.74225
G1 X100.023 Y119.182 E2.75485
G1 X99.657 Y119.279 E2.76745
G1 X99.383 Y119.3 E2.77659
G1 X99.3 Y119.3 E2.77935
G1 X99.3 Y119.383 E2.78211
G1 X99.26 Y119.76 E2.79472
G1 X99.142 Y120.12 E2.80732
G1 X98.952 Y120.447 E2.81989
G1 X98.773 Y120.656 E2.82905
G1 X98.656 Y120.773 E2.83455
G1 X98.361 Y121.011 E2.84716
G1 X98.023 Y121.182 E2.85976
G1 X97.657 Y121.279 E2.87235
G1 X97.383 Y121.3 E2.88149
G1 X97.3 Y121.3 E2.88425
G1 X97.3 Y121.383 E2.88701
G1 X97.26 Y121.76 E2.89962
G1 X97.142 Y122.12 E2.91222
G1 X96.952 Y122.447 E2.9248
G1 X96.773 Y122.656 E2.93395
G1 X96.656 Y122.773 E2.93946
G1 X96.361 Y123.011 E2.95206
G1 X96.023 Y123.182 E2.96466
G1 X95.657 Y123.279 E2.97725
G1 X95.383 Y123.3 E2.98639
G1 X89.617 Y123.3 E3.17817
G1 X89.24 Y123.26 E3.19078
G1 X88.88 Y123.142 E3.20338
G1 X88.553 Y122.952 E3.21596
G1 X88.344 Y122.773 E3.22511
G1 X88.227 Y122.656 E3.23062
G1 X87.989 Y122.361 E3.24322
G1 X87.818 Y122.023 E3.25582
G1 X87.721 Y121.657 E3.26842
G1 X87.7 Y121.383 E3.27756
G1 X87.7 Y115.617 E3.46933
G1 X87.74 Y115.24 E3.48194
G1 X87.858 Y114.88 E3.49454
G1 X88.048 Y114.553 E3.50712
G1 X88.227 Y114.344 E3.51627
G1 X88.344 Y114.227 E3.52178
G1 X88.639 Y113.989 E3.53438
G1 X88.977 Y113.818 E3.54698
G1 X89.343 Y113.721 E3.55958
G1 X89.617 Y113.7 E3.56872
G1 X89.7 Y113.7 E3.57148
G1 X89.7 Y113.617 E3.57424
G1 X89.74 Y113.24 E3.58685
G1 X89.858 Y112.88 E3.59945
G1 X90.048 Y112.553 E3.61203
G1 X90.227 Y112.344 E3.62118
G1 X90.344 Y112.227 E3.62668
G1 X90.639 Y111.989 E3.63929
G1 X90.977 Y111.818 E3.65189
G1 X91.343 Y111.721 E3.66448
G1 X91.617 Y111.7 E3.67362
G1 X91.7 Y111.7 E3.67638
G1 X91.7 Y111.617 E3.67914
G1 X91.74 Y111.24 E3.69175
G1 X91.858 Y110.88 E3.70435
G1 X92.048 Y110.553 E3.71693
G1 X92.227 Y110.344 E3.72608
G1 X92.344 Y110.227 E3.73159
G1 X92.639 Y109.989 E3.74419
G1 X92.977 Y109.818 E3.75679
G1 X93.343 Y109.721 E3.76939
G1 X93.617 Y109.7 E3.77853
G1 X93.7 Y109.7 E3.78129
G1 X93.7 Y109.617 E3.78405
G1 X93.74 Y109.24 E3.79666
G1 X93.858 Y108.88 E3.80926
G1 X94.048 Y108.553 E3.82184
G1 X94.227 Y108.344 E3.83099
G1 X94.344 Y108.227 E3.83649
G1 X94.639 Y107.989 E3.8491
G1 X94.977 Y107.818 E3.8617
G1 X95.343 Y107.721 E3.87429
G1 X95.617 Y107.7 E3.88343
G1 X95.7 Y107.7 E3.88619
G1 X95.7 Y107.617 E3.88895
G1 X95.74 Y107.24 E3.90156
G1 X95.858 Y106.88 E3.91416
G1 X96.048 Y106.553 E3.92674
G1 X96.227 Y106.344 E3.93589
G1 X96.344 Y106.227 E3.9414
G1 X96.639 Y105.989 E3.954
G1 X96.977 Y105.818 E3.9666
G1 X97.343 Y105.721 E3.9792
G1 X97.617 Y105.7 E3.98834
G1 X97.7 Y105.7 E3.9911
G1 X97.7 Y105.617 E3.99386
G1 X97.74 Y105.24 E4.00647
G1 X97.858 Y104.88 E4.01907
G1 X98.048 Y104.553 E4.03164
G1 X98.227 Y104.344 E4.0408
G1 X98.344 Y104.227 E4.0463
G1 X98.639 Y103.989 E4.05891
G1 X98.977 Y103.818 E4.07151
G1 X99.343 Y103.721 E4.0841
G1 X99.617 Y103.7 E4.09324
G1 X99.7 Y103.7 E4.096
G1 X99.7 Y103.617 E4.09876
G1 X99.74 Y103.24 E4.11137
G1 X99.858 Y102.88 E4.12397
G1 X100.048 Y102.553 E4.13655
G1 X100.227 Y102.344 E4.1457
G1 X100.344 Y102.227 E4.15121
G1 X100.639 Y101.989 E4.16381
G1 X100.977 Y101.818 E4.17641
G1 X101.343 Y101.721 E4.189
G1 X101.617 Y101.7 E4.19814
G1 X101.7 Y101.7 E4.2009
G1 X101.7 Y101.617 E4.20367
G1 X101.74 Y101.24 E4.21627
G1 X101.858 Y100.88 E4.22888
G1 X102.048 Y100.553 E4.24145
G1 X102.097 Y100.495 E4.24398
G1 X101.989 Y100.361 E4.2497
G1 X101.818 Y100.023 E4.2623
G1 X101.721 Y99.657 E4.2749
G1 X101.7 Y99.383 E4.28404
G1 X101.7 Y99.3 E4.2868
G1 X101.617 Y99.3 E4.28956
G1 X101.24 Y99.26 E4.30217
G1 X100.88 Y99.142 E4.31477
G1 X100.553 Y98.952 E4.32735
G1 X100.344 Y98.773 E4.3365
G1 X100.227 Y98.656 E4.342
G1 X99.989 Y98.361 E4.35461
G1 X99.818 Y98.023 E4.36721
G1 X99.721 Y97.657 E4.3798
G1 X99.7 Y97.383 E4.38894
G1 X99.7 Y93.617 E4.5142
G1 X99.74 Y93.24 E4.52681
G1 X99.858 Y92.88 E4.53941
G1 X100.048 Y92.553 E4.55199
G1 X100.227 Y92.344 E4.56114
M205 X30 Y30
G0 F3600 X100.51 Y92.627
M205 X20 Y20
G1 F1800 X100.627 Y92.51 E4.56664
G1 X100.89 Y92.304 E4.57775
G1 X101.194 Y92.165 E4.58887
G1 X101.617 Y92.1 E4.60311
G1 X105.383 Y92.1 E4.72836
G1 X105.715 Y92.14 E4.73949
G1 X106.027 Y92.257 E4.75057
G1 X106.373 Y92.51 E4.76482
G1 X106.49 Y92.627 E4.77033
G1 X106.696 Y92.89 E4.78144
G1 X106.835 Y93.194 E4.79256
G1 X106.9 Y93.617 E4.80679
G1 X106.9 Y94.1 E4.82286
G1 X109.383 Y94.1 E4.90544
G1 X109.715 Y94.14 E4.91656
G1 X110.027 Y94.257 E4.92765
G1 X110.373 Y94.51 E4.9419
G1 X110.49 Y94.627 E4.94741
G1 X110.5 Y94.64 E4.94795
G1 X110.51 Y94.627 E4.9485
G1 X110.627 Y94.51 E4.954
G1 X110.89 Y94.304 E4.96511
G1 X111.194 Y94.165 E4.97623
G1 X111.617 Y94.1 E4.99046
G1 X112.1 Y94.1 E5.00653
G1 X112.1 Y93.617 E5.02259
G1 X112.14 Y93.285 E5.03372
G1 X112.257 Y92.973 E5.0448
G1 X112.51 Y92.627 E5.05905
G1 X112.627 Y92.51 E5.06456
G1 X112.89 Y92.304 E5.07567
G1 X113.194 Y92.165 E5.08679
G1 X113.617 Y92.1 E5.10102
G1 X114.1 Y92.1 E5.11709
G1 X114.1 Y89.617 E5.19967
G1 X114.14 Y89.285 E5.21079
G1 X114.257 Y88.973 E5.22188
G1 X114.51 Y88.627 E5.23613
G1 X114.627 Y88.51 E5.24164
G1 X114.89 Y88.304 E5.25275
G1 X115.194 Y88.165 E5.26386
G1 X115.617 Y88.1 E5.2781
G1 X121.383 Y88.1 E5.46988
G1 X121.715 Y88.14 E5.481
G1 X122.027 Y88.257 E5.49208
G1 X122.373 Y88.51 E5.50634
G1 X122.49 Y88.627 E5.51184
G1 X122.696 Y88.89 E5.52295
G1 X122.835 Y89.194 E5.53407
G1 X122.9 Y89.617 E5.5483
G1 X122.9 Y95.383 E5.74008
G1 X122.86 Y95.715 E5.7512
G1 X122.743 Y96.027 E5.76229
G1 X122.49 Y96.373 E5.77654
G1 X122.373 Y96.49 E5.78205
G1 X122.11 Y96.696 E5.79316
G1 X121.806 Y96.835 E5.80428
G1 X121.383 Y96.9 E5.81851
G1 X118.9 Y96.9 E5.9011
G1 X118.9 Y97.383 E5.91716
G1 X118.86 Y97.715 E5.92828
G1 X118.743 Y98.027 E5.93937
G1 X118.49 Y98.373 E5.95362
G1 X118.373 Y98.49 E5.95912
G1 X118.11 Y98.696 E5.97024
G1 X117.806 Y98.835 E5.98135
G1 X117.383 Y98.9 E5.99559
G1 X116.9 Y98.9 E6.01165
G1 X116.9 Y99.383 E6.02772
G1 X116.86 Y99.715 E6.03884
G1 X116.743 Y100.027 E6.04992
G1 X116.49 Y100.373 E6.06418
G1 X116.373 Y100.49 E6.06968
G1 X116.36 Y100.5 E6.07023
G1 X116.373 Y100.51 E6.07077
G1 X116.49 Y100.627 E6.07628
G1 X116.696 Y100.89 E6.08739
G1 X116.835 Y101.194 E6.09851
G1 X116.9 Y101.617 E6.11274
G1 X116.9 Y104.1 E6.19532
G1 X117.383 Y104.1 E6.21139
G1 X117.715 Y104.14 E6.22251
G1 X118.027 Y104.257 E6.23359
G1 X118.373 Y104.51 E6.24785
G1 X118.49 Y104.627 E6.25335
G1 X118.696 Y104.89 E6.26447
G1 X118.835 Y105.194 E6.27558
G1 X118.9 Y105.617 E6.28982
G1 X118.9 Y109.383 E6.41508
G1 X118.86 Y109.715 E6.4262
G1 X118.743 Y110.027 E6.43728
G1 X118.49 Y110.373 E6.45154
G1 X118.373 Y110.49 E6.45704
G1 X118.11 Y110.696 E6.46815
G1 X117.806 Y110.835 E6.47927
G1 X117.383 Y110.9 E6.4935
G1 X113.617 Y110.9 E6.61876
G1 X113.285 Y110.86 E6.62988
G1 X112.973 Y110.743 E6.64097
G1 X112.627 Y110.49 E6.65522
G1 X112.51 Y110.373 E6.66073
G1 X112.304 Y110.11 E6.67184
G1 X112.165 Y109.806 E6.68296
G1 X112.1 Y109.383 E6.69719
G1 X112.1 Y108.9 E6.71325
G1 X111.617 Y108.9 E6.72932
G1 X111.285 Y108.86 E6.74044
G1 X110.973 Y108.743 E6.75152
G1 X110.627 Y108.49 E6.76578
G1 X110.51 Y108.373 E6.77128
G1 X110.5 Y108.36 E6.77183
G1 X110.49 Y108.373 E6.77237
G1 X110.373 Y108.49 E6.77788
G1 X110.11 Y108.696 E6.78899
G1 X109.806 Y108.835 E6.80011
G1 X109.383 Y108.9 E6.81434
G1 X108.9 Y108.9 E6.83041
G1 X108.9 Y109.383 E6.84647
G1 X108.86 Y109.715 E6.85759
G1 X108.743 Y110.027 E6.86868
G1 X108.49 Y110.373 E6.88293
G1 X108.373 Y110.49 E6.88843
G1 X108.11 Y110.696 E6.89955
G1 X107.806 Y110.835 E6.91066
G1 X107.383 Y110.9 E6.9249
G1 X106.9 Y110.9 E6.94096
G1 X106.9 Y111.383 E6.95703
G1 X106.86 Y111.715 E6.96815
G1 X106.743 Y112.027 E6.97923
G1 X106.49 Y112.373 E6.99349
G1 X106.373 Y112.49 E6.99899
G1 X106.11 Y112.696 E7.0101
G1 X105.806 Y112.835 E7.02122
G1 X105.383 Y112.9 E7.03546
G1 X104.9 Y112.9 E7.05152
G1 X104.9 Y113.383 E7.06758
G1 X104.86 Y113.715 E7.07871
G1 X104.743 Y114.027 E7.08979
G1 X104.49 Y114.373 E7.10405
G1 X104.373 Y114.49 E7.10955
G1 X104.11 Y114.696 E7.12066
G1 X103.806 Y114.835 E7.13178
G1 X103.383 Y114.9 E7.14601
G1 X102.9 Y114.9 E7.16208
G1 X102.9 Y115.383 E7.17814
G1 X102.86 Y115.715 E7.18926
G1 X102.743 Y116.027 E7.20035
G1 X102.49 Y116.373 E7.2146
G1 X102.373 Y116.49 E7.22011
G1 X102.11 Y116.696 E7.23122
G1 X101.806 Y116.835 E7.24234
G1 X101.383 Y116.9 E7.25657
G1 X100.9 Y116.9 E7.27264
G1 X100.9 Y117.383 E7.2887
G1 X100.86 Y117.715 E7.29982
G1 X100.743 Y118.027 E7.3109
G1 X100.49 Y118.373 E7.32516
G1 X100.373 Y118.49 E7.33066
G1 X100.11 Y118.696 E7.34178
G1 X99.806 Y118.835 E7.35289
G1 X99.383 Y118.9 E7.36713
G1 X98.9 Y118.9 E7.38319
G1 X98.9 Y119.383 E7.39926
G1 X98.86 Y119.715 E7.41038
G1 X98.743 Y120.027 E7.42146
G1 X98.49 Y120.373 E7.43572
G1 X98.373 Y120.49 E7.44122
G1 X98.11 Y120.696 E7.45233
G1 X97.806 Y120.835 E7.46345
G1 X97.383 Y120.9 E7.47769
G1 X96.9 Y120.9 E7.49375
G1 X96.9 Y121.383 E7.50981
G1 X96.86 Y121.715 E7.52094
G1 X96.743 Y122.027 E7.53202
G1 X96.49 Y122.373 E7.54628
G1 X96.373 Y122.49 E7.55178
G1 X96.11 Y122.696 E7.56289
G1 X95.806 Y122.835 E7.57401
G1 X95.383 Y122.9 E7.58824
G1 X89.617 Y122.9 E7.78002
G1 X89.285 Y122.86 E7.79114
G1 X88.973 Y122.743 E7.80223
G1 X88.627 Y122.49 E7.81648
G1 X88.51 Y122.373 E7.82199
G1 X88.304 Y122.11 E7.8331
G1 X88.165 Y121.806 E7.84421
G1 X88.1 Y121.383 E7.85845
G1 X88.1 Y115.617 E8.05023
G1 X88.14 Y115.285 E8.06135
G1 X88.257 Y114.973 E8.07243
G1 X88.51 Y114.627 E8.08669
G1 X88.627 Y114.51 E8.09219
G1 X88.89 Y114.304 E8.1033
G1 X89.194 Y114.165 E8.11442
G1 X89.617 Y114.1 E8.12865
G1 X90.1 Y114.1 E8.14472
G1 X90.1 Y113.617 E8.16078
G1 X90.14 Y113.285 E8.17191
G1 X90.257 Y112.973 E8.18299
G1 X90.51 Y112.627 E8.19725
G1 X90.627 Y112.51 E8.20275
G1 X90.89 Y112.304 E8.21386
G1 X91.194 Y112.165 E8.22498
G1 X91.617 Y112.1 E8.23921
G1 X92.1 Y112.1 E8.25528
G1 X92.1 Y111.617 E8.27134
G1 X92.14 Y111.285 E8.28246
G1 X92.257 Y110.973 E8.29355
G1 X92.51 Y110.627 E8.3078
G1 X92.627 Y110.51 E8.31331
G1 X92.89 Y110.304 E8.32442
G1 X93.194 Y110.165 E8.33554
G1 X93.617 Y110.1 E8.34977
G1 X94.1 Y110.1 E8.36583
G1 X94.1 Y109.617 E8.3819
G1 X94.14 Y109.285 E8.39302
G1 X94.257 Y108.973 E8.4041
G1 X94.51 Y108.627 E8.41836
G1 X94.627 Y108.51 E8.42386
G1 X94.89 Y108.304 E8.43497
G1 X95.194 Y108.165 E8.44609
G1 X95.617 Y108.1 E8.46033
G1 X96.1 Y108.1 E8.47639
G1 X96.1 Y107.617 E8.49246
G1 X96.14 Y107.285 E8.50358
G1 X96.257 Y106.973 E8.51466
G1 X96.51 Y106.627 E8.52892
G1 X96.627 Y106.51 E8.53442
G1 X96.89 Y106.304 E8.54553
G1 X97.194 Y106.165 E8.55665
