;FLAVOR:Marlin
;TIME:4875
;Filament used: 3.09655m
;Layer height: 0.15
;MINX:77.665
;MINY:76.2
;MINZ:0.1
;MAXX:139.18
;MAXY:133.8
;MAXZ:27.55
;Generated with Cura_SteamEngine 4.5.0
M140 S69
M105
M190 S69
M82 ;absolute extrusion mode
;Gcode by Cura
G90
M106 S255
G28 X Y
M109 R195
G28
M104 S195
G29
M107
G1 X100 Y10 F3000
G1 Z0.5
M109 S195
M82
G92 E0
G1 F200 E10
G92 E0
G1 Z3
G1 X120 Y10
G1 Z0.5
G92 E0
G1 F200 E10
G92 E0
G1 Z3
G1 F6000
G92 E0
G92 E0
G1 F1200 E-3.5
;LAYER_COUNT:184
;LAYER:0
M106 S255
M205 X30 Y30
G1 F120 Z1.1
G0 F3600 X129.085 Y88.845 Z1.1
M205 X15 Y15
;TYPE:SKIRT
G1 F120 Z0.1
G1 F1200 E0
G1 F1500 X129.084 Y124.219 E0.67651
G1 X131.15 Y124.2 E0.71603
G1 X131.151 Y90.744 E1.35586
G1 X131.079 Y90.284 E1.36476
G1 X130.544 Y89.883 E1.37755
G1 X129.972 Y89.467 E1.39108
G1 X129.216 Y88.955 E1.40854
G1 X129.085 Y88.845 E1.41181
M205 X30 Y30
G0 F3600 X129.437 Y88.621
M205 X15 Y15
G1 F1500 X128.685 Y88.051 E1.42985
G1 X128.684 Y124.663 E2.13004
G1 X129.284 Y124.6 E2.14158
G1 X131.55 Y124.6 E2.18492
G1 X131.551 Y90.721 E2.83284
G1 X131.445 Y90.055 E2.84574
G1 X130.781 Y89.561 E2.86156
G1 X130.199 Y89.137 E2.87534
G1 X129.437 Y88.621 E2.89294
M205 X30 Y30
G0 F3600 X129.507 Y88.156
M205 X15 Y15
G1 F1500 X128.285 Y87.27 E2.9218
G1 X128.284 Y125.175 E3.64672
G1 X128.709 Y125.056 E3.65516
G1 X129.284 Y125 E3.66621
G1 X131.95 Y125 E3.71719
G1 X131.951 Y90.699 E4.37319
G1 X131.814 Y89.848 E4.38967
G1 X131.349 Y89.483 E4.40098
G1 X130.698 Y88.994 E4.41655
G1 X129.507 Y88.156 E4.4444
M205 X30 Y30
G0 F3600 X129.778 Y87.861
M205 X15 Y15
G1 F1500 X127.885 Y86.488 E4.48912
G1 X127.884 Y125.819 E5.24131
G1 X128.161 Y125.655 E5.24747
G1 X128.587 Y125.495 E5.25617
G1 X129.284 Y125.4 E5.26962
G1 X132.35 Y125.4 E5.32826
G1 X132.351 Y90.69 E5.99207
G1 X132.192 Y89.693 E6.01138
G1 X132.013 Y89.483 E6.01666
G1 X130.946 Y88.679 E6.04221
G1 X129.778 Y87.861 E6.06948
M205 X30 Y30
G0 F3600 X130.458 Y87.863
M205 X15 Y15
G1 F1500 X127.999 Y86.078 E6.12759
G1 X127.684 Y85.802 E6.1356
G1 X127.485 Y85.546 E6.1418
G1 X127.484 Y126.745 E6.92971
G1 X127.806 Y126.37 E6.93917
G1 X128.142 Y126.119 E6.94719
G1 X128.52 Y125.937 E6.95521
G1 X128.925 Y125.83 E6.96322
G1 X129.284 Y125.8 E6.97011
G1 X132.75 Y125.8 E7.0364
G1 X132.751 Y90.669 E7.70826
G1 X132.572 Y89.543 E7.73007
G1 X132.435 Y89.335 E7.73483
G1 X131.964 Y88.956 E7.74639
G1 X131.493 Y88.595 E7.75774
G1 X130.877 Y88.148 E7.7723
G1 X130.458 Y87.863 E7.78199
M205 X30 Y30
G0 F3600 X130.239 Y87.198
M205 X15 Y15
G1 F1500 X128.233 Y85.753 E7.82927
G1 X127.95 Y85.501 E7.83652
G1 X127.727 Y85.194 E7.84377
G1 X127.573 Y84.848 E7.85102
G1 X127.485 Y84.293 E7.86176
G1 X127.485 Y82.006 E7.9055
G1 X127.503 Y81.682 E7.91171
G1 X127.599 Y81.316 E7.91894
G1 X127.77 Y80.978 E7.92619
G1 X128.009 Y80.683 E7.93345
G1 X128.303 Y80.444 E7.94069
G1 X128.641 Y80.273 E7.94794
G1 X129.007 Y80.176 E7.95518
G1 X129.386 Y80.158 E7.96244
G1 X130.113 Y80.358 E7.97686
G1 X130.544 Y80.671 E7.98704
G1 X131.041 Y81.036 E7.99884
G1 X131.475 Y81.385 E8.00949
G1 X131.984 Y81.854 E8.02272
G1 X132.434 Y82.151 E8.03304
G1 X133.214 Y82.755 E8.0519
G1 X133.596 Y83.077 E8.06146
G1 X134.234 Y83.595 E8.07717
G1 X134.925 Y84.121 E8.09378
G1 X135.234 Y84.382 E8.10152
G1 X135.49 Y84.662 E8.10877
G1 X136.378 Y86.251 E8.14359
G1 X136.559 Y86.743 E8.15361
G1 X137.078 Y89.208 E8.20179
G1 X137.159 Y89.717 E8.21164
G1 X137.178 Y128.25 E8.94857
G1 X137.138 Y128.627 E8.95582
G1 X137.02 Y128.987 E8.96307
G1 X136.829 Y129.315 E8.97033
G1 X136.574 Y129.595 E8.97757
G1 X136.069 Y129.912 E8.98897
G1 X135.889 Y129.987 E8.9927
G1 X135.756 Y130.484 E9.00254
G1 X135.566 Y130.811 E9.00977
G1 X135.134 Y131.273 E9.02187
G1 X134.839 Y131.511 E9.02912
G1 X134.501 Y131.682 E9.03636
G1 X134.135 Y131.779 E9.0436
G1 X128.921 Y131.793 E9.14332
G1 X128.545 Y131.753 E9.15055
G1 X128.185 Y131.634 E9.1578
G1 X127.857 Y131.443 E9.16506
G1 X127.578 Y131.188 E9.17229
G1 X127.357 Y130.879 E9.17956
G1 X127.206 Y130.532 E9.18679
G1 X127.132 Y130.16 E9.19405
G1 X127.137 Y129.781 E9.2013
G1 X127.317 Y129.14 E9.21403
G1 X127.455 Y128.346 E9.22944
G1 X127.555 Y127.499 E9.24575
G1 X127.698 Y127.148 E9.253
G1 X127.912 Y126.835 E9.26025
G1 X128.186 Y126.573 E9.2675
G1 X128.509 Y126.375 E9.27475
G1 X128.867 Y126.249 E9.28201
G1 X129.284 Y126.2 E9.29004
G1 X133.15 Y126.2 E9.36397
G1 X133.151 Y90.659 E10.04368
G1 X132.955 Y89.419 E10.06769
G1 X132.746 Y89.081 E10.07529
G1 X132.474 Y88.831 E10.08235
G1 X131.73 Y88.273 E10.10014
G1 X131.103 Y87.818 E10.11495
G1 X130.654 Y87.514 E10.12532
G1 X130.239 Y87.198 E10.1353
M205 X30 Y30
G0 F3600 X130.849 Y87.165
M205 X15 Y15
G1 F1500 X128.467 Y85.429 E10.19167
G1 X128.221 Y85.203 E10.19806
G1 X128.036 Y84.925 E10.20444
G1 X127.921 Y84.611 E10.21084
G1 X127.885 Y84.293 E10.21696
G1 X127.885 Y82.054 E10.25978
G1 X127.905 Y81.704 E10.26648
G1 X128.003 Y81.385 E10.27287
G1 X128.175 Y81.098 E10.27926
G1 X128.41 Y80.86 E10.28566
G1 X128.694 Y80.685 E10.29204
G1 X129.012 Y80.581 E10.29844
G1 X129.345 Y80.556 E10.30483
G1 X129.981 Y80.742 E10.3175
G1 X130.401 Y81.092 E10.32795
G1 X130.82 Y81.37 E10.33757
G1 X131.22 Y81.694 E10.34742
G1 X131.717 Y82.157 E10.36041
G1 X132.213 Y82.485 E10.37178
G1 X132.967 Y83.07 E10.39003
G1 X133.358 Y83.399 E10.3998
G1 X133.971 Y83.899 E10.41493
G1 X134.691 Y84.446 E10.43222
G1 X134.969 Y84.682 E10.4392
G1 X135.272 Y85.061 E10.44848
G1 X136.027 Y86.443 E10.47859
G1 X136.168 Y86.826 E10.4864
G1 X136.687 Y89.291 E10.53458
G1 X136.78 Y89.99 E10.54806
G1 X136.778 Y128.25 E11.27977
G1 X136.738 Y128.582 E11.28616
G1 X136.621 Y128.895 E11.29255
G1 X136.433 Y129.171 E11.29894
G1 X136.185 Y129.394 E11.30532
G1 X135.514 Y129.71 E11.3195
G1 X135.474 Y130.079 E11.3266
G1 X135.357 Y130.391 E11.33297
G1 X135.104 Y130.737 E11.34117
G1 X134.588 Y131.196 E11.35438
G1 X134.284 Y131.335 E11.36077
G1 X133.859 Y131.4 E11.36899
G1 X128.922 Y131.393 E11.46341
G1 X128.59 Y131.353 E11.46981
G1 X128.278 Y131.235 E11.47619
G1 X128.002 Y131.046 E11.48258
G1 X127.779 Y130.798 E11.48896
G1 X127.62 Y130.504 E11.49535
G1 X127.537 Y130.18 E11.50175
G1 X127.532 Y129.846 E11.50814
G1 X127.703 Y129.249 E11.52002
G1 X127.853 Y128.385 E11.53679
G1 X127.951 Y127.572 E11.55245
G1 X128.09 Y127.269 E11.55882
G1 X128.297 Y127.007 E11.56521
G1 X128.561 Y126.801 E11.57161
G1 X128.866 Y126.664 E11.57801
G1 X129.284 Y126.6 E11.58609
G1 X133.55 Y126.6 E11.66768
G1 X133.551 Y90.638 E12.35544
G1 X133.343 Y89.312 E12.38111
G1 X133.056 Y88.823 E12.39195
G1 X132.679 Y88.488 E12.4016
G1 X131.967 Y87.95 E12.41866
G1 X131.329 Y87.488 E12.43373
G1 X130.849 Y87.165 E12.44479
M205 X30 Y30
G0 F3600 X130.858 Y86.681
M205 X15 Y15
G1 F1500 X128.7 Y85.104 E12.49591
G1 X128.497 Y84.909 E12.50129
G1 X128.356 Y84.664 E12.5067
G1 X128.285 Y84.293 E12.51392
G1 X128.285 Y82.023 E12.55733
G1 X128.307 Y81.733 E12.5629
G1 X128.408 Y81.469 E12.5683
G1 X128.578 Y81.244 E12.5737
G1 X128.805 Y81.076 E12.5791
G1 X129.069 Y80.978 E12.58448
G1 X129.351 Y80.957 E12.58989
G1 X129.627 Y81.016 E12.59529
G1 X129.983 Y81.242 E12.60335
G1 X130.148 Y81.405 E12.60779
G1 X130.599 Y81.703 E12.61813
G1 X131.232 Y82.223 E12.63379
G1 X131.431 Y82.448 E12.63954
G1 X131.992 Y82.819 E12.6524
G1 X132.72 Y83.385 E12.67004
G1 X132.9 Y83.573 E12.67501
G1 X133.499 Y84.001 E12.68909
G1 X134.011 Y84.445 E12.70205
G1 X134.457 Y84.77 E12.71261
G1 X134.705 Y84.982 E12.71885
G1 X134.921 Y85.253 E12.72547
G1 X135.676 Y86.635 E12.75559
G1 X135.777 Y86.908 E12.76116
G1 X136.296 Y89.373 E12.80933
G1 X136.38 Y89.99 E12.82124
G1 X136.378 Y128.25 E13.55295
G1 X136.338 Y128.529 E13.55834
G1 X136.222 Y128.786 E13.56373
G1 X136.039 Y129.001 E13.56913
G1 X135.762 Y129.173 E13.57537
G1 X135.114 Y129.442 E13.58879
G1 X135.074 Y130.026 E13.59998
G1 X134.958 Y130.283 E13.60537
G1 X134.568 Y130.707 E13.61639
G1 X134.342 Y130.876 E13.62179
G1 X134.078 Y130.976 E13.62719
G1 X128.923 Y130.993 E13.72577
G1 X128.643 Y130.953 E13.73118
G1 X128.386 Y130.836 E13.73658
G1 X128.172 Y130.652 E13.74198
G1 X128.018 Y130.416 E13.74737
G1 X127.936 Y130.146 E13.75277
G1 X127.932 Y129.864 E13.75816
G1 X128.09 Y129.354 E13.76837
G1 X128.251 Y128.438 E13.78616
G1 X128.287 Y127.929 E13.79592
G1 X128.346 Y127.653 E13.80131
G1 X128.48 Y127.405 E13.80671
G1 X128.679 Y127.204 E13.81211
G1 X128.925 Y127.067 E13.8175
G1 X129.284 Y127 E13.82448
G1 X133.95 Y127 E13.91372
G1 X133.951 Y90.616 E14.60955
G1 X133.921 Y90.254 E14.61649
G1 X133.729 Y89.201 E14.63696
G1 X133.65 Y88.999 E14.64111
G1 X133.365 Y88.566 E14.65103
G1 X133.012 Y88.221 E14.66047
G1 X132.589 Y87.912 E14.67048
G1 X131.887 Y87.385 E14.68727
G1 X131.208 Y86.907 E14.70315
G1 X130.858 Y86.681 E14.71112
M205 X30 Y30
G0 F3600 X131.241 Y86.467
M205 X15 Y15
G1 F1500 X128.934 Y84.78 E14.76578
G1 X128.783 Y84.622 E14.76996
G1 X128.685 Y84.293 E14.77652
G1 X128.685 Y82.016 E14.82007
G1 X128.71 Y81.774 E14.82472
G1 X128.813 Y81.581 E14.82891
G1 X128.977 Y81.438 E14.83307
G1 X129.182 Y81.363 E14.83724
G1 X129.4 Y81.367 E14.84141
G1 X129.703 Y81.527 E14.84797
G1 X129.899 Y81.72 E14.85323
G1 X130.378 Y82.037 E14.86421
G1 X130.977 Y82.531 E14.87906
G1 X131.131 Y82.728 E14.88384
G1 X131.772 Y83.152 E14.89854
G1 X132.473 Y83.7 E14.91556
G1 X132.602 Y83.855 E14.91941
G1 X133.262 Y84.322 E14.93488
G1 X133.418 Y84.498 E14.93937
G1 X133.849 Y84.825 E14.94972
G1 X134.27 Y85.132 E14.95969
G1 X134.57 Y85.444 E14.96796
G1 X135.325 Y86.826 E14.99808
G1 X135.904 Y89.455 E15.04956
G1 X135.98 Y89.99 E15.0599
G1 X135.978 Y128.25 E15.7916
G1 X135.938 Y128.465 E15.79579
G1 X135.825 Y128.651 E15.79995
G1 X135.608 Y128.804 E15.80503
G1 X134.735 Y129.167 E15.82311
G1 X134.714 Y129.747 E15.83421
G1 X134.674 Y129.962 E15.83839
G1 X134.538 Y130.171 E15.84316
G1 X134.106 Y130.548 E15.85412
G1 X133.86 Y130.6 E15.85893
G1 X128.923 Y130.593 E15.95335
G1 X128.709 Y130.553 E15.95751
G1 X128.523 Y130.439 E15.96169
G1 X128.39 Y130.266 E15.96586
G1 X128.327 Y130.057 E15.97003
G1 X128.359 Y129.792 E15.97514
G1 X128.475 Y129.466 E15.98176
G1 X128.58 Y128.969 E15.99147
G1 X128.686 Y127.957 E16.01093
G1 X128.74 Y127.746 E16.0151
G1 X128.867 Y127.568 E16.01928
G1 X129.049 Y127.448 E16.02345
G1 X129.284 Y127.4 E16.02804
G1 X134.35 Y127.4 E16.12492
G1 X134.351 Y90.605 E16.82861
G1 X134.316 Y90.192 E16.83654
G1 X134.116 Y89.093 E16.8579
G1 X134.009 Y88.816 E16.86358
G1 X133.675 Y88.309 E16.87519
G1 X133.257 Y87.9 E16.88637
G1 X132.84 Y87.6 E16.8962
G1 X132.432 Y87.299 E16.90589
G1 X131.782 Y86.828 E16.92125
G1 X131.241 Y86.467 E16.93368
M205 X30 Y30
G0 F3600 X131.436 Y86.118
M205 X15 Y15
G1 F1500 X129.168 Y84.455 E16.98747
G1 X129.085 Y84.293 E16.99095
G1 X129.085 Y82.018 E17.03446
G1 X129.114 Y81.846 E17.03779
G1 X129.212 Y81.768 E17.04019
G1 X129.336 Y81.763 E17.04256
G1 X129.644 Y82.03 E17.05036
G1 X130.157 Y82.37 E17.06213
G1 X130.255 Y82.496 E17.06518
G1 X130.722 Y82.839 E17.07626
G1 X130.821 Y83.003 E17.07993
G1 X131.551 Y83.486 E17.09667
G1 X132.226 Y84.015 E17.11307
G1 X132.314 Y84.143 E17.11604
G1 X133.024 Y84.644 E17.13266
G1 X133.105 Y84.772 E17.13555
G1 X133.369 Y84.939 E17.14153
G1 X133.455 Y85.051 E17.14423
G1 X133.99 Y85.42 E17.15666
G1 X134.219 Y85.636 E17.16268
G1 X134.974 Y87.018 E17.1928
G1 X135.513 Y89.538 E17.24208
G1 X135.58 Y89.99 E17.25082
G1 X135.578 Y128.25 E17.98252
G1 X135.539 Y128.369 E17.98492
G1 X135.455 Y128.435 E17.98696
G1 X134.468 Y128.845 E18.0074
G1 X134.314 Y129.075 E18.0127
G1 X134.314 Y129.747 E18.02555
G1 X134.255 Y129.888 E18.02847
G1 X134.002 Y130.141 E18.03531
G1 X133.861 Y130.2 E18.03824
G1 X128.924 Y130.193 E18.13265
G1 X128.805 Y130.154 E18.13505
G1 X128.733 Y130.052 E18.13744
G1 X128.736 Y129.926 E18.13985
G1 X128.86 Y129.577 E18.14693
G1 X128.975 Y129.034 E18.15755
G1 X129.047 Y128.518 E18.16751
G1 X129.085 Y127.986 E18.17771
G1 X129.132 Y127.87 E18.1801
G1 X129.284 Y127.8 E18.1833
G1 X134.586 Y127.8 E18.2847
G1 X134.75 Y127.636 E18.28914
G1 X134.751 Y90.579 E18.99784
G1 X134.715 Y90.152 E19.00603
G1 X134.502 Y88.98 E19.02881
G1 X134.367 Y88.632 E19.03595
G1 X133.986 Y88.055 E19.04918
G1 X133.502 Y87.581 E19.06213
G1 X132.008 Y86.498 E19.09742
G1 X131.436 Y86.118 E19.11055
M205 X30 Y30
G1 F1200 E15.61055
G1 F120 Z1.1
G0 F3600 X134.212 Y83.036 Z1.1
M205 X15 Y15
G1 F120 Z0.1
G1 F1200 E19.11055
G1 F1500 X134.768 Y83.504 E19.12445
G1 X135.329 Y83.932 E19.13795
G1 X135.785 Y84.388 E19.15028
G1 X136.729 Y86.059 E19.18699
G1 X136.951 Y86.661 E19.19926
G1 X137.47 Y89.126 E19.24743
G1 X137.555 Y89.657 E19.25772
G1 X137.578 Y128.25 E19.99579
G1 X137.538 Y128.667 E20.0038
G1 X137.42 Y129.069 E20.01182
G1 X137.227 Y129.442 E20.01985
G1 X136.968 Y129.771 E20.02786
G1 X136.651 Y130.044 E20.03586
G1 X136.243 Y130.27 E20.04478
G1 X136.156 Y130.566 E20.05068
G1 X135.963 Y130.938 E20.05869
G1 X135.417 Y131.556 E20.07446
G1 X135.093 Y131.822 E20.08248
G1 X134.726 Y132.023 E20.09048
G1 X134.326 Y132.15 E20.09851
G1 X133.858 Y132.2 E20.10751
G1 X128.921 Y132.193 E20.20193
G1 X128.504 Y132.152 E20.20994
G1 X128.102 Y132.034 E20.21795
G1 X127.73 Y131.841 E20.22597
G1 X127.401 Y131.581 E20.23399
G1 X127.128 Y131.263 E20.242
G1 X126.92 Y130.9 E20.25
G1 X126.784 Y130.503 E20.25803
G1 X126.757 Y130.31 E20.26176
G1 X126.331 Y130.855 E20.27499
G1 X125.894 Y131.257 E20.28634
G1 X125.44 Y131.573 E20.29692
G1 X124.909 Y131.844 E20.30832
G1 X124.377 Y132.03 E20.3191
G1 X123.874 Y132.142 E20.32895
G1 X123.19 Y132.2 E20.34208
G1 X97.973 Y132.2 E20.82435
G1 X97.279 Y132.144 E20.83766
G1 X96.773 Y132.036 E20.84756
G1 X96.27 Y131.864 E20.85772
G1 X95.76 Y131.611 E20.86861
G1 X95.296 Y131.301 E20.87928
G1 X94.84 Y130.895 E20.89096
G1 X94.482 Y130.473 E20.90154
G1 X94.381 Y130.314 E20.90515
G1 X94.236 Y130.865 E20.91604
G1 X94.035 Y131.233 E20.92406
G1 X93.768 Y131.556 E20.93208
G1 X93.445 Y131.823 E20.94009
G1 X93.077 Y132.023 E20.9481
G1 X92.677 Y132.15 E20.95613
G1 X92.213 Y132.2 E20.96505
G1 X83.537 Y132.2 E21.13098
G1 X82.632 Y132.109 E21.14837
G1 X82.041 Y131.955 E21.16005
G1 X81.148 Y131.498 E21.17924
G1 X80.655 Y131.122 E21.19109
G1 X79.993 Y130.448 E21.20916
G1 X79.73 Y130.122 E21.21717
G1 X79.532 Y129.752 E21.2252
G1 X79.374 Y129.128 E21.23751
G1 X79.276 Y128.163 E21.25606
G1 X79.265 Y116.064 E21.48745
G1 X79.305 Y115.647 E21.49546
G1 X79.423 Y115.245 E21.50347
G1 X79.616 Y114.873 E21.51149
G1 X79.875 Y114.544 E21.51949
G1 X80.192 Y114.27 E21.52751
G1 X80.555 Y114.061 E21.53552
G1 X80.952 Y113.925 E21.54354
G1 X81.367 Y113.866 E21.55156
G1 X81.785 Y113.887 E21.55956
G1 X82.192 Y113.988 E21.56758
G1 X82.574 Y114.163 E21.57562
G1 X82.301 Y113.531 E21.58879
G1 X81.768 Y112.038 E21.6191
G1 X81.345 Y110.537 E21.64893
G1 X81.021 Y108.991 E21.67914
G1 X80.804 Y107.448 E21.70894
G1 X80.69 Y105.87 E21.73919
G1 X80.683 Y104.312 E21.76899
G1 X80.785 Y102.728 E21.79935
G1 X80.989 Y101.186 E21.82909
G1 X81.301 Y99.643 E21.8592
G1 X81.712 Y98.133 E21.88913
G1 X82.231 Y96.643 E21.9193
G1 X82.574 Y95.832 E21.93614
G1 X82.186 Y96.012 E21.94432
G1 X81.779 Y96.111 E21.95233
G1 X81.36 Y96.13 E21.96036
G1 X80.945 Y96.071 E21.96837
G1 X80.549 Y95.933 E21.97639
G1 X80.187 Y95.724 E21.98439
G1 X79.87 Y95.449 E21.99241
G1 X79.612 Y95.119 E22.00042
G1 X79.421 Y94.746 E22.00844
G1 X79.304 Y94.344 E22.01644
G1 X79.265 Y93.933 E22.02434
G1 X79.265 Y82.014 E22.25229
G1 X79.348 Y81.229 E22.26738
G1 X79.479 Y80.716 E22.27751
G1 X79.653 Y80.268 E22.2867
G1 X79.931 Y79.762 E22.29774
G1 X80.299 Y79.261 E22.30963
G1 X80.702 Y78.841 E22.32076
G1 X81.211 Y78.436 E22.3332
G1 X81.562 Y78.208 E22.34121
G1 X82.06 Y78.02 E22.35139
G1 X82.676 Y77.87 E22.36351
G1 X83.183 Y77.808 E22.37328
