;FLAVOR:Marlin
;TIME:4596
;Filament used: 2.98682m
;Layer height: 0.15
;MINX:67.665
;MINY:77.366
;MINZ:0.1
;MAXX:129.18
;MAXY:134.966
;MAXZ:27.55
;Generated with Cura_SteamEngine 4.5.0
M140 S69
M105
M190 S69
M82 ;absolute extrusion mode
;Gcode by Cura
G90
M106 S255
G28 X Y
M109 R195
G28
M104 S195
G29
M107
G1 X100 Y10 F3000
G1 Z0.5
M109 S195
M82
G92 E0
G1 F200 E10
G92 E0
G1 Z3
G1 X120 Y10
G1 Z0.5
G92 E0
G1 F200 E10
G92 E0
G1 Z3
G1 F6000
G92 E0
G92 E0
G1 F1200 E-3.5
;LAYER_COUNT:184
;LAYER:0
M106 S255
M205 X30 Y30
G1 F120 Z1.1
G0 F3600 X69.344 Y79.086 Z1.1
M205 X15 Y15
;TYPE:SKIRT
G1 F120 Z0.1
G1 F1200 E0
G1 F1500 X70.041 Y78.49 E0.01754
G1 X70.495 Y78.177 E0.02808
G1 X71.411 Y77.732 E0.04756
G1 X71.926 Y77.537 E0.05809
G1 X72.464 Y77.417 E0.06863
G1 X72.987 Y77.377 E0.07867
G1 X74.48 Y77.366 E0.10722
G1 X82.219 Y77.366 E0.25522
G1 X82.769 Y77.406 E0.26577
G1 X83.307 Y77.525 E0.27631
G1 X83.822 Y77.721 E0.28685
G1 X84.303 Y77.989 E0.29738
G1 X84.73 Y78.315 E0.30765
G1 X85.328 Y77.979 E0.32077
G1 X85.838 Y77.759 E0.33139
G1 X86.358 Y77.578 E0.34192
G1 X87.377 Y77.405 E0.36169
G1 X87.909 Y77.368 E0.37189
G1 X113.213 Y77.366 E0.85582
G1 X114.256 Y77.47 E0.87586
G1 X114.796 Y77.581 E0.8864
G1 X115.735 Y77.942 E0.90564
G1 X116.227 Y78.189 E0.91617
G1 X117.041 Y78.784 E0.93546
G1 X117.451 Y79.152 E0.94599
G1 X118.088 Y79.955 E0.96559
G1 X118.385 Y80.419 E0.97613
G1 X118.602 Y80.896 E0.98615
G1 X118.643 Y81.006 E0.9884
G1 X119.382 Y80.943 E1.00258
G1 X119.931 Y80.997 E1.01313
G1 X120.465 Y81.13 E1.02366
G1 X120.975 Y81.339 E1.0342
G1 X121.549 Y81.69 E1.04706
G1 X125.958 Y84.96 E1.15204
G1 X126.524 Y85.176 E1.16363
G1 X127.001 Y85.452 E1.17417
G1 X127.434 Y85.793 E1.18471
G1 X127.812 Y86.193 E1.19524
G1 X128.129 Y86.644 E1.20578
G1 X128.377 Y87.136 E1.21631
G1 X128.587 Y87.812 E1.22985
G1 X129.035 Y89.933 E1.27131
G1 X129.141 Y90.613 E1.28447
G1 X129.18 Y91.155 E1.29486
G1 X129.178 Y129.398 E2.02625
G1 X129.138 Y129.948 E2.03679
G1 X129.019 Y130.486 E2.04733
G1 X128.823 Y131.001 E2.05787
G1 X128.555 Y131.482 E2.0684
G1 X128.221 Y131.92 E2.07893
G1 X127.826 Y132.304 E2.08947
G1 X127.38 Y132.628 E2.10001
G1 X126.881 Y132.888 E2.11077
G1 X126.296 Y133.097 E2.12265
G1 X125.755 Y133.2 E2.13318
G1 X125.204 Y133.224 E2.14373
G1 X124.656 Y133.169 E2.15427
G1 X124.122 Y133.034 E2.1648
G1 X123.612 Y132.824 E2.17535
G1 X123.062 Y132.606 E2.18666
G1 X122.582 Y132.337 E2.19718
G1 X122.145 Y132.001 E2.20773
G1 X121.761 Y131.605 E2.21828
G1 X121.439 Y131.159 E2.2288
G1 X121.185 Y130.67 E2.23933
G1 X121.004 Y130.149 E2.24988
G1 X120.9 Y129.608 E2.26042
G1 X120.876 Y129.058 E2.27095
G1 X120.931 Y128.51 E2.28148
G1 X121.065 Y127.975 E2.29203
G1 X121.15 Y127.769 E2.29629
G1 X121.151 Y91.918 E2.98193
G1 X121.087 Y91.462 E2.99073
G1 X119.875 Y90.545 E3.0198
G1 X119.177 Y90.084 E3.03579
G1 X119.085 Y90.013 E3.03802
G1 X119.084 Y129.159 E3.78667
G1 X119.018 Y129.984 E3.8025
G1 X118.92 Y130.526 E3.81303
G1 X118.618 Y131.397 E3.83066
G1 X118.39 Y131.899 E3.8412
G1 X117.973 Y132.549 E3.85597
G1 X117.634 Y132.984 E3.86652
G1 X116.951 Y133.624 E3.88442
G1 X116.514 Y133.961 E3.89498
G1 X115.876 Y134.328 E3.90905
G1 X115.377 Y134.56 E3.91958
G1 X114.5 Y134.815 E3.93704
G1 X113.958 Y134.918 E3.94759
G1 X113.519 Y134.944 E3.956
G1 X87.984 Y134.966 E4.44435
G1 X87.142 Y134.905 E4.4605
G1 X86.598 Y134.816 E4.47104
G1 X85.747 Y134.542 E4.48814
G1 X85.24 Y134.326 E4.49867
G1 X84.722 Y134.008 E4.5103
G1 X84.43 Y134.252 E4.51758
G1 X83.961 Y134.54 E4.5281
G1 X83.454 Y134.757 E4.53865
G1 X82.922 Y134.899 E4.54918
G1 X82.213 Y134.966 E4.5628
G1 X73.528 Y134.966 E4.7289
G1 X72.462 Y134.867 E4.74937
G1 X71.921 Y134.764 E4.7599
G1 X71.441 Y134.601 E4.7696
G1 X70.787 Y134.296 E4.7834
G1 X70.312 Y134.024 E4.79387
G1 X69.855 Y133.716 E4.80441
G1 X68.846 Y132.733 E4.83135
G1 X68.49 Y132.312 E4.84189
G1 X68.198 Y131.845 E4.85242
G1 X67.977 Y131.34 E4.86297
G1 X67.832 Y130.809 E4.87349
G1 X67.686 Y129.558 E4.89758
G1 X67.665 Y117.229 E5.13337
G1 X67.705 Y116.679 E5.14391
G1 X67.824 Y116.141 E5.15445
G1 X68.02 Y115.626 E5.16499
G1 X68.288 Y115.145 E5.17552
G1 X68.622 Y114.707 E5.18605
G1 X69.017 Y114.323 E5.19659
G1 X69.463 Y113.999 E5.20713
G1 X69.951 Y113.744 E5.21766
G1 X70.231 Y113.646 E5.22334
G1 X69.802 Y112.125 E5.25356
G1 X69.453 Y110.48 E5.28572
G1 X69.219 Y108.831 E5.31757
G1 X69.094 Y107.146 E5.34989
G1 X69.083 Y105.481 E5.38173
G1 X69.189 Y103.787 E5.41419
G1 X69.403 Y102.138 E5.44599
G1 X69.734 Y100.487 E5.47819
G1 X70.169 Y98.874 E5.51014
G1 X70.228 Y98.688 E5.51387
G1 X69.645 Y98.436 E5.52602
G1 X69.182 Y98.137 E5.53656
G1 X68.766 Y97.775 E5.54711
G1 X68.408 Y97.357 E5.55763
G1 X68.114 Y96.891 E5.56817
G1 X67.89 Y96.387 E5.57872
G1 X67.741 Y95.857 E5.58925
G1 X67.665 Y95.1 E5.6038
G1 X67.665 Y83.163 E5.83209
G1 X67.699 Y82.653 E5.84186
G1 X67.769 Y82.136 E5.85184
G1 X67.883 Y81.597 E5.86238
G1 X68.17 Y80.831 E5.87802
G1 X68.413 Y80.337 E5.88855
G1 X68.989 Y79.508 E5.90786
G1 X69.344 Y79.086 E5.9184
M205 X30 Y30
G0 F3600 X69.65 Y79.344
M205 X15 Y15
G1 F1500 X70.291 Y78.802 E5.93446
G1 X70.722 Y78.508 E5.94443
G1 X71.579 Y78.095 E5.96263
G1 X72.067 Y77.912 E5.97259
G1 X72.577 Y77.805 E5.98256
G1 X74.483 Y77.766 E6.01902
G1 X82.219 Y77.766 E6.16697
G1 X82.739 Y77.806 E6.17694
G1 X83.246 Y77.925 E6.1869
G1 X83.729 Y78.12 E6.19686
G1 X84.177 Y78.386 E6.20683
G1 X84.579 Y78.718 E6.2168
G1 X84.682 Y78.834 E6.21976
G1 X85.152 Y78.513 E6.23065
G1 X85.996 Y78.126 E6.24841
G1 X86.489 Y77.957 E6.25837
G1 X87.433 Y77.801 E6.27667
G1 X87.909 Y77.768 E6.2858
G1 X113.213 Y77.766 E6.76973
G1 X114.204 Y77.867 E6.78878
G1 X114.714 Y77.974 E6.79874
G1 X115.582 Y78.311 E6.81655
G1 X116.046 Y78.547 E6.8265
G1 X116.796 Y79.101 E6.84434
G1 X117.183 Y79.45 E6.8543
G1 X117.767 Y80.194 E6.87239
G1 X118.046 Y80.634 E6.88236
G1 X118.39 Y81.472 E6.89968
G1 X118.643 Y81.403 E6.9047
G1 X119.161 Y81.344 E6.91467
G1 X119.682 Y81.365 E6.92464
G1 X120.193 Y81.466 E6.9346
G1 X120.683 Y81.643 E6.94456
G1 X121.311 Y82.011 E6.95848
G1 X125.789 Y85.333 E7.06512
G1 X126.425 Y85.574 E7.07812
G1 X126.869 Y85.848 E7.0881
G1 X127.266 Y86.186 E7.09807
G1 X127.606 Y86.58 E7.10803
G1 X127.882 Y87.022 E7.11799
G1 X128.088 Y87.501 E7.12796
G1 X128.644 Y90.015 E7.1772
G1 X128.745 Y90.67 E7.18988
G1 X128.78 Y91.155 E7.19918
G1 X128.778 Y129.398 E7.93056
G1 X128.738 Y129.918 E7.94053
G1 X128.619 Y130.425 E7.95049
G1 X128.424 Y130.908 E7.96046
G1 X128.157 Y131.356 E7.97043
G1 X127.826 Y131.758 E7.98039
G1 X127.436 Y132.104 E7.99036
G1 X126.998 Y132.387 E8.00033
G1 X126.658 Y132.549 E8.00753
G1 X126.165 Y132.717 E8.0175
G1 X125.652 Y132.809 E8.02746
G1 X125.131 Y132.821 E8.03743
G1 X124.614 Y132.753 E8.0474
G1 X124.114 Y132.608 E8.05736
G1 X123.638 Y132.403 E8.06727
G1 X123.156 Y132.207 E8.07722
G1 X122.709 Y131.939 E8.08719
G1 X122.308 Y131.606 E8.09716
G1 X121.962 Y131.216 E8.10713
G1 X121.681 Y130.778 E8.11708
G1 X121.469 Y130.301 E8.12706
G1 X121.333 Y129.798 E8.13703
G1 X121.276 Y129.28 E8.14699
G1 X121.298 Y128.759 E8.15697
G1 X121.4 Y128.248 E8.16693
G1 X121.55 Y127.836 E8.17532
G1 X121.551 Y91.904 E8.8625
G1 X121.445 Y91.231 E8.87553
G1 X120.11 Y90.222 E8.90753
G1 X119.684 Y89.951 E8.91719
G1 X118.828 Y89.31 E8.93764
G1 X118.685 Y89.205 E8.94104
G1 X118.684 Y129.159 E9.70514
G1 X118.62 Y129.942 E9.72016
G1 X118.525 Y130.454 E9.73012
G1 X118.243 Y131.258 E9.74642
G1 X118.025 Y131.731 E9.75638
G1 X117.641 Y132.327 E9.76994
G1 X117.319 Y132.736 E9.77989
G1 X116.684 Y133.326 E9.79647
G1 X116.069 Y133.763 E9.8109
G1 X115.209 Y134.196 E9.82931
G1 X114.396 Y134.428 E9.84548
G1 X113.884 Y134.524 E9.85544
G1 X87.984 Y134.566 E10.35077
G1 X87.178 Y134.507 E10.36623
G1 X86.664 Y134.42 E10.3762
G1 X85.877 Y134.164 E10.39202
G1 X85.399 Y133.957 E10.40198
G1 X84.678 Y133.497 E10.41834
G1 X84.408 Y133.763 E10.42559
G1 X83.985 Y134.068 E10.43556
G1 X83.521 Y134.304 E10.44552
G1 X83.026 Y134.467 E10.45548
G1 X82.512 Y134.553 E10.46545
G1 X73.528 Y134.566 E10.63727
G1 X72.509 Y134.47 E10.65684
G1 X71.997 Y134.37 E10.66682
G1 X71.367 Y134.136 E10.67967
G1 X70.51 Y133.676 E10.69827
G1 X70.079 Y133.384 E10.70823
G1 X69.132 Y132.453 E10.73363
G1 X68.797 Y132.054 E10.74359
G1 X68.526 Y131.608 E10.75357
G1 X68.327 Y131.127 E10.76353
G1 X68.178 Y130.426 E10.77723
G1 X68.083 Y129.516 E10.79473
G1 X68.065 Y117.229 E11.02971
G1 X68.105 Y116.709 E11.03969
G1 X68.224 Y116.202 E11.04965
G1 X68.419 Y115.719 E11.05961
G1 X68.685 Y115.271 E11.06957
G1 X69.017 Y114.869 E11.07954
G1 X69.407 Y114.523 E11.08951
G1 X69.845 Y114.24 E11.09949
G1 X70.32 Y114.027 E11.10944
G1 X70.745 Y113.911 E11.11787
G1 X70.567 Y113.384 E11.12851
G1 X70.187 Y112.018 E11.15562
G1 X69.845 Y110.399 E11.18727
G1 X69.615 Y108.777 E11.2186
G1 X69.493 Y107.118 E11.25041
G1 X69.483 Y105.481 E11.28172
G1 X69.588 Y103.814 E11.31366
G1 X69.8 Y102.192 E11.34495
G1 X70.126 Y100.567 E11.37664
G1 X70.555 Y98.98 E11.40808
G1 X70.746 Y98.413 E11.41953
G1 X70.512 Y98.364 E11.4241
G1 X70.025 Y98.18 E11.43405
G1 X69.571 Y97.924 E11.44402
G1 X69.162 Y97.601 E11.45399
G1 X68.807 Y97.22 E11.46395
G1 X68.514 Y96.788 E11.47393
G1 X68.29 Y96.317 E11.48391
G1 X68.142 Y95.818 E11.49386
G1 X68.065 Y95.1 E11.50767
G1 X68.065 Y83.163 E11.73596
G1 X68.166 Y82.19 E11.75467
G1 X68.275 Y81.68 E11.76464
G1 X68.541 Y80.981 E11.77895
G1 X68.772 Y80.514 E11.78891
G1 X69.314 Y79.742 E11.80695
G1 X69.65 Y79.344 E11.81691
M205 X30 Y30
G0 F3600 X69.956 Y79.604
M205 X15 Y15
G1 F1500 X70.541 Y79.114 E11.8315
G1 X71.149 Y78.737 E11.84519
G1 X71.748 Y78.458 E11.85782
G1 X72.207 Y78.288 E11.86718
G1 X72.993 Y78.177 E11.88237
G1 X74.486 Y78.166 E11.91092
G1 X82.219 Y78.166 E12.05881
G1 X83.182 Y78.325 E12.07748
G1 X83.631 Y78.519 E12.08683
G1 X84.043 Y78.784 E12.0962
G1 X84.406 Y79.112 E12.10556
G1 X84.627 Y79.389 E12.11233
G1 X85.376 Y78.846 E12.13002
G1 X86.155 Y78.493 E12.14638
G1 X86.619 Y78.337 E12.15574
G1 X87.489 Y78.198 E12.17259
G1 X87.909 Y78.168 E12.18065
G1 X113.213 Y78.166 E12.66457
G1 X114.152 Y78.263 E12.68263
G1 X114.912 Y78.467 E12.69768
G1 X115.428 Y78.681 E12.70836
G1 X115.864 Y78.905 E12.71773
G1 X116.551 Y79.417 E12.73412
G1 X116.913 Y79.747 E12.74349
G1 X117.447 Y80.433 E12.76011
G1 X117.707 Y80.848 E12.76948
G1 X118.048 Y81.697 E12.78698
G1 X118.128 Y81.981 E12.79262
G1 X118.502 Y81.846 E12.80022
G1 X118.983 Y81.757 E12.80958
G1 X119.473 Y81.748 E12.81895
G1 X119.957 Y81.818 E12.8283
G1 X120.424 Y81.967 E12.83768
G1 X121.072 Y82.333 E12.85191
G1 X125.613 Y85.701 E12.96004
G1 X125.875 Y85.771 E12.96522
G1 X126.321 Y85.972 E12.97458
G1 X126.729 Y86.243 E12.98395
G1 X127.087 Y86.577 E12.99331
G1 X127.386 Y86.964 E13.00266
G1 X127.618 Y87.395 E13.01202
G1 X127.804 Y87.977 E13.02371
G1 X128.252 Y90.098 E13.06517
G1 X128.349 Y90.727 E13.07734
G1 X128.38 Y91.155 E13.08554
G1 X128.378 Y129.398 E13.81693
G1 X128.338 Y129.886 E13.82629
G1 X128.219 Y130.361 E13.83565
G1 X128.025 Y130.81 E13.84501
G1 X127.76 Y131.222 E13.85438
G1 X127.432 Y131.585 E13.86373
G1 X127.049 Y131.89 E13.8731
G1 X126.565 Y132.153 E13.88363
G1 X126.036 Y132.338 E13.89435
G1 X125.553 Y132.416 E13.90371
G1 X125.063 Y132.416 E13.91308
G1 X124.581 Y132.335 E13.92242
G1 X124.117 Y132.177 E13.9318
G1 X123.875 Y132.047 E13.93705
G1 X123.255 Y131.808 E13.94976
G1 X122.844 Y131.542 E13.95912
G1 X122.482 Y131.213 E13.96848
G1 X122.178 Y130.829 E13.97784
G1 X121.941 Y130.401 E13.9872
G1 X121.776 Y129.94 E13.99657
G1 X121.688 Y129.459 E14.00592
G1 X121.68 Y128.969 E14.01529
G1 X121.752 Y128.485 E14.02465
G1 X121.95 Y127.925 E14.03601
G1 X121.951 Y91.881 E14.72533
G1 X121.892 Y91.392 E14.73475
G1 X121.802 Y91 E14.74244
G1 X120.335 Y89.891 E14.77762
G1 X119.898 Y89.613 E14.78752
G1 X119.08 Y88.999 E14.80708
G1 X118.285 Y88.426 E14.82582
G1 X118.284 Y129.159 E15.60482
G1 X118.222 Y129.899 E15.61903
G1 X118.051 Y130.626 E15.63331
G1 X117.868 Y131.119 E15.64337
G1 X117.55 Y131.742 E15.65674
G1 X117.004 Y132.488 E15.67442
G1 X116.417 Y133.028 E15.68968
G1 X115.875 Y133.413 E15.70239
G1 X115.042 Y133.83 E15.72021
G1 X114.292 Y134.042 E15.73511
G1 X113.519 Y134.144 E15.75002
G1 X87.984 Y134.166 E16.23837
G1 X87.214 Y134.109 E16.25314
G1 X86.511 Y133.958 E16.26689
G1 X86.007 Y133.785 E16.27708
G1 X85.308 Y133.438 E16.292
G1 X84.845 Y133.127 E16.30267
G1 X84.622 Y132.949 E16.30813
G1 X84.335 Y133.286 E16.31659
G1 X83.962 Y133.603 E16.32595
G1 X83.542 Y133.855 E16.33532
G1 X83.087 Y134.036 E16.34469
G1 X82.609 Y134.14 E16.35404
G1 X73.528 Y134.166 E16.52771
G1 X72.555 Y134.073 E16.54641
G1 X72.075 Y133.976 E16.55577
G1 X71.521 Y133.767 E16.56709
G1 X70.709 Y133.329 E16.58474
G1 X70.306 Y133.052 E16.59409
G1 X69.417 Y132.173 E16.618
G1 X69.104 Y131.797 E16.62736
G1 X68.857 Y131.374 E16.63672
G1 X68.681 Y130.917 E16.64609
G1 X68.576 Y130.384 E16.65648
G1 X68.481 Y129.474 E16.67398
G1 X68.465 Y117.229 E16.90816
G1 X68.505 Y116.741 E16.91752
G1 X68.624 Y116.266 E16.92689
G1 X68.818 Y115.817 E16.93624
G1 X69.083 Y115.405 E16.94561
G1 X69.411 Y115.042 E16.95497
G1 X69.794 Y114.737 E16.96433
G1 X70.222 Y114.499 E16.9737
G1 X70.682 Y114.333 E16.98305
G1 X71.286 Y114.242 E16.99473
G1 X71.014 Y113.472 E17.01035
G1 X70.573 Y111.911 E17.04137
G1 X70.237 Y110.319 E17.07249
G1 X70.012 Y108.723 E17.10331
G1 X69.892 Y107.091 E17.13461
G1 X69.883 Y105.48 E17.16542
G1 X69.987 Y103.841 E17.19682
G1 X70.196 Y102.246 E17.22759
G1 X70.517 Y100.648 E17.25876
G1 X70.941 Y99.086 E17.28971
G1 X71.283 Y98.092 E17.30982
G1 X70.84 Y98.034 E17.31836
G1 X70.371 Y97.893 E17.32773
G1 X69.931 Y97.678 E17.33709
G1 X69.533 Y97.395 E17.34643
G1 X69.185 Y97.05 E17.35581
G1 X68.898 Y96.653 E17.36517
G1 X68.68 Y96.215 E17.37453
G1 X68.536 Y95.747 E17.3839
G1 X68.465 Y95.1 E17.39634
G1 X68.465 Y83.163 E17.62463
G1 X68.562 Y82.243 E17.64233
G1 X68.754 Y81.522 E17.65659
G1 X68.912 Y81.131 E17.66466
G1 X69.261 Y80.499 E17.67847
G1 X69.638 Y79.977 E17.69078
G1 X69.956 Y79.604 E17.70016
M205 X30 Y30
G0 F3600 X70.445 Y79.703
M205 X15 Y15
G1 F1500 X70.791 Y79.426 E17.70863
G1 X71.318 Y79.099 E17.72049
G1 X71.917 Y78.82 E17.73313
G1 X72.346 Y78.665 E17.74185
G1 X72.996 Y78.577 E17.7544
G1 X74.489 Y78.566 E17.78295
G1 X82.219 Y78.566 E17.93078
G1 X83.113 Y78.724 E17.94815
G1 X83.525 Y78.918 E17.95686
G1 X83.898 Y79.181 E17.96558
G1 X84.219 Y79.504 E17.97429
G1 X84.536 Y80.005 E17.98563
G1 X85.217 Y79.431 E18.00267
G1 X85.803 Y79.081 E18.01572
G1 X86.313 Y78.861 E18.02634
G1 X86.979 Y78.674 E18.03957
G1 X87.545 Y78.594 E18.0505
G1 X87.909 Y78.568 E18.05748
G1 X113.213 Y78.566 E18.54141
G1 X114.1 Y78.66 E18.55847
G1 X114.759 Y78.836 E18.57151
G1 X115.275 Y79.05 E18.5822
G1 X115.87 Y79.395 E18.59535
G1 X116.307 Y79.733 E18.60592
G1 X116.799 Y80.235 E18.61936
G1 X117.126 Y80.673 E18.62981
G1 X117.478 Y81.317 E18.64385
G1 X117.673 Y81.838 E18.65449
G1 X117.822 Y82.462 E18.66676
G1 X117.837 Y82.594 E18.6693
G1 X118.412 Y82.293 E18.68171
G1 X118.853 Y82.178 E18.69043
G1 X119.307 Y82.142 E18.69914
G1 X119.76 Y82.186 E18.70784
G1 X120.199 Y82.308 E18.71655
G1 X120.834 Y82.654 E18.73038
G1 X125.431 Y86.064 E18.83985
G1 X125.8 Y86.169 E18.84718
G1 X126.209 Y86.369 E18.85589
G1 X126.578 Y86.637 E18.86461
G1 X126.894 Y86.966 E18.87334
G1 X127.147 Y87.344 E18.88204
G1 X127.331 Y87.761 E18.89075
G1 X127.861 Y90.181 E18.93813
G1 X127.953 Y90.784 E18.9498
G1 X127.98 Y91.155 E18.95691
G1 X127.978 Y129.398 E19.68829
G1 X127.938 Y129.852 E19.69701
G1 X127.819 Y130.292 E19.70572
G1 X127.626 Y130.704 E19.71443
G1 X127.363 Y131.077 E19.72315
G1 X127.04 Y131.398 E19.73186
G1 X126.407 Y131.786 E19.74606
G1 X125.909 Y131.957 E19.75613
