;FLAVOR:Marlin
;TIME:5027
;Filament used: 3.6536m
;Layer height: 0.15
;MINX:85.781
;MINY:94.282
;MINZ:0.1
;MAXX:176.219
;MAXY:135.718
;MAXZ:8.9
;Generated with Cura_SteamEngine 4.5.0
M140 S69
M105
M190 S69
M82 ;absolute extrusion mode
;Gcode by Cura
G90
M106 S255
G28 X Y
M109 R195
G28
M104 S192
G29
M107
G1 X100 Y10 F3000
G1 Z0.5
M109 S192
M82
G92 E0
G1 F200 E10
G92 E0
G1 Z3
G1 X120 Y10
G1 Z0.5
G92 E0
G1 F200 E10
G92 E0
G1 Z3
G1 F6000
G92 E0
G92 E0
G1 F1200 E-3.5
;LAYER_COUNT:53
;LAYER:0
M106 S255
M205 X30 Y30
G1 F120 Z1.1
G0 F3600 X87.116 Y94.903 Z1.1
M205 X15 Y15
;TYPE:SKIRT
G1 F120 Z0.1
G1 F1200 E0
G1 F1500 X87.529 Y94.641 E0.00813
G1 X87.98 Y94.45 E0.01628
G1 X88.456 Y94.335 E0.02442
G1 X88.92 Y94.299 E0.03216
G1 X127.999 Y94.282 E0.68205
G1 X128.487 Y94.322 E0.69019
G1 X129.217 Y94.54 E0.70286
G1 X129.807 Y94.845 E0.71391
G1 X130.192 Y95.146 E0.72203
G1 X130.524 Y95.506 E0.73018
G1 X130.793 Y95.915 E0.73832
G1 X130.993 Y96.362 E0.74646
G1 X131.2 Y95.927 E0.75447
G1 X131.626 Y95.358 E0.76629
G1 X132.116 Y94.903 E0.77741
G1 X132.529 Y94.641 E0.78555
G1 X132.98 Y94.45 E0.79369
G1 X133.456 Y94.335 E0.80184
G1 X133.92 Y94.299 E0.80958
G1 X172.999 Y94.282 E1.45946
G1 X173.487 Y94.322 E1.46761
G1 X174.217 Y94.54 E1.48027
G1 X174.807 Y94.845 E1.49132
G1 X175.192 Y95.146 E1.49945
G1 X175.524 Y95.506 E1.50759
G1 X175.793 Y95.915 E1.51573
G1 X176.014 Y96.415 E1.52482
G1 X176.153 Y96.885 E1.53297
G1 X176.217 Y97.498 E1.54322
G1 X176.218 Y98.949 E1.56735
G1 X176.178 Y99.437 E1.5755
G1 X176.025 Y99.994 E1.5851
G1 X176.156 Y100.44 E1.59283
G1 X176.218 Y101.049 E1.60301
G1 X176.218 Y103.951 E1.65127
G1 X176.178 Y104.439 E1.65942
G1 X176.025 Y104.994 E1.66899
G1 X176.156 Y105.44 E1.67672
G1 X176.218 Y106.048 E1.68688
G1 X176.219 Y108.948 E1.73511
G1 X176.179 Y109.436 E1.74325
G1 X176.025 Y109.994 E1.75288
G1 X176.156 Y110.44 E1.76061
G1 X176.218 Y111.049 E1.77079
G1 X176.218 Y112.135 E1.78885
G1 X176.201 Y112.674 E1.79782
G1 X176.145 Y113.16 E1.80595
G1 X176.01 Y113.631 E1.8141
G1 X175.8 Y114.073 E1.82224
G1 X175.374 Y114.642 E1.83406
G1 X174.999 Y114.995 E1.84263
G1 X175.192 Y115.146 E1.8467
G1 X175.524 Y115.506 E1.85485
G1 X175.793 Y115.915 E1.86299
G1 X176.014 Y116.415 E1.87208
G1 X176.153 Y116.885 E1.88023
G1 X176.217 Y117.498 E1.89048
G1 X176.218 Y118.948 E1.91459
G1 X176.178 Y119.436 E1.92273
G1 X176.025 Y119.993 E1.93234
G1 X176.156 Y120.44 E1.94009
G1 X176.218 Y121.048 E1.95025
G1 X176.219 Y123.948 E1.99848
G1 X176.179 Y124.436 E2.00662
G1 X176.025 Y124.994 E2.01625
G1 X176.156 Y125.44 E2.02398
G1 X176.218 Y126.049 E2.03416
G1 X176.218 Y128.951 E2.08242
G1 X176.178 Y129.439 E2.09056
G1 X176.025 Y129.994 E2.10013
G1 X176.156 Y130.44 E2.10786
G1 X176.218 Y131.049 E2.11804
G1 X176.218 Y132.135 E2.1361
G1 X176.201 Y132.674 E2.14507
G1 X176.145 Y133.16 E2.15321
G1 X176.01 Y133.631 E2.16136
G1 X175.8 Y134.073 E2.16949
G1 X175.374 Y134.642 E2.18131
G1 X174.884 Y135.097 E2.19244
G1 X174.471 Y135.359 E2.20057
G1 X174.02 Y135.55 E2.20871
G1 X173.544 Y135.665 E2.21686
G1 X173.08 Y135.701 E2.2246
G1 X134.001 Y135.718 E2.87448
G1 X133.513 Y135.678 E2.88263
G1 X132.783 Y135.46 E2.8953
G1 X132.193 Y135.155 E2.90634
G1 X131.808 Y134.854 E2.91447
G1 X131.476 Y134.494 E2.92261
G1 X131.207 Y134.085 E2.93075
G1 X131.005 Y133.635 E2.93896
G1 X130.812 Y134.051 E2.94658
G1 X130.374 Y134.642 E2.95882
G1 X129.884 Y135.097 E2.96994
G1 X129.471 Y135.359 E2.97807
G1 X129.02 Y135.55 E2.98621
G1 X128.544 Y135.665 E2.99436
G1 X128.08 Y135.701 E3.0021
G1 X89 Y135.716 E3.652
G1 X88.512 Y135.676 E3.66014
G1 X87.805 Y135.468 E3.6724
G1 X87.214 Y135.168 E3.68342
G1 X86.826 Y134.87 E3.69156
G1 X86.491 Y134.513 E3.6997
G1 X86.219 Y134.106 E3.70784
G1 X85.975 Y133.551 E3.71792
G1 X85.842 Y133.08 E3.72606
G1 X85.785 Y132.502 E3.73572
G1 X85.784 Y131.051 E3.75985
G1 X85.824 Y130.563 E3.76799
G1 X85.978 Y130.005 E3.77762
G1 X85.848 Y129.565 E3.78525
G1 X85.784 Y128.951 E3.79552
G1 X85.784 Y126.049 E3.84378
G1 X85.824 Y125.561 E3.85192
G1 X85.978 Y125.005 E3.86151
G1 X85.848 Y124.565 E3.86914
G1 X85.784 Y123.952 E3.87939
G1 X85.783 Y121.05 E3.92765
G1 X85.823 Y120.562 E3.9358
G1 X85.978 Y120.003 E3.94544
G1 X85.848 Y119.565 E3.95304
G1 X85.784 Y118.951 E3.96331
G1 X85.784 Y117.93 E3.98029
G1 X85.798 Y117.351 E3.98992
G1 X85.851 Y116.865 E3.99805
G1 X85.982 Y116.393 E4.00619
G1 X86.188 Y115.949 E4.01433
G1 X86.626 Y115.358 E4.02657
G1 X87.001 Y115.005 E4.03513
G1 X86.808 Y114.854 E4.03921
G1 X86.476 Y114.494 E4.04735
G1 X86.207 Y114.085 E4.05549
G1 X85.986 Y113.585 E4.06458
G1 X85.847 Y113.115 E4.07273
G1 X85.783 Y112.502 E4.08298
G1 X85.782 Y111.051 E4.10711
G1 X85.822 Y110.563 E4.11526
G1 X85.975 Y110.006 E4.12486
G1 X85.844 Y109.56 E4.13259
G1 X85.782 Y108.951 E4.14277
G1 X85.782 Y106.049 E4.19103
G1 X85.822 Y105.561 E4.19918
G1 X85.975 Y105.006 E4.20875
G1 X85.844 Y104.56 E4.21648
G1 X85.782 Y103.952 E4.22664
G1 X85.781 Y101.052 E4.27487
G1 X85.821 Y100.564 E4.28301
G1 X85.975 Y100.006 E4.29264
G1 X85.844 Y99.56 E4.30037
G1 X85.782 Y98.951 E4.31055
G1 X85.782 Y97.865 E4.32861
G1 X85.799 Y97.326 E4.33758
G1 X85.855 Y96.84 E4.34571
G1 X85.99 Y96.369 E4.35386
G1 X86.2 Y95.927 E4.362
G1 X86.626 Y95.358 E4.37382
G1 X87.116 Y94.903 E4.38494
M205 X30 Y30
G0 F3600 X87.382 Y95.204
M205 X15 Y15
G1 F1500 X87.771 Y94.967 E4.39252
G1 X88.196 Y94.802 E4.4001
G1 X88.92 Y94.699 E4.41226
G1 X127.999 Y94.682 E5.06215
G1 X128.453 Y94.722 E5.06973
G1 X129.055 Y94.905 E5.08019
G1 X129.613 Y95.197 E5.09066
G1 X129.967 Y95.484 E5.09824
G1 X130.266 Y95.828 E5.10582
G1 X130.584 Y96.413 E5.11689
G1 X130.768 Y96.998 E5.12709
G1 X130.817 Y97.498 E5.13545
G1 X130.818 Y98.948 E5.15956
G1 X130.778 Y99.402 E5.16714
G1 X130.587 Y99.998 E5.17755
G1 X130.706 Y100.293 E5.18284
G1 X130.799 Y100.739 E5.19041
G1 X130.819 Y103.948 E5.24378
G1 X130.779 Y104.402 E5.25136
G1 X130.587 Y104.999 E5.26179
G1 X130.706 Y105.293 E5.26706
G1 X130.799 Y105.739 E5.27464
G1 X130.818 Y108.951 E5.32806
G1 X130.778 Y109.405 E5.33564
G1 X130.588 Y109.999 E5.34601
G1 X130.706 Y110.293 E5.35128
G1 X130.799 Y110.739 E5.35885
G1 X130.818 Y112.135 E5.38207
G1 X130.801 Y112.66 E5.39081
G1 X130.746 Y113.113 E5.39839
G1 X130.612 Y113.548 E5.40596
G1 X130.405 Y113.954 E5.41354
G1 X130.084 Y114.366 E5.42223
G1 X129.618 Y114.796 E5.43277
G1 X129.27 Y115.008 E5.43955
G1 X129.596 Y115.185 E5.44572
G1 X129.952 Y115.469 E5.45329
G1 X130.253 Y115.811 E5.46087
G1 X130.595 Y116.442 E5.4728
G1 X130.772 Y117.028 E5.48298
G1 X130.815 Y117.498 E5.49083
G1 X130.816 Y118.949 E5.51496
G1 X130.776 Y119.403 E5.52254
G1 X130.585 Y119.999 E5.53295
G1 X130.702 Y120.288 E5.53814
G1 X130.797 Y120.734 E5.54572
G1 X130.817 Y123.949 E5.59919
G1 X130.777 Y124.403 E5.60677
G1 X130.585 Y125 E5.61719
G1 X130.702 Y125.288 E5.62236
G1 X130.797 Y125.734 E5.62995
G1 X130.816 Y128.951 E5.68345
G1 X130.776 Y129.405 E5.69103
G1 X130.585 Y130 E5.70142
G1 X130.702 Y130.288 E5.70659
G1 X130.797 Y130.734 E5.71417
G1 X130.816 Y132.07 E5.73639
G1 X130.802 Y132.638 E5.74584
G1 X130.75 Y133.091 E5.75342
G1 X130.621 Y133.528 E5.761
G1 X130.416 Y133.935 E5.76858
G1 X130.084 Y134.366 E5.77763
G1 X129.618 Y134.796 E5.78817
G1 X129.229 Y135.033 E5.79575
G1 X128.804 Y135.198 E5.80333
G1 X128.08 Y135.301 E5.81549
G1 X89 Y135.316 E6.46539
G1 X88.546 Y135.276 E6.47297
G1 X87.964 Y135.101 E6.48308
G1 X87.404 Y134.815 E6.49354
G1 X87.048 Y134.531 E6.50111
G1 X86.747 Y134.189 E6.50869
G1 X86.405 Y133.558 E6.52062
G1 X86.228 Y132.972 E6.5308
G1 X86.185 Y132.502 E6.53865
G1 X86.184 Y131.051 E6.56278
G1 X86.224 Y130.597 E6.57036
G1 X86.415 Y130.001 E6.58077
G1 X86.298 Y129.712 E6.58595
G1 X86.203 Y129.266 E6.59354
G1 X86.184 Y126.049 E6.64704
G1 X86.224 Y125.595 E6.65462
G1 X86.415 Y125 E6.66501
G1 X86.298 Y124.712 E6.67018
G1 X86.203 Y124.266 E6.67776
G1 X86.183 Y121.05 E6.73124
G1 X86.223 Y120.596 E6.73882
G1 X86.415 Y120 E6.74924
G1 X86.298 Y119.712 E6.75441
G1 X86.203 Y119.266 E6.76199
G1 X86.184 Y117.93 E6.78421
G1 X86.198 Y117.362 E6.79366
G1 X86.25 Y116.909 E6.80124
G1 X86.379 Y116.472 E6.80882
G1 X86.584 Y116.065 E6.8164
G1 X86.916 Y115.634 E6.82545
G1 X87.382 Y115.204 E6.83599
G1 X87.729 Y114.993 E6.84274
G1 X87.387 Y114.803 E6.84925
G1 X87.033 Y114.516 E6.85683
G1 X86.734 Y114.172 E6.86441
G1 X86.416 Y113.587 E6.87548
G1 X86.232 Y113.002 E6.88568
G1 X86.183 Y112.502 E6.89403
G1 X86.182 Y111.051 E6.91816
G1 X86.222 Y110.597 E6.92574
G1 X86.413 Y110.002 E6.93614
G1 X86.294 Y109.707 E6.94143
G1 X86.201 Y109.261 E6.949
G1 X86.182 Y106.049 E7.00242
G1 X86.222 Y105.595 E7.01
G1 X86.412 Y105.001 E7.02037
G1 X86.294 Y104.707 E7.02564
G1 X86.201 Y104.261 E7.03322
G1 X86.181 Y101.052 E7.08658
G1 X86.221 Y100.598 E7.09416
G1 X86.413 Y100.001 E7.10459
G1 X86.294 Y99.707 E7.10986
G1 X86.201 Y99.261 E7.11744
G1 X86.182 Y97.865 E7.14066
G1 X86.199 Y97.34 E7.14939
G1 X86.254 Y96.887 E7.15698
G1 X86.388 Y96.452 E7.16455
G1 X86.595 Y96.046 E7.17213
G1 X86.916 Y95.634 E7.18082
G1 X87.382 Y95.204 E7.19136
M205 X30 Y30
G0 F3600 X87.646 Y95.506
M205 X15 Y15
G1 F1500 X88.009 Y95.297 E7.19833
G1 X88.405 Y95.16 E7.2053
G1 X88.92 Y95.099 E7.21392
G1 X127.999 Y95.082 E7.86381
G1 X128.416 Y95.122 E7.87077
G1 X129.052 Y95.342 E7.88197
G1 X129.417 Y95.548 E7.88894
G1 X129.737 Y95.819 E7.89591
G1 X129.999 Y96.146 E7.90288
G1 X130.268 Y96.705 E7.91319
G1 X130.382 Y97.108 E7.92016
G1 X130.417 Y97.498 E7.92667
G1 X130.418 Y98.948 E7.95078
G1 X130.378 Y99.366 E7.95777
G1 X130.26 Y99.768 E7.96473
G1 X130.141 Y99.999 E7.96906
G1 X130.25 Y100.205 E7.97293
G1 X130.373 Y100.605 E7.97989
G1 X130.418 Y101.048 E7.9873
G1 X130.419 Y103.948 E8.03552
G1 X130.379 Y104.365 E8.04249
G1 X130.261 Y104.767 E8.04946
G1 X130.141 Y105 E8.05382
G1 X130.25 Y105.205 E8.05768
G1 X130.373 Y105.605 E8.06464
G1 X130.418 Y106.049 E8.07206
G1 X130.418 Y108.951 E8.12032
G1 X130.378 Y109.368 E8.12728
G1 X130.26 Y109.77 E8.13425
G1 X130.141 Y110 E8.13856
G1 X130.25 Y110.205 E8.14242
G1 X130.373 Y110.605 E8.14938
G1 X130.418 Y111.049 E8.1568
G1 X130.418 Y112.135 E8.17486
G1 X130.402 Y112.647 E8.18338
G1 X130.347 Y113.062 E8.19034
G1 X130.215 Y113.46 E8.19731
G1 X130.01 Y113.825 E8.20428
G1 X129.671 Y114.219 E8.21292
G1 X129.354 Y114.494 E8.2199
G1 X128.991 Y114.703 E8.22687
G1 X128.595 Y114.84 E8.23383
G1 X128.08 Y114.901 E8.24246
G1 X89.001 Y114.918 E8.89234
G1 X88.584 Y114.878 E8.89931
G1 X87.948 Y114.658 E8.9105
G1 X87.583 Y114.452 E8.91747
G1 X87.263 Y114.181 E8.92445
G1 X87.001 Y113.854 E8.93141
G1 X86.732 Y113.295 E8.94173
G1 X86.618 Y112.892 E8.9487
G1 X86.583 Y112.502 E8.95521
G1 X86.582 Y111.051 E8.97934
G1 X86.622 Y110.633 E8.98632
G1 X86.74 Y110.231 E8.99329
G1 X86.859 Y110 E8.99761
G1 X86.75 Y109.795 E9.00147
G1 X86.627 Y109.395 E9.00843
G1 X86.582 Y108.951 E9.01585
G1 X86.582 Y106.049 E9.06411
G1 X86.622 Y105.632 E9.07108
G1 X86.74 Y105.23 E9.07805
G1 X86.859 Y105 E9.08235
G1 X86.75 Y104.795 E9.08621
G1 X86.627 Y104.395 E9.09317
G1 X86.582 Y103.952 E9.10058
G1 X86.581 Y101.052 E9.14881
G1 X86.621 Y100.635 E9.15577
G1 X86.739 Y100.233 E9.16274
G1 X86.859 Y100 E9.1671
G1 X86.75 Y99.795 E9.17096
G1 X86.627 Y99.395 E9.17792
G1 X86.582 Y98.951 E9.18534
G1 X86.582 Y97.865 E9.2034
G1 X86.598 Y97.353 E9.21192
G1 X86.653 Y96.938 E9.21888
G1 X86.785 Y96.54 E9.22585
G1 X86.99 Y96.175 E9.23282
G1 X87.329 Y95.781 E9.24146
G1 X87.646 Y95.506 E9.24844
M205 X30 Y30
G0 F3600 X87.907 Y95.811
M205 X15 Y15
G1 F1500 X88.241 Y95.632 E9.25474
G1 X88.605 Y95.527 E9.26104
G1 X88.92 Y95.499 E9.2663
G1 X127.999 Y95.482 E9.91619
G1 X128.376 Y95.522 E9.92249
G1 X128.89 Y95.708 E9.93158
G1 X129.218 Y95.897 E9.93788
G1 X129.5 Y96.151 E9.94419
G1 X129.722 Y96.458 E9.95049
G1 X129.895 Y96.849 E9.9576
G1 X129.994 Y97.215 E9.9639
G1 X130.018 Y98.949 E9.99274
G1 X129.978 Y99.326 E9.99905
G1 X129.861 Y99.686 E10.00534
G1 X129.673 Y100.007 E10.01153
G1 X129.794 Y100.18 E10.01504
G1 X129.941 Y100.529 E10.02134
G1 X130.018 Y101.048 E10.03006
G1 X130.019 Y103.948 E10.07829
G1 X129.979 Y104.325 E10.0846
G1 X129.861 Y104.685 E10.0909
G1 X129.674 Y105.008 E10.0971
G1 X129.794 Y105.18 E10.10059
G1 X129.941 Y105.529 E10.10689
G1 X130.018 Y106.049 E10.11563
G1 X130.018 Y108.951 E10.16389
G1 X129.978 Y109.328 E10.1702
G1 X129.86 Y109.688 E10.1765
G1 X129.674 Y110.008 E10.18265
G1 X129.794 Y110.18 E10.18614
G1 X129.941 Y110.529 E10.19244
G1 X130.018 Y111.049 E10.20118
G1 X130.018 Y112.135 E10.21924
G1 X129.949 Y113.008 E10.2338
G1 X129.819 Y113.364 E10.2401
G1 X129.505 Y113.813 E10.24922
G1 X129.093 Y114.189 E10.25849
G1 X128.759 Y114.368 E10.26479
G1 X128.395 Y114.473 E10.27109
G1 X128.08 Y114.501 E10.27635
G1 X89.001 Y114.518 E10.92624
G1 X88.624 Y114.478 E10.93254
G1 X88.11 Y114.292 E10.94163
G1 X87.782 Y114.103 E10.94793
G1 X87.5 Y113.849 E10.95424
G1 X87.278 Y113.542 E10.96054
G1 X87.105 Y113.151 E10.96765
G1 X87.006 Y112.785 E10.97396
G1 X86.982 Y111.05 E11.00281
G1 X87.022 Y110.673 E11.00912
G1 X87.139 Y110.313 E11.01541
G1 X87.326 Y109.992 E11.02159
G1 X87.206 Y109.82 E11.02508
G1 X87.059 Y109.471 E11.03138
G1 X86.982 Y108.951 E11.04012
G1 X86.982 Y106.049 E11.08838
G1 X87.022 Y105.672 E11.09468
G1 X87.14 Y105.312 E11.10098
G1 X87.326 Y104.992 E11.10714
G1 X87.206 Y104.82 E11.11063
G1 X87.059 Y104.471 E11.11693
G1 X86.982 Y103.952 E11.12565
G1 X86.981 Y101.052 E11.17388
G1 X87.021 Y100.675 E11.18018
G1 X87.139 Y100.315 E11.18648
G1 X87.326 Y99.992 E11.19269
G1 X87.206 Y99.82 E11.19618
G1 X87.059 Y99.471 E11.20248
G1 X86.982 Y98.951 E11.21122
G1 X86.982 Y97.865 E11.22928
G1 X87.051 Y96.992 E11.24384
G1 X87.181 Y96.636 E11.25014
G1 X87.495 Y96.187 E11.25925
G1 X87.907 Y95.811 E11.26853
M205 X30 Y30
G0 F3600 X88.166 Y96.12
M205 X15 Y15
G1 F1500 X88.466 Y95.975 E11.27407
G1 X88.92 Y95.899 E11.28173
G1 X127.999 Y95.882 E11.93161
G1 X128.728 Y96.073 E11.94415
G1 X129.015 Y96.244 E11.9497
G1 X129.253 Y96.478 E11.95525
G1 X129.522 Y96.994 E11.96493
G1 X129.617 Y97.499 E11.97348
G1 X129.618 Y98.949 E11.99759
G1 X129.578 Y99.281 E12.00315
G1 X129.461 Y99.594 E12.00871
G1 X129.273 Y99.87 E12.01426
G1 X129.135 Y99.995 E12.01736
G1 X129.349 Y100.224 E12.02257
G1 X129.512 Y100.515 E12.02812
G1 X129.602 Y100.837 E12.03368
G1 X129.619 Y103.949 E12.08543
G1 X129.579 Y104.28 E12.09097
G1 X129.462 Y104.593 E12.09653
G1 X129.274 Y104.869 E12.10208
G1 X129.135 Y104.995 E12.1052
G1 X129.349 Y105.224 E12.11042
G1 X129.512 Y105.515 E12.11596
G1 X129.602 Y105.837 E12.12152
G1 X129.618 Y108.951 E12.17331
G1 X129.578 Y109.283 E12.17887
G1 X129.461 Y109.595 E12.18441
G1 X129.273 Y109.872 E12.18998
G1 X129.136 Y109.996 E12.19305
G1 X129.349 Y110.224 E12.19824
G1 X129.512 Y110.515 E12.20379
G1 X129.602 Y110.837 E12.20935
G1 X129.618 Y112.135 E12.23094
G1 X129.551 Y112.949 E12.24452
G1 X129.423 Y113.258 E12.25008
G1 X129.092 Y113.667 E12.25883
G1 X128.834 Y113.88 E12.2644
G1 X128.534 Y114.025 E12.26994
G1 X128.08 Y114.101 E12.27759
G1 X89.001 Y114.118 E12.92748
G1 X88.669 Y114.078 E12.93304
G1 X88.272 Y113.927 E12.9401
G1 X87.985 Y113.756 E12.94566
G1 X87.747 Y113.522 E12.95121
G1 X87.478 Y113.006 E12.96089
G1 X87.383 Y112.501 E12.96943
G1 X87.382 Y111.05 E12.99356
G1 X87.422 Y110.718 E12.99912
G1 X87.539 Y110.405 E13.00468
G1 X87.727 Y110.129 E13.01023
G1 X87.865 Y110.005 E13.01332
G1 X87.651 Y109.776 E13.01853
G1 X87.488 Y109.485 E13.02408
G1 X87.398 Y109.163 E13.02964
G1 X87.382 Y106.049 E13.08142
G1 X87.422 Y105.717 E13.08699
G1 X87.539 Y105.405 E13.09253
G1 X87.727 Y105.128 E13.09809
G1 X87.864 Y105.004 E13.10117
G1 X87.651 Y104.776 E13.10636
G1 X87.488 Y104.485 E13.1119
G1 X87.398 Y104.163 E13.11746
