;FLAVOR:Marlin
;TIME:1241
;Filament used: 0.914208m
;Layer height: 0.15
;MINX:134.237
;MINY:172.477
;MINZ:0.1
;MAXX:179.675
;MAXY:193.913
;MAXZ:7.9
;Generated with Cura_SteamEngine 4.5.0
M140 S69
M105
M190 S69
M82 ;absolute extrusion mode
;Gcode by Cura
G90
M106 S255
G28 X Y
M109 R195
G28
M104 S192
G29
M107
G1 X100 Y10 F3000
G1 Z0.5
M109 S192
M82
G92 E0
G1 F200 E10
G92 E0
G1 Z3
G1 F6000
G92 E0
G92 E0
G1 F1200 E-3.5
;LAYER_COUNT:53
;LAYER:0
M106 S255
M205 X30 Y30
G1 F120 Z1.1
G0 F3600 X135.592 Y173.084 Z1.1
M205 X15 Y15
;TYPE:SKIRT
G1 F120 Z0.1
G1 F1200 E0
G1 F1500 X136.007 Y172.825 E0.00814
G1 X136.46 Y172.638 E0.01629
G1 X136.936 Y172.527 E0.02441
G1 X137.377 Y172.494 E0.03177
G1 X176.455 Y172.477 E0.68164
G1 X176.943 Y172.517 E0.68978
G1 X177.673 Y172.735 E0.70245
G1 X178.263 Y173.04 E0.7135
G1 X178.648 Y173.341 E0.72162
G1 X178.98 Y173.701 E0.72977
G1 X179.249 Y174.11 E0.73791
G1 X179.47 Y174.61 E0.747
G1 X179.609 Y175.08 E0.75515
G1 X179.673 Y175.693 E0.7654
G1 X179.674 Y177.142 E0.7895
G1 X179.634 Y177.63 E0.79764
G1 X179.48 Y178.188 E0.80727
G1 X179.612 Y178.635 E0.81502
G1 X179.674 Y179.243 E0.82518
G1 X179.675 Y182.143 E0.87341
G1 X179.635 Y182.631 E0.88155
G1 X179.481 Y183.189 E0.89118
G1 X179.612 Y183.635 E0.89891
G1 X179.674 Y184.244 E0.90909
G1 X179.674 Y187.144 E0.95731
G1 X179.634 Y187.632 E0.96546
G1 X179.48 Y188.187 E0.97503
G1 X179.612 Y188.635 E0.9828
G1 X179.674 Y189.244 E0.99298
G1 X179.674 Y190.33 E1.01104
G1 X179.657 Y190.869 E1.02001
G1 X179.601 Y191.355 E1.02815
G1 X179.466 Y191.826 E1.03629
G1 X179.256 Y192.268 E1.04443
G1 X178.83 Y192.837 E1.05625
G1 X178.34 Y193.292 E1.06737
G1 X177.927 Y193.554 E1.07551
G1 X177.476 Y193.745 E1.08365
G1 X177 Y193.86 E1.09179
G1 X176.536 Y193.896 E1.09953
G1 X137.457 Y193.913 E1.74942
G1 X136.969 Y193.873 E1.75756
G1 X136.239 Y193.655 E1.77023
G1 X135.649 Y193.35 E1.78128
G1 X135.264 Y193.049 E1.78941
G1 X134.932 Y192.689 E1.79755
G1 X134.663 Y192.28 E1.80569
G1 X134.442 Y191.78 E1.81478
G1 X134.303 Y191.31 E1.82293
G1 X134.239 Y190.697 E1.83318
G1 X134.238 Y189.246 E1.85731
G1 X134.278 Y188.758 E1.86546
G1 X134.431 Y188.203 E1.87503
G1 X134.296 Y187.73 E1.88321
G1 X134.238 Y187.144 E1.893
G1 X134.238 Y184.244 E1.94123
G1 X134.278 Y183.756 E1.94937
G1 X134.431 Y183.203 E1.95891
G1 X134.296 Y182.73 E1.96709
G1 X134.238 Y182.145 E1.97687
G1 X134.237 Y179.247 E2.02506
G1 X134.277 Y178.759 E2.03321
G1 X134.431 Y178.202 E2.04282
G1 X134.296 Y177.73 E2.05098
G1 X134.238 Y177.144 E2.06077
G1 X134.238 Y176.06 E2.0788
G1 X134.255 Y175.52 E2.08779
G1 X134.311 Y175.034 E2.09592
G1 X134.446 Y174.563 E2.10407
G1 X134.656 Y174.121 E2.11221
G1 X135.099 Y173.535 E2.12442
G1 X135.592 Y173.084 E2.13554
M205 X30 Y30
G0 F3600 X135.855 Y173.387
M205 X15 Y15
G1 F1500 X136.247 Y173.153 E2.14313
G1 X136.673 Y172.992 E2.1507
G1 X137.377 Y172.894 E2.16252
G1 X176.455 Y172.877 E2.81239
G1 X176.909 Y172.917 E2.81997
G1 X177.511 Y173.1 E2.83043
G1 X178.069 Y173.392 E2.84091
G1 X178.423 Y173.679 E2.84849
G1 X178.722 Y174.023 E2.85607
G1 X179.04 Y174.608 E2.86714
G1 X179.224 Y175.193 E2.87734
G1 X179.273 Y175.693 E2.88569
G1 X179.274 Y177.142 E2.90979
G1 X179.234 Y177.596 E2.91737
G1 X179.043 Y178.192 E2.92778
G1 X179.162 Y178.488 E2.93308
G1 X179.255 Y178.934 E2.94066
G1 X179.275 Y182.143 E2.99403
G1 X179.235 Y182.597 E3.00161
G1 X179.043 Y183.194 E3.01203
G1 X179.162 Y183.488 E3.01731
G1 X179.255 Y183.934 E3.02489
G1 X179.274 Y187.144 E3.07827
G1 X179.234 Y187.598 E3.08585
G1 X179.043 Y188.193 E3.09624
G1 X179.162 Y188.488 E3.10153
G1 X179.255 Y188.934 E3.10911
G1 X179.274 Y190.33 E3.13232
G1 X179.257 Y190.855 E3.14106
G1 X179.202 Y191.308 E3.14865
G1 X179.068 Y191.743 E3.15622
G1 X178.861 Y192.149 E3.1638
G1 X178.54 Y192.561 E3.17248
G1 X178.074 Y192.991 E3.18303
G1 X177.685 Y193.228 E3.1906
G1 X177.26 Y193.393 E3.19818
G1 X176.536 Y193.496 E3.21035
G1 X137.457 Y193.513 E3.86023
G1 X137.003 Y193.473 E3.86781
G1 X136.401 Y193.29 E3.87828
G1 X135.843 Y192.998 E3.88875
G1 X135.489 Y192.711 E3.89633
G1 X135.19 Y192.367 E3.90391
G1 X134.872 Y191.782 E3.91498
G1 X134.688 Y191.197 E3.92518
G1 X134.639 Y190.697 E3.93353
G1 X134.638 Y189.246 E3.95766
G1 X134.678 Y188.792 E3.96524
G1 X134.869 Y188.197 E3.97564
G1 X134.744 Y187.88 E3.9813
G1 X134.654 Y187.434 E3.98887
G1 X134.638 Y184.244 E4.04192
G1 X134.678 Y183.79 E4.0495
G1 X134.868 Y183.196 E4.05987
G1 X134.744 Y182.88 E4.06551
G1 X134.654 Y182.434 E4.07308
G1 X134.637 Y179.247 E4.12608
G1 X134.677 Y178.793 E4.13366
G1 X134.869 Y178.196 E4.14409
G1 X134.744 Y177.88 E4.14974
G1 X134.654 Y177.434 E4.15731
G1 X134.638 Y176.06 E4.18016
G1 X134.655 Y175.534 E4.18891
G1 X134.71 Y175.082 E4.19648
G1 X134.844 Y174.646 E4.20407
G1 X135.051 Y174.24 E4.21165
G1 X135.386 Y173.814 E4.22066
G1 X135.855 Y173.387 E4.23121
M205 X30 Y30
G0 F3600 X136.117 Y173.691
M205 X15 Y15
G1 F1500 X136.482 Y173.485 E4.23818
G1 X136.879 Y173.351 E4.24515
G1 X137.377 Y173.294 E4.25348
G1 X176.455 Y173.277 E4.90335
G1 X176.872 Y173.317 E4.91032
G1 X177.508 Y173.537 E4.92151
G1 X177.873 Y173.743 E4.92848
G1 X178.193 Y174.014 E4.93545
G1 X178.455 Y174.341 E4.94242
G1 X178.724 Y174.9 E4.95274
G1 X178.838 Y175.303 E4.9597
G1 X178.873 Y175.693 E4.96622
G1 X178.874 Y177.142 E4.99031
G1 X178.834 Y177.56 E4.9973
G1 X178.716 Y177.962 E5.00426
G1 X178.596 Y178.194 E5.00861
G1 X178.706 Y178.4 E5.01249
G1 X178.829 Y178.8 E5.01945
G1 X178.874 Y179.243 E5.02685
G1 X178.875 Y182.143 E5.07508
G1 X178.835 Y182.56 E5.08205
G1 X178.717 Y182.962 E5.08902
G1 X178.597 Y183.195 E5.09337
G1 X178.706 Y183.4 E5.09724
G1 X178.829 Y183.8 E5.10419
G1 X178.874 Y184.244 E5.11162
G1 X178.874 Y187.144 E5.15984
G1 X178.834 Y187.561 E5.16681
G1 X178.716 Y187.963 E5.17378
G1 X178.596 Y188.194 E5.17811
G1 X178.706 Y188.4 E5.18199
G1 X178.829 Y188.8 E5.18895
G1 X178.874 Y189.244 E5.19637
G1 X178.874 Y190.33 E5.21443
G1 X178.858 Y190.842 E5.22295
G1 X178.803 Y191.257 E5.22991
G1 X178.671 Y191.655 E5.23689
G1 X178.466 Y192.02 E5.24385
G1 X178.127 Y192.414 E5.25249
G1 X177.81 Y192.689 E5.25947
G1 X177.447 Y192.898 E5.26644
G1 X177.051 Y193.035 E5.2734
G1 X176.536 Y193.096 E5.28203
G1 X137.457 Y193.113 E5.93191
G1 X137.04 Y193.073 E5.93888
G1 X136.404 Y192.853 E5.95007
G1 X136.039 Y192.647 E5.95704
G1 X135.719 Y192.376 E5.96402
G1 X135.457 Y192.049 E5.97098
G1 X135.188 Y191.49 E5.9813
G1 X135.074 Y191.087 E5.98827
G1 X135.039 Y190.697 E5.99478
G1 X135.038 Y189.246 E6.01891
G1 X135.078 Y188.828 E6.02589
G1 X135.196 Y188.426 E6.03286
G1 X135.316 Y188.194 E6.0372
G1 X135.2 Y187.973 E6.04135
G1 X135.08 Y187.571 E6.04833
G1 X135.038 Y187.144 E6.05547
G1 X135.038 Y184.244 E6.10369
G1 X135.078 Y183.827 E6.11066
G1 X135.196 Y183.425 E6.11763
G1 X135.316 Y183.194 E6.12196
G1 X135.2 Y182.973 E6.12611
G1 X135.08 Y182.571 E6.13308
G1 X135.038 Y182.145 E6.1402
G1 X135.037 Y179.247 E6.1884
G1 X135.077 Y178.83 E6.19536
G1 X135.195 Y178.428 E6.20233
G1 X135.316 Y178.194 E6.20671
G1 X135.2 Y177.973 E6.21086
G1 X135.08 Y177.571 E6.21784
G1 X135.038 Y177.144 E6.22497
G1 X135.038 Y176.06 E6.243
G1 X135.054 Y175.548 E6.25152
G1 X135.108 Y175.132 E6.2585
G1 X135.24 Y174.734 E6.26547
G1 X135.446 Y174.369 E6.27244
G1 X135.798 Y173.963 E6.28137
G1 X136.117 Y173.691 E6.28835
M205 X30 Y30
G0 F3600 X136.376 Y173.999
M205 X15 Y15
G1 F1500 X136.711 Y173.822 E6.29465
G1 X137.076 Y173.719 E6.30095
G1 X176.455 Y173.677 E6.95583
G1 X176.832 Y173.717 E6.96213
G1 X177.346 Y173.903 E6.97122
G1 X177.674 Y174.092 E6.97752
G1 X177.956 Y174.346 E6.98383
G1 X178.178 Y174.653 E6.99013
G1 X178.351 Y175.044 E6.99724
G1 X178.45 Y175.41 E7.00355
G1 X178.474 Y177.143 E7.03237
G1 X178.434 Y177.52 E7.03868
G1 X178.317 Y177.88 E7.04497
G1 X178.129 Y178.202 E7.05117
G1 X178.25 Y178.375 E7.05468
G1 X178.397 Y178.724 E7.06098
G1 X178.474 Y179.243 E7.06971
G1 X178.475 Y182.143 E7.11793
G1 X178.435 Y182.52 E7.12424
G1 X178.317 Y182.88 E7.13054
G1 X178.13 Y183.203 E7.13674
G1 X178.25 Y183.375 E7.14023
G1 X178.397 Y183.724 E7.14653
G1 X178.474 Y184.244 E7.15527
G1 X178.474 Y187.144 E7.2035
G1 X178.434 Y187.521 E7.2098
G1 X178.316 Y187.881 E7.2161
G1 X178.129 Y188.202 E7.22228
G1 X178.25 Y188.375 E7.22579
G1 X178.397 Y188.724 E7.23209
G1 X178.474 Y189.244 E7.24083
G1 X178.474 Y190.33 E7.25889
G1 X178.405 Y191.203 E7.27346
G1 X178.275 Y191.559 E7.27976
G1 X177.961 Y192.008 E7.28887
G1 X177.549 Y192.384 E7.29815
G1 X177.215 Y192.563 E7.30445
G1 X176.851 Y192.668 E7.31075
G1 X176.536 Y192.696 E7.31601
G1 X137.457 Y192.713 E7.96589
G1 X137.08 Y192.673 E7.9722
G1 X136.566 Y192.487 E7.98129
G1 X136.238 Y192.298 E7.98758
G1 X135.956 Y192.044 E7.9939
G1 X135.734 Y191.737 E8.0002
G1 X135.561 Y191.346 E8.00731
G1 X135.462 Y190.98 E8.01361
G1 X135.438 Y189.245 E8.04247
G1 X135.478 Y188.868 E8.04877
G1 X135.595 Y188.508 E8.05507
G1 X135.783 Y188.186 E8.06127
G1 X135.655 Y188.001 E8.06501
G1 X135.511 Y187.651 E8.0713
G1 X135.438 Y187.144 E8.07982
G1 X135.438 Y184.244 E8.12805
G1 X135.478 Y183.867 E8.13435
G1 X135.596 Y183.507 E8.14065
G1 X135.783 Y183.186 E8.14683
G1 X135.655 Y183.001 E8.15057
G1 X135.511 Y182.651 E8.15687
G1 X135.438 Y182.145 E8.16537
G1 X135.437 Y179.247 E8.21356
G1 X135.477 Y178.87 E8.21987
G1 X135.595 Y178.51 E8.22617
G1 X135.783 Y178.186 E8.2324
G1 X135.655 Y178.001 E8.23614
G1 X135.511 Y177.651 E8.24243
G1 X135.438 Y177.144 E8.25095
G1 X135.438 Y176.06 E8.26898
G1 X135.507 Y175.186 E8.28356
G1 X135.637 Y174.83 E8.28986
G1 X135.96 Y174.37 E8.29921
G1 X136.376 Y173.999 E8.30848
M205 X30 Y30
G0 F3600 X136.632 Y174.309
M205 X15 Y15
G1 F1500 X136.934 Y174.166 E8.31403
G1 X137.377 Y174.094 E8.3215
G1 X176.455 Y174.077 E8.97137
G1 X177.184 Y174.268 E8.9839
G1 X177.471 Y174.439 E8.98946
G1 X177.709 Y174.673 E8.99501
G1 X177.978 Y175.189 E9.00468
G1 X178.073 Y175.694 E9.01323
G1 X178.074 Y177.143 E9.03733
G1 X178.034 Y177.475 E9.04289
G1 X177.917 Y177.788 E9.04844
G1 X177.729 Y178.064 E9.054
G1 X177.59 Y178.189 E9.05711
G1 X177.805 Y178.419 E9.06234
G1 X177.968 Y178.71 E9.06789
G1 X178.058 Y179.032 E9.07345
G1 X178.075 Y182.144 E9.1252
G1 X178.035 Y182.475 E9.13075
G1 X177.918 Y182.788 E9.1363
G1 X177.73 Y183.064 E9.14186
G1 X177.591 Y183.19 E9.14498
G1 X177.805 Y183.419 E9.15019
G1 X177.968 Y183.71 E9.15574
G1 X178.058 Y184.032 E9.1613
G1 X178.074 Y187.144 E9.21305
G1 X178.034 Y187.476 E9.21861
G1 X177.917 Y187.788 E9.22415
G1 X177.729 Y188.065 E9.22972
G1 X177.591 Y188.189 E9.23281
G1 X177.805 Y188.419 E9.23803
G1 X177.968 Y188.71 E9.24358
G1 X178.058 Y189.032 E9.24914
G1 X178.074 Y190.33 E9.27072
G1 X178.007 Y191.144 E9.28431
G1 X177.879 Y191.453 E9.28987
G1 X177.548 Y191.862 E9.29862
G1 X177.29 Y192.075 E9.30418
G1 X176.99 Y192.22 E9.30972
G1 X176.536 Y192.296 E9.31738
G1 X137.457 Y192.313 E9.96727
G1 X137.125 Y192.273 E9.97283
G1 X136.728 Y192.122 E9.97989
G1 X136.441 Y191.951 E9.98545
G1 X136.203 Y191.717 E9.991
G1 X135.934 Y191.201 E10.00067
G1 X135.839 Y190.696 E10.00922
G1 X135.838 Y189.245 E10.03335
G1 X135.878 Y188.913 E10.03891
G1 X135.995 Y188.6 E10.04447
G1 X136.183 Y188.324 E10.05002
G1 X136.32 Y188.2 E10.05309
G1 X136.101 Y187.96 E10.0585
G1 X135.94 Y187.667 E10.06406
G1 X135.838 Y187.144 E10.07292
G1 X135.838 Y184.244 E10.12115
G1 X135.878 Y183.912 E10.12671
G1 X135.995 Y183.6 E10.13225
G1 X136.183 Y183.323 E10.13782
G1 X136.32 Y183.2 E10.14088
G1 X136.101 Y182.96 E10.14628
G1 X135.94 Y182.667 E10.15184
G1 X135.838 Y182.144 E10.1607
G1 X135.837 Y179.246 E10.2089
G1 X135.877 Y178.915 E10.21444
G1 X135.994 Y178.602 E10.22
G1 X136.182 Y178.326 E10.22555
G1 X136.321 Y178.2 E10.22867
G1 X136.101 Y177.96 E10.23409
G1 X135.94 Y177.667 E10.23965
G1 X135.838 Y177.144 E10.24851
G1 X135.838 Y176.06 E10.26653
G1 X135.905 Y175.245 E10.28013
G1 X136.033 Y174.936 E10.2857
G1 X136.373 Y174.52 E10.29463
G1 X136.632 Y174.309 E10.30019
M205 X30 Y30
G0 F3600 X136.883 Y174.625
M205 X15 Y15
G1 F1500 X137.145 Y174.521 E10.30487
G1 X137.378 Y174.494 E10.30877
G1 X176.456 Y174.477 E10.95864
G1 X176.862 Y174.563 E10.96555
G1 X177.261 Y174.784 E10.97313
G1 X177.449 Y174.994 E10.97782
G1 X177.605 Y175.333 E10.98402
G1 X177.673 Y175.694 E10.99013
G1 X177.674 Y177.143 E11.01423
G1 X177.634 Y177.423 E11.01893
G1 X177.518 Y177.68 E11.02362
G1 X177.335 Y177.894 E11.02831
G1 X177.099 Y178.049 E11.033
G1 X176.686 Y178.168 E11.04015
G1 X176.458 Y178.195 E11.04397
G1 X176.895 Y178.269 E11.05134
G1 X177.159 Y178.369 E11.05603
G1 X177.384 Y178.54 E11.06073
G1 X177.552 Y178.766 E11.06542
G1 X177.651 Y179.03 E11.0701
G1 X177.675 Y182.144 E11.12189
G1 X177.635 Y182.423 E11.12658
G1 X177.519 Y182.68 E11.13127
G1 X177.336 Y182.895 E11.13596
G1 X177.1 Y183.049 E11.14065
G1 X176.685 Y183.169 E11.14783
G1 X176.458 Y183.195 E11.15163
G1 X176.895 Y183.269 E11.159
G1 X177.159 Y183.369 E11.1637
G1 X177.384 Y183.54 E11.1684
G1 X177.552 Y183.766 E11.17308
G1 X177.651 Y184.03 E11.17777
G1 X177.674 Y187.144 E11.22956
G1 X177.634 Y187.423 E11.23425
G1 X177.518 Y187.68 E11.23893
G1 X177.335 Y187.895 E11.24363
G1 X177.099 Y188.049 E11.24832
G1 X176.686 Y188.168 E11.25546
G1 X176.458 Y188.195 E11.25928
G1 X176.895 Y188.269 E11.26665
G1 X177.159 Y188.369 E11.27135
G1 X177.384 Y188.54 E11.27605
G1 X177.552 Y188.766 E11.28073
G1 X177.651 Y189.03 E11.28542
G1 X177.674 Y190.33 E11.30704
G1 X177.609 Y191.078 E11.31953
G1 X177.383 Y191.456 E11.32685
G1 X177.037 Y191.761 E11.33452
G1 X176.775 Y191.867 E11.33922
G1 X176.535 Y191.896 E11.34324
G1 X137.456 Y191.913 E11.99313
G1 X137.05 Y191.827 E12.00003
G1 X136.651 Y191.606 E12.00762
G1 X136.463 Y191.396 E12.0123
G1 X136.307 Y191.057 E12.01851
G1 X136.239 Y190.696 E12.02462
G1 X136.238 Y189.245 E12.04875
G1 X136.278 Y188.965 E12.05345
G1 X136.394 Y188.708 E12.05814
G1 X136.577 Y188.494 E12.06282
G1 X136.813 Y188.339 E12.06752
G1 X137.233 Y188.22 E12.07478
G1 X137.455 Y188.195 E12.07849
G1 X137.226 Y188.168 E12.08233
G1 X136.746 Y188.015 E12.09071
G1 X136.523 Y187.843 E12.09539
G1 X136.356 Y187.615 E12.10009
G1 X136.259 Y187.35 E12.10478
G1 X136.238 Y184.244 E12.15644
G1 X136.278 Y183.965 E12.16112
G1 X136.394 Y183.708 E12.16581
G1 X136.577 Y183.493 E12.17051
G1 X136.813 Y183.339 E12.1752
G1 X137.233 Y183.22 E12.18246
G1 X137.455 Y183.195 E12.18617
G1 X137.009 Y183.117 E12.1937
G1 X136.746 Y183.015 E12.19839
G1 X136.523 Y182.843 E12.20307
G1 X136.356 Y182.615 E12.20777
G1 X136.259 Y182.35 E12.21247
G1 X136.237 Y179.246 E12.26409
G1 X136.277 Y178.967 E12.26878
G1 X136.393 Y178.71 E12.27346
G1 X136.576 Y178.495 E12.27816
G1 X136.812 Y178.341 E12.28285
G1 X137.227 Y178.221 E12.29003
G1 X137.455 Y178.195 E12.29385
G1 X137.009 Y178.117 E12.30138
G1 X136.746 Y178.015 E12.30607
G1 X136.523 Y177.843 E12.31075
G1 X136.356 Y177.615 E12.31545
G1 X136.259 Y177.35 E12.32014
G1 X136.238 Y176.06 E12.3416
G1 X136.303 Y175.311 E12.3541
G1 X136.535 Y174.927 E12.36156
G1 X136.883 Y174.625 E12.36923
M205 X30 Y30
G0 F3600 X136.947 Y175.076
M205 X15 Y15
G1 F1500 X137.125 Y174.95 E12.37285
G1 X137.378 Y174.894 E12.37716
G1 X176.456 Y174.877 E13.02703
G1 X177.039 Y175.123 E13.03755
G1 X177.232 Y175.478 E13.04427
G1 X177.273 Y175.695 E13.04795
G1 X177.274 Y177.144 E13.07204
G1 X177.234 Y177.358 E13.07566
G1 X177.121 Y177.544 E13.07928
G1 X176.948 Y177.678 E13.08292
G1 X176.457 Y177.795 E13.09132
G1 X137.455 Y177.795 E13.73992
G1 X137.101 Y177.728 E13.74591
G1 X136.901 Y177.64 E13.74955
G1 X136.746 Y177.487 E13.75317
G1 X136.656 Y177.288 E13.7568
G1 X136.638 Y176.039 E13.77758
G1 X136.653 Y175.602 E13.78485
G1 X136.7 Y175.389 E13.78847
G1 X136.947 Y175.076 E13.7951
M205 X30 Y30
G0 F3600 X137.234 Y175.355
M205 X15 Y15
