;FLAVOR:Marlin
;TIME:2978
;Filament used: 2.08009m
;Layer height: 0.15
;MINX:100.1
;MINY:77.27
;MINZ:0.26
;MAXX:113.917
;MAXY:132.73
;MAXZ:38.96
;Generated with Cura_SteamEngine 4.5.0
M140 S69
M105
M190 S69
M82 ;absolute extrusion mode
;Gcode by Cura
G90
M106 S255
G28 X Y
M109 R195
G28
M104 S195
G29
M107
G1 X100 Y10 F3000
G1 Z0.5
M109 S195
M82
G92 E0
G1 F200 E10
G92 E0
G1 Z3
G1 X110 Y10
G1 Z0.5
G92 E0
G1 F200 E10
G92 E0
G1 Z3
G1 F6000
G92 E0
G92 E0
G1 F3000 E-3.5
;LAYER_COUNT:259
;LAYER:0
M106 S255
G1 F120 Z1.26
G0 F3600 X100.758 Y78.817 Z1.26
;TYPE:SKIRT
G1 F120 Z0.26
G1 F3000 E0
G1 F1500 X101.097 Y78.401 E0.02436
G1 X101.494 Y78.041 E0.04869
G1 X101.941 Y77.743 E0.07308
G1 X102.426 Y77.515 E0.09741
G1 X102.94 Y77.362 E0.12176
G1 X103.608 Y77.28 E0.15232
G1 X109.645 Y77.27 E0.4264
G1 X110.343 Y77.28 E0.45809
G1 X110.877 Y77.328 E0.48243
G1 X111.398 Y77.454 E0.50677
G1 X111.895 Y77.657 E0.53114
G1 X112.356 Y77.931 E0.55549
G1 X112.771 Y78.27 E0.57982
G1 X113.131 Y78.668 E0.60418
G1 X113.428 Y79.114 E0.62851
G1 X113.656 Y79.6 E0.65288
G1 X113.808 Y80.114 E0.67721
G1 X113.89 Y80.779 E0.70763
G1 X113.91 Y83.866 E0.84779
G1 X113.917 Y86.793 E0.98067
G1 X113.9 Y89.989 E1.12577
G1 X113.901 Y120.023 E2.48932
G1 X113.917 Y124.636 E2.69875
G1 X113.9 Y128.41 E2.87009
G1 X113.89 Y129.171 E2.90465
G1 X113.842 Y129.705 E2.92899
G1 X113.716 Y130.226 E2.95332
G1 X113.514 Y130.723 E2.97768
G1 X113.24 Y131.184 E3.00203
G1 X112.901 Y131.599 E3.02635
G1 X112.504 Y131.96 E3.05072
G1 X112.058 Y132.257 E3.07504
G1 X111.572 Y132.485 E3.09941
G1 X111.058 Y132.638 E3.12376
G1 X110.391 Y132.72 E3.15427
G1 X104.361 Y132.73 E3.42803
G1 X103.663 Y132.721 E3.45973
G1 X103.128 Y132.674 E3.48411
G1 X102.607 Y132.548 E3.50844
G1 X102.11 Y132.346 E3.5328
G1 X101.649 Y132.073 E3.55713
G1 X101.233 Y131.734 E3.58149
G1 X100.872 Y131.338 E3.60582
G1 X100.574 Y130.892 E3.63017
G1 X100.346 Y130.406 E3.65454
G1 X100.193 Y129.892 E3.67889
G1 X100.11 Y129.218 E3.70972
G1 X100.1 Y81.495 E5.87635
G1 X100.109 Y80.83 E5.90654
G1 X100.157 Y80.296 E5.93088
G1 X100.283 Y79.775 E5.95522
G1 X100.485 Y79.278 E5.97957
G1 X100.758 Y78.817 E6.0039
G0 F3600 X101.154 Y78.952
G1 F1500 X101.489 Y78.574 E6.02683
G1 X101.88 Y78.253 E6.0498
G1 X102.317 Y77.998 E6.07277
G1 X102.788 Y77.814 E6.09572
G1 X103.282 Y77.708 E6.11866
G1 X103.94 Y77.671 E6.14858
G1 X109.639 Y77.67 E6.40732
G1 X110.337 Y77.68 E6.43901
G1 X110.84 Y77.727 E6.46195
G1 X111.33 Y77.853 E6.48492
G1 X111.794 Y78.055 E6.50789
G1 X112.22 Y78.327 E6.53084
G1 X112.598 Y78.662 E6.55377
G1 X112.918 Y79.053 E6.57671
G1 X113.173 Y79.49 E6.59968
G1 X113.356 Y79.961 E6.62262
G1 X113.463 Y80.455 E6.64557
G1 X113.499 Y81.11 E6.67535
G1 X113.5 Y82.214 E6.72547
G1 X113.51 Y83.869 E6.80061
G1 X113.517 Y86.794 E6.9334
G1 X113.5 Y89.987 E7.07837
G1 X113.501 Y120.023 E8.44201
G1 X113.517 Y124.637 E8.65148
G1 X113.5 Y128.409 E8.82273
G1 X113.49 Y129.165 E8.85706
G1 X113.443 Y129.668 E8.87999
G1 X113.317 Y130.158 E8.90296
G1 X113.116 Y130.622 E8.92592
G1 X112.844 Y131.048 E8.94887
G1 X112.509 Y131.427 E8.97183
G1 X112.118 Y131.747 E8.99477
G1 X111.682 Y132.002 E9.0177
G1 X111.211 Y132.186 E9.04066
G1 X110.716 Y132.292 E9.06364
G1 X110.06 Y132.329 E9.09347
G1 X104.366 Y132.33 E9.35198
G1 X103.668 Y132.321 E9.38367
G1 X103.164 Y132.274 E9.40665
G1 X102.674 Y132.149 E9.42961
G1 X102.21 Y131.948 E9.45257
G1 X101.784 Y131.677 E9.47549
G1 X101.405 Y131.342 E9.49846
G1 X101.084 Y130.951 E9.52142
G1 X100.829 Y130.515 E9.54435
G1 X100.645 Y130.044 E9.56731
G1 X100.538 Y129.55 E9.59026
G1 X100.501 Y128.874 E9.621
G1 X100.5 Y81.501 E11.77173
G1 X100.509 Y80.836 E11.80193
G1 X100.556 Y80.332 E11.82491
G1 X100.682 Y79.843 E11.84783
G1 X100.883 Y79.379 E11.87079
G1 X101.154 Y78.952 E11.89375
G1 F3000 E8.39375
G1 F120 Z1.26
;MESH:support PBC_SWITCH I2C-C.STL
G0 F3600 X109.7 Y82.855 Z1.26
;TYPE:WALL-INNER
G1 F120 Z0.26
G1 F3000 E11.89375
G1 F1500 X109.708 Y83.409 E11.91891
G1 X109.718 Y86.423 E12.05574
G1 X109.71 Y88.545 E12.15208
G1 X109.7 Y89.294 E12.18609
G1 X109.7 Y119.774 E13.56989
G1 X109.718 Y124.27 E13.77401
G1 X109.71 Y126.391 E13.8703
G1 X109.7 Y127.14 E13.90431
G1 X109.7 Y128.53 E13.96741
G1 X104.3 Y128.53 E14.21257
G1 X104.3 Y81.47 E16.3491
G1 X109.7 Y81.47 E16.59426
G1 X109.7 Y82.855 E16.65714
G0 F3600 X110.1 Y82.852
;TYPE:WALL-OUTER
G1 F1500 X110.108 Y83.408 E16.68239
G1 X110.118 Y86.425 E16.81936
G1 X110.11 Y88.55 E16.91584
G1 X110.1 Y89.297 E16.94975
G1 X110.1 Y119.773 E18.33337
G1 X110.118 Y124.272 E18.53762
G1 X110.11 Y126.396 E18.63405
G1 X110.1 Y127.143 E18.66797
G1 X110.1 Y128.93 E18.7491
G1 X103.9 Y128.93 E19.03058
G1 X103.9 Y81.07 E21.20343
G1 X110.1 Y81.07 E21.48491
G1 X110.1 Y82.852 E21.56581
G0 F3600 X110.102 Y83.052
G0 X109.31 Y82.857
;TYPE:SKIN
G1 F1500 X109.318 Y83.411 E21.59097
G1 X109.328 Y86.421 E21.72762
G1 X109.32 Y88.539 E21.82378
G1 X109.31 Y89.292 E21.85797
G1 X109.31 Y119.774 E23.24185
G1 X109.328 Y124.27 E23.44597
G1 X109.32 Y126.385 E23.542
G1 X109.31 Y127.138 E23.57618
G1 X109.31 Y128.14 E23.62168
G1 X104.69 Y128.14 E23.83142
G1 X104.69 Y81.86 E25.93254
G1 X109.31 Y81.86 E26.14229
G1 X109.31 Y82.857 E26.18755
G0 F3600 X109.129 Y82.542
G1 F1500 X108.627 Y82.039 E26.21982
G0 F3600 X108.061 Y82.039
G1 F1500 X109.134 Y83.112 E26.28871
G0 F3600 X109.139 Y83.683
G1 F1500 X107.495 Y82.039 E26.39426
G0 F3600 X106.93 Y82.039
G1 F1500 X109.14 Y84.25 E26.53619
G0 F3600 X109.142 Y84.818
G1 F1500 X106.364 Y82.039 E26.71458
G0 F3600 X105.798 Y82.039
G1 F1500 X109.144 Y85.385 E26.92941
G0 F3600 X109.146 Y85.953
G1 F1500 X105.233 Y82.039 E27.18068
G0 F3600 X104.869 Y82.242
G1 F1500 X109.147 Y86.52 E27.45535
G0 F3600 X109.145 Y87.083
G1 F1500 X104.869 Y82.807 E27.72989
G0 F3600 X104.869 Y83.373
G1 F1500 X109.143 Y87.647 E28.00431
G0 F3600 X109.141 Y88.21
G1 F1500 X104.869 Y83.939 E28.27856
G0 F3600 X104.869 Y84.504
G1 F1500 X109.136 Y88.772 E28.55256
G0 F3600 X109.129 Y89.33
G1 F1500 X104.869 Y85.07 E28.82607
G0 F3600 X104.869 Y85.636
G1 F1500 X109.129 Y89.896 E29.09959
G0 F3600 X109.129 Y90.462
G1 F1500 X104.869 Y86.201 E29.37314
G0 F3600 X104.869 Y86.767
G1 F1500 X109.129 Y91.027 E29.64665
G0 F3600 X109.129 Y91.593
G1 F1500 X104.869 Y87.333 E29.92017
G0 F3600 X104.869 Y87.899
G1 F1500 X109.129 Y92.159 E30.19368
G0 F3600 X109.129 Y92.725
G1 F1500 X104.869 Y88.464 E30.46723
G0 F3600 X104.869 Y89.03
G1 F1500 X109.129 Y93.29 E30.74074
G0 F3600 X109.129 Y93.856
G1 F1500 X104.869 Y89.596 E31.01426
G0 F3600 X104.869 Y90.161
G1 F1500 X109.129 Y94.422 E31.28781
G0 F3600 X109.129 Y94.987
G1 F1500 X104.869 Y90.727 E31.56132
G0 F3600 X104.869 Y91.293
G1 F1500 X109.129 Y95.553 E31.83484
G0 F3600 X109.129 Y96.119
G1 F1500 X104.869 Y91.858 E32.10838
G0 F3600 X104.869 Y92.424
G1 F1500 X109.129 Y96.684 E32.3819
G0 F3600 X109.129 Y97.25
G1 F1500 X104.869 Y92.99 E32.65541
G0 F3600 X104.869 Y93.555
G1 F1500 X109.129 Y97.816 E32.92896
G0 F3600 X109.129 Y98.381
G1 F1500 X104.869 Y94.121 E33.20248
G0 F3600 X104.869 Y94.687
G1 F1500 X109.129 Y98.947 E33.47599
G0 F3600 X109.129 Y99.513
G1 F1500 X104.869 Y95.252 E33.74954
G0 F3600 X104.869 Y95.818
G1 F1500 X109.129 Y100.078 E34.02305
G0 F3600 X109.129 Y100.644
G1 F1500 X104.869 Y96.384 E34.29657
G0 F3600 X104.869 Y96.949
G1 F1500 X109.129 Y101.21 E34.57011
G0 F3600 X109.129 Y101.776
G1 F1500 X104.869 Y97.515 E34.84366
G0 F3600 X104.869 Y98.081
G1 F1500 X109.129 Y102.341 E35.11718
G0 F3600 X109.129 Y102.907
G1 F1500 X104.869 Y98.647 E35.39069
G0 F3600 X104.869 Y99.212
G1 F1500 X109.129 Y103.473 E35.66424
G0 F3600 X109.129 Y104.038
G1 F1500 X104.869 Y99.778 E35.93775
G0 F3600 X104.869 Y100.344
G1 F1500 X109.129 Y104.604 E36.21127
G0 F3600 X109.129 Y105.17
G1 F1500 X104.869 Y100.909 E36.48482
G0 F3600 X104.869 Y101.475
G1 F1500 X109.129 Y105.735 E36.75833
G0 F3600 X109.129 Y106.301
G1 F1500 X104.869 Y102.041 E37.03185
G0 F3600 X104.869 Y102.606
G1 F1500 X109.129 Y106.867 E37.30539
G0 F3600 X109.129 Y107.432
G1 F1500 X104.869 Y103.172 E37.57891
G0 F3600 X104.869 Y103.738
G1 F1500 X109.129 Y107.998 E37.85242
G0 F3600 X109.129 Y108.564
G1 F1500 X104.869 Y104.303 E38.12597
G0 F3600 X104.869 Y104.869
G1 F1500 X109.129 Y109.129 E38.39949
G0 F3600 X109.129 Y109.695
G1 F1500 X104.869 Y105.435 E38.673
G0 F3600 X104.869 Y106
G1 F1500 X109.129 Y110.261 E38.94655
G0 F3600 X109.129 Y110.826
G1 F1500 X104.869 Y106.566 E39.22006
G0 F3600 X104.869 Y107.132
G1 F1500 X109.129 Y111.392 E39.49358
G0 F3600 X109.129 Y111.958
G1 F1500 X104.869 Y107.698 E39.76709
G0 F3600 X104.869 Y108.263
G1 F1500 X109.129 Y112.524 E40.04064
G0 F3600 X109.129 Y113.089
G1 F1500 X104.869 Y108.829 E40.31416
G0 F3600 X104.869 Y109.395
G1 F1500 X109.129 Y113.655 E40.58767
G0 F3600 X109.129 Y114.221
G1 F1500 X104.869 Y109.96 E40.86122
G0 F3600 X104.869 Y110.526
G1 F1500 X109.129 Y114.786 E41.13473
G0 F3600 X109.129 Y115.352
G1 F1500 X104.869 Y111.092 E41.40825
G0 F3600 X104.869 Y111.657
G1 F1500 X109.129 Y115.918 E41.6818
G0 F3600 X109.129 Y116.483
G1 F1500 X104.869 Y112.223 E41.95531
G0 F3600 X104.869 Y112.789
G1 F1500 X109.129 Y117.049 E42.22883
G0 F3600 X109.129 Y117.615
G1 F1500 X104.869 Y113.354 E42.50237
G0 F3600 X104.869 Y113.92
G1 F1500 X109.129 Y118.18 E42.77589
G0 F3600 X109.129 Y118.746
G1 F1500 X104.869 Y114.486 E43.0494
G0 F3600 X104.869 Y115.051
G1 F1500 X109.129 Y119.312 E43.32295
G0 F3600 X109.13 Y119.878
G1 F1500 X104.869 Y115.617 E43.59653
G0 F3600 X104.869 Y116.183
G1 F1500 X109.132 Y120.446 E43.87024
G0 F3600 X109.135 Y121.014
G1 F1500 X104.869 Y116.748 E44.14414
G0 F3600 X104.869 Y117.314
G1 F1500 X109.137 Y121.582 E44.41817
G0 F3600 X109.139 Y122.15
G1 F1500 X104.869 Y117.88 E44.69232
G0 F3600 X104.869 Y118.446
G1 F1500 X109.142 Y122.719 E44.96667
G0 F3600 X109.144 Y123.286
G1 F1500 X104.869 Y119.011 E45.24115
G0 F3600 X104.869 Y119.577
G1 F1500 X109.146 Y123.854 E45.51576
G0 F3600 X109.148 Y124.421
G1 F1500 X104.869 Y120.143 E45.79046
G0 F3600 X104.869 Y120.708
G1 F1500 X109.146 Y124.985 E46.06507
G0 F3600 X109.144 Y125.548
G1 F1500 X104.869 Y121.274 E46.33951
G0 F3600 X104.869 Y121.84
G1 F1500 X109.141 Y126.112 E46.6138
G0 F3600 X109.136 Y126.673
G1 F1500 X104.869 Y122.405 E46.8878
G0 F3600 X104.869 Y122.971
G1 F1500 X109.129 Y127.231 E47.16131
G0 F3600 X109.129 Y127.797
G1 F1500 X104.869 Y123.537 E47.43483
G0 F3600 X104.869 Y124.102
G1 F1500 X108.725 Y127.958 E47.6824
G0 F3600 X108.159 Y127.958
G1 F1500 X104.869 Y124.668 E47.89364
G0 F3600 X104.869 Y125.234
G1 F1500 X107.594 Y127.958 E48.06856
G0 F3600 X107.028 Y127.958
G1 F1500 X104.869 Y125.799 E48.20718
G0 F3600 X104.869 Y126.365
G1 F1500 X106.462 Y127.958 E48.30946
G0 F3600 X105.897 Y127.958
G1 F1500 X104.869 Y126.931 E48.37543
G0 F3600 X104.869 Y127.497
M104 S195
G1 F1500 X105.331 Y127.958 E48.40507
;MESH:NONMESH
G0 F120 X105.331 Y127.958 Z0.41
G0 F3600 X109.3 Y82.28
;TIME_ELAPSED:50.008494
;LAYER:1
M140 S69
;TYPE:WALL-INNER
;MESH:support PBC_SWITCH I2C-C.STL
G1 F2250 X109.314 Y83.089 E48.42525
G1 X109.33 Y85.236 E48.47881
G1 X109.319 Y88.759 E48.56669
G1 X109.302 Y89.811 E48.59294
G1 X109.3 Y119.999 E49.34598
G1 X109.314 Y120.935 E49.36933
G1 X109.33 Y123.082 E49.42289
G1 X109.319 Y126.605 E49.51077
G1 X109.302 Y127.656 E49.53699
G1 X109.301 Y128.13 E49.54881
G1 X104.7 Y128.13 E49.66359
G1 X104.7 Y81.87 E50.81755
G1 X109.3 Y81.87 E50.9323
G1 X109.3 Y82.28 E50.94252
G0 F5400 X109.7 Y82.277
G1 F2250 X109.714 Y83.086 E50.96271
G1 X109.73 Y85.237 E51.01636
G1 X109.719 Y88.765 E51.10437
G1 X109.702 Y89.814 E51.13054
G1 X109.7 Y119.996 E51.88344
G1 X109.714 Y120.932 E51.90679
G1 X109.73 Y123.083 E51.96044
G1 X109.719 Y126.611 E52.04845
G1 X109.702 Y127.659 E52.0746
G1 X109.701 Y128.53 E52.09632
G1 X104.3 Y128.53 E52.23105
G1 X104.3 Y81.47 E53.40497
G1 X109.7 Y81.47 E53.53967
G1 X109.7 Y82.277 E53.5598
G0 F5400 X110.1 Y82.274
;TYPE:WALL-OUTER
G1 F1500 X110.114 Y83.083 E53.57999
G1 X110.13 Y85.238 E53.63375
G1 X110.119 Y88.772 E53.7219
G1 X110.102 Y89.817 E53.74797
G1 X110.1 Y119.993 E54.50072
G1 X110.114 Y120.929 E54.52407
G1 X110.13 Y123.084 E54.57783
G1 X110.119 Y126.618 E54.66598
G1 X110.102 Y127.663 E54.69205
G1 X110.1 Y128.93 E54.72366
G1 X103.9 Y128.93 E54.87832
G1 X103.9 Y81.07 E56.07219
G1 X110.1 Y81.07 E56.22685
G1 X110.1 Y82.274 E56.25688
G0 F5400 X110.103 Y82.474
G0 X109.603 Y82.481
G0 X108.91 Y82.284
;TYPE:SKIN
G1 F1500 X108.924 Y83.091 E56.27702
G1 X108.94 Y85.234 E56.33048
G1 X108.929 Y88.753 E56.41826
G1 X108.912 Y89.807 E56.44456
G1 X108.91 Y120.001 E57.19775
G1 X108.924 Y120.937 E57.2211
G1 X108.94 Y123.08 E57.27456
G1 X108.929 Y126.599 E57.36234
G1 X108.912 Y127.74 E57.39081
G1 X105.09 Y127.74 E57.48615
G1 X105.09 Y82.26 E58.62065
G1 X108.91 Y82.26 E58.71594
G1 X108.91 Y82.284 E58.71654
G0 F5400 X105.367 Y82.44
G1 F1500 X105.269 Y82.537 E58.71998
G0 F5400 X105.269 Y83.103
G1 F1500 X105.933 Y82.44 E58.74338
G0 F5400 X106.498 Y82.44
G1 F1500 X105.269 Y83.669 E58.78674
G0 F5400 X105.269 Y84.234
G1 F1500 X107.064 Y82.44 E58.85005
G0 F5400 X107.63 Y82.44
G1 F1500 X105.269 Y84.8 E58.93332
G0 F5400 X105.269 Y85.366
G1 F1500 X108.195 Y82.44 E59.03654
G0 F5400 X108.731 Y82.469
G1 F1500 X105.269 Y85.931 E59.15867
G0 F5400 X105.269 Y86.497
G1 F1500 X108.741 Y83.025 E59.28116
G0 F5400 X108.746 Y83.586
G1 F1500 X105.269 Y87.063 E59.40382
G0 F5400 X105.269 Y87.628
G1 F1500 X108.75 Y84.147 E59.52662
G0 F5400 X108.755 Y84.709
G1 F1500 X105.269 Y88.194 E59.64958
G0 F5400 X105.269 Y88.76
G1 F1500 X108.758 Y85.271 E59.77266
G0 F5400 X108.757 Y85.838
G1 F1500 X105.269 Y89.325 E59.89569
G0 F5400 X105.269 Y89.891
G1 F1500 X108.755 Y86.406 E60.01866
G0 F5400 X108.753 Y86.973
G1 F1500 X105.269 Y90.457 E60.14156
G0 F5400 X105.269 Y91.023
G1 F1500 X108.751 Y87.541 E60.2644
G0 F5400 X108.749 Y88.109
G1 F1500 X105.269 Y91.588 E60.38715
G0 F5400 X105.269 Y92.154
G1 F1500 X108.748 Y88.676 E60.50986
G0 F5400 X108.739 Y89.25
G1 F1500 X105.269 Y92.72 E60.63228
G0 F5400 X105.269 Y93.285
G1 F1500 X108.73 Y89.825 E60.75435
G0 F5400 X108.73 Y90.39
G1 F1500 X105.269 Y93.851 E60.87645
G0 F5400 X105.269 Y94.417
G1 F1500 X108.73 Y90.956 E60.99855
G0 F5400 X108.73 Y91.522
G1 F1500 X105.269 Y94.982 E61.12062
G0 F5400 X105.269 Y95.548
G1 F1500 X108.73 Y92.087 E61.24272
G0 F5400 X108.73 Y92.653
G1 F1500 X105.269 Y96.114 E61.36482
G0 F5400 X105.269 Y96.679
G1 F1500 X108.73 Y93.219 E61.4869
G0 F5400 X108.73 Y93.784
G1 F1500 X105.269 Y97.245 E61.60899
G0 F5400 X105.269 Y97.811
G1 F1500 X108.73 Y94.35 E61.73109
G0 F5400 X108.73 Y94.916
G1 F1500 X105.269 Y98.376 E61.85317
G0 F5400 X105.269 Y98.942
G1 F1500 X108.73 Y95.482 E61.97524
G0 F5400 X108.73 Y96.047
G1 F1500 X105.269 Y99.508 E62.09734
G0 F5400 X105.269 Y100.073
G1 F1500 X108.73 Y96.613 E62.21942
G0 F5400 X108.73 Y97.179
G1 F1500 X105.269 Y100.639 E62.3415
G0 F5400 X105.269 Y101.205
G1 F1500 X108.73 Y97.744 E62.46359
G0 F5400 X108.73 Y98.31
G1 F1500 X105.269 Y101.771 E62.58569
G0 F5400 X105.269 Y102.336
G1 F1500 X108.73 Y98.876 E62.70777
G0 F5400 X108.73 Y99.441
G1 F1500 X105.269 Y102.902 E62.82986
G0 F5400 X105.269 Y103.468
G1 F1500 X108.73 Y100.007 E62.95196
G0 F5400 X108.73 Y100.573
G1 F1500 X105.269 Y104.033 E63.07404
G0 F5400 X105.269 Y104.599
G1 F1500 X108.73 Y101.138 E63.19614
G0 F5400 X108.73 Y101.704
G1 F1500 X105.269 Y105.165 E63.31823
G0 F5400 X105.269 Y105.73
G1 F1500 X108.73 Y102.27 E63.44031
G0 F5400 X108.73 Y102.835
G1 F1500 X105.269 Y106.296 E63.56241
G0 F5400 X105.269 Y106.862
G1 F1500 X108.73 Y103.401 E63.6845
G0 F5400 X108.73 Y103.967
G1 F1500 X105.269 Y107.427 E63.80658
G0 F5400 X105.269 Y107.993
G1 F1500 X108.73 Y104.533 E63.92866
G0 F5400 X108.729 Y105.099
