;FLAVOR:Marlin
;TIME:716
;Filament used: 0.403927m
;Layer height: 0.15
;MINX:132.391
;MINY:31.87
;MINZ:0.1
;MAXX:150.391
;MAXY:69.87
;MAXZ:10
;Generated with Cura_SteamEngine 4.5.0
M140 S67
M105
M190 S67
M82 ;absolute extrusion mode
;Gcode by Cura
G90
M106 S255
G28 X Y
M109 R195
G28
M104 S195
G29
M107
G1 X100 Y10 F3000
G1 Z0.5
M109 S195
M82
G92 E0
G1 F200 E10
G92 E0
G1 Z3
G1 F6000
G92 E0
G92 E0
G1 F1200 E-3.5
;LAYER_COUNT:67
;LAYER:0
M106 S255
M205 X30 Y30
G1 F120 Z1.1
G0 F3600 X132.577 Y34.707 Z1.1
M205 X15 Y15
;TYPE:SKIRT
G1 F120 Z0.1
G1 F1200 E0
G1 F1500 X132.78 Y34.179 E0.01035
G1 X133.056 Y33.686 E0.02068
G1 X133.398 Y33.236 E0.03102
G1 X133.801 Y32.839 E0.04137
G1 X134.256 Y32.503 E0.05172
G1 X134.753 Y32.234 E0.06206
G1 X135.283 Y32.038 E0.07239
G1 X135.836 Y31.919 E0.08274
G1 X136.609 Y31.872 E0.09691
G1 X142.691 Y31.87 E0.20817
G1 X143.385 Y31.88 E0.22086
G1 X143.948 Y31.928 E0.2312
G1 X144.499 Y32.055 E0.24154
G1 X145.026 Y32.259 E0.25188
G1 X145.582 Y32.576 E0.26359
G1 X146.11 Y32.985 E0.27581
G1 X146.486 Y33.379 E0.28577
G1 X149.053 Y36.463 E0.35917
G1 X149.406 Y36.871 E0.36904
G1 X149.745 Y37.324 E0.37939
G1 X150.016 Y37.819 E0.38971
G1 X150.215 Y38.349 E0.40007
G1 X150.338 Y38.901 E0.41042
G1 X150.38 Y39.416 E0.41987
G1 X150.39 Y39.974 E0.43008
G1 X150.391 Y41.828 E0.46399
G1 X150.381 Y42.53 E0.47683
G1 X150.286 Y43.956 E0.50298
G1 X150.128 Y46.752 E0.55421
G1 X150.052 Y49.423 E0.60309
G1 X150.052 Y52.168 E0.6533
G1 X150.128 Y54.84 E0.7022
G1 X150.284 Y57.596 E0.7527
G1 X150.329 Y58.152 E0.7629
G1 X150.373 Y58.817 E0.77509
G1 X150.39 Y59.575 E0.78896
G1 X150.391 Y61.428 E0.82286
G1 X150.381 Y62.126 E0.83563
G1 X150.333 Y62.69 E0.84598
G1 X150.206 Y63.24 E0.85631
G1 X150.002 Y63.768 E0.86667
G1 X149.727 Y64.262 E0.87701
G1 X148.942 Y65.25 E0.90009
G1 X147.216 Y67.389 E0.95037
G1 X146.825 Y67.899 E0.96213
G1 X146.47 Y68.345 E0.97255
G1 X146.087 Y68.761 E0.9829
G1 X145.65 Y69.12 E0.99324
G1 X145.166 Y69.413 E1.00359
G1 X144.646 Y69.635 E1.01394
G1 X144.1 Y69.781 E1.02428
G1 X143.412 Y69.853 E1.03693
G1 X142.528 Y69.869 E1.0531
G1 X137.041 Y69.87 E1.15348
G1 X136.343 Y69.86 E1.16625
G1 X135.779 Y69.812 E1.1766
G1 X135.229 Y69.685 E1.18693
G1 X134.701 Y69.481 E1.19728
G1 X134.207 Y69.206 E1.20763
G1 X133.758 Y68.863 E1.21796
G1 X133.361 Y68.461 E1.2283
G1 X133.024 Y68.006 E1.23865
G1 X132.756 Y67.509 E1.24898
G1 X132.56 Y66.979 E1.25932
G1 X132.44 Y66.426 E1.26967
G1 X132.392 Y65.636 E1.28415
G1 X132.391 Y59.52 E1.39603
G1 X132.401 Y58.814 E1.40895
G1 X132.475 Y57.677 E1.42979
G1 X132.633 Y54.881 E1.48102
G1 X132.708 Y52.21 E1.5299
G1 X132.708 Y49.468 E1.58006
G1 X132.631 Y46.78 E1.62925
G1 X132.473 Y43.998 E1.68022
G1 X132.411 Y43.153 E1.69572
G1 X132.391 Y42.541 E1.70693
G1 X132.391 Y36.51 E1.81725
G1 X132.401 Y35.821 E1.82986
G1 X132.45 Y35.258 E1.84019
G1 X132.577 Y34.707 E1.85054
M205 X30 Y30
G0 F3600 X132.976 Y34.771
M205 X15 Y15
G1 F1500 X133.178 Y34.275 E1.86033
G1 X133.452 Y33.814 E1.87014
G1 X133.792 Y33.399 E1.87996
G1 X134.189 Y33.039 E1.88976
G1 X134.636 Y32.742 E1.89958
G1 X135.121 Y32.514 E1.90938
G1 X135.635 Y32.361 E1.91919
G1 X136.3 Y32.28 E1.93145
G1 X142.685 Y32.27 E2.04825
G1 X143.379 Y32.28 E2.06095
G1 X143.913 Y32.328 E2.07075
G1 X144.434 Y32.454 E2.08056
G1 X144.931 Y32.657 E2.09038
G1 X145.441 Y32.964 E2.10127
G1 X145.86 Y33.299 E2.11108
G1 X146.179 Y33.635 E2.11956
G1 X148.751 Y36.725 E2.1931
G1 X149.104 Y37.133 E2.20297
G1 X149.423 Y37.563 E2.21277
G1 X149.675 Y38.037 E2.22259
G1 X149.854 Y38.542 E2.23239
G1 X149.956 Y39.069 E2.24221
G1 X149.99 Y39.981 E2.2589
G1 X149.991 Y41.822 E2.29258
G1 X149.981 Y42.524 E2.30542
G1 X149.883 Y43.984 E2.33219
G1 X149.73 Y46.683 E2.38164
G1 X149.652 Y49.448 E2.43224
G1 X149.652 Y52.143 E2.48154
G1 X149.73 Y54.908 E2.53214
G1 X149.883 Y57.61 E2.58165
G1 X149.93 Y58.184 E2.59219
G1 X149.973 Y58.842 E2.60425
G1 X149.99 Y59.582 E2.61779
G1 X149.991 Y61.423 E2.65147
G1 X149.981 Y62.121 E2.66424
G1 X149.933 Y62.655 E2.67405
G1 X149.807 Y63.176 E2.68385
G1 X149.604 Y63.673 E2.69367
G1 X149.33 Y64.134 E2.70348
G1 X146.922 Y67.115 E2.77358
G1 X146.554 Y67.596 E2.78466
G1 X146.157 Y68.096 E2.79634
G1 X145.792 Y68.49 E2.80617
G1 X145.374 Y68.825 E2.81596
G1 X144.91 Y69.094 E2.82578
G1 X144.411 Y69.291 E2.83559
G1 X143.889 Y69.412 E2.84539
G1 X142.521 Y69.469 E2.87044
G1 X137.046 Y69.47 E2.97059
G1 X136.348 Y69.46 E2.98336
G1 X135.814 Y69.412 E2.99317
G1 X135.293 Y69.286 E3.00298
G1 X134.796 Y69.083 E3.0128
G1 X134.335 Y68.809 E3.02261
G1 X133.92 Y68.47 E3.03241
G1 X133.56 Y68.072 E3.04223
G1 X133.263 Y67.626 E3.05203
G1 X133.035 Y67.14 E3.06185
G1 X132.883 Y66.626 E3.07165
G1 X132.801 Y65.958 E3.08397
G1 X132.791 Y59.526 E3.20163
G1 X132.801 Y58.82 E3.21454
G1 X132.877 Y57.672 E3.23559
G1 X133.031 Y54.949 E3.28548
G1 X133.108 Y52.187 E3.33603
G1 X133.108 Y49.483 E3.38549
G1 X133.029 Y46.724 E3.43598
G1 X132.873 Y43.976 E3.48633
G1 X132.81 Y43.124 E3.50196
G1 X132.791 Y42.541 E3.51263
G1 X132.791 Y36.516 E3.62285
G1 X132.801 Y35.827 E3.63545
G1 X132.849 Y35.293 E3.64526
G1 X132.976 Y34.771 E3.65509
M205 X30 Y30
G0 F3600 X133.375 Y34.84
M205 X15 Y15
G1 F1500 X133.576 Y34.376 E3.66434
G1 X133.848 Y33.95 E3.67358
G1 X134.184 Y33.572 E3.68284
G1 X134.575 Y33.251 E3.69209
G1 X135.011 Y32.996 E3.70133
G1 X135.483 Y32.814 E3.71058
G1 X135.977 Y32.707 E3.71983
G1 X136.631 Y32.671 E3.73181
G1 X142.679 Y32.67 E3.84245
G1 X143.373 Y32.68 E3.85514
G1 X143.876 Y32.728 E3.86439
G1 X144.366 Y32.853 E3.87364
G1 X144.83 Y33.055 E3.8829
G1 X145.216 Y33.295 E3.89121
G1 X145.609 Y33.612 E3.90045
G1 X148.429 Y36.964 E3.98058
G1 X148.801 Y37.394 E3.99098
G1 X149.101 Y37.802 E4.00024
G1 X149.332 Y38.251 E4.00948
G1 X149.49 Y38.731 E4.01873
G1 X149.58 Y39.431 E4.03164
G1 X149.59 Y39.989 E4.04184
G1 X149.591 Y41.817 E4.07528
G1 X149.581 Y42.519 E4.08813
G1 X149.487 Y43.911 E4.11365
G1 X149.33 Y46.684 E4.16446
G1 X149.252 Y49.423 E4.21458
G1 X149.252 Y52.155 E4.26456
G1 X149.33 Y54.907 E4.31492
G1 X149.486 Y57.666 E4.36547
G1 X149.531 Y58.217 E4.37559
G1 X149.574 Y58.868 E4.38752
G1 X149.591 Y59.589 E4.40071
G1 X149.591 Y61.417 E4.43415
G1 X149.581 Y62.115 E4.44692
G1 X149.534 Y62.618 E4.45617
G1 X149.408 Y63.108 E4.46542
G1 X149.206 Y63.572 E4.47468
G1 X148.849 Y64.106 E4.48643
G1 X148.325 Y64.741 E4.50149
G1 X146.594 Y66.885 E4.5519
G1 X146.236 Y67.353 E4.56267
G1 X145.844 Y67.847 E4.57421
G1 X145.499 Y68.216 E4.58345
G1 X145.1 Y68.527 E4.59271
G1 X144.657 Y68.771 E4.60196
G1 X144.181 Y68.942 E4.61121
G1 X143.684 Y69.035 E4.62046
G1 X142.514 Y69.069 E4.64187
G1 X137.052 Y69.07 E4.74179
G1 X136.354 Y69.06 E4.75456
G1 X135.851 Y69.013 E4.7638
G1 X135.361 Y68.887 E4.77306
G1 X134.897 Y68.685 E4.78231
G1 X134.471 Y68.413 E4.79156
G1 X134.093 Y68.078 E4.8008
G1 X133.773 Y67.687 E4.81004
G1 X133.518 Y67.25 E4.8193
G1 X133.335 Y66.779 E4.82854
G1 X133.228 Y66.285 E4.83779
G1 X133.192 Y65.615 E4.85006
G1 X133.191 Y59.532 E4.96134
G1 X133.201 Y58.826 E4.97425
G1 X133.274 Y57.72 E4.99453
G1 X133.431 Y54.948 E5.04532
G1 X133.508 Y52.199 E5.09563
G1 X133.508 Y49.472 E5.14551
G1 X133.429 Y46.724 E5.1958
G1 X133.272 Y43.953 E5.24657
G1 X133.209 Y43.094 E5.26233
G1 X133.191 Y42.541 E5.27245
G1 X133.191 Y36.522 E5.38256
G1 X133.201 Y35.833 E5.39516
G1 X133.249 Y35.329 E5.40442
G1 X133.375 Y34.84 E5.41366
M205 X30 Y30
G1 F1200 E1.91366
G1 F120 Z1.1
G0 F3600 X144.291 Y39.567 Z1.1
M205 X15 Y15
;TYPE:SUPPORT
G1 F120 Z0.1
G1 F1200 E5.41366
G1 F1500 X146.191 Y39.567 E5.44842
G1 X146.191 Y42.396 E5.50017
G1 X144.291 Y42.396 E5.53493
G1 X144.291 Y39.567 E5.58668
M205 X30 Y30
G0 F3600 X144.691 Y39.967
M205 X15 Y15
G1 F1500 X145.791 Y39.967 E5.6068
G1 X145.791 Y41.996 E5.64392
G1 X144.691 Y41.996 E5.66404
G1 X144.691 Y39.967 E5.70115
M205 X30 Y30
G1 F1200 E2.20115
G1 F120 Z1.1
G0 F3600 X145.791 Y41.996 Z1.1
M205 X15 Y15
G1 F120 Z0.1
G1 F1200 E5.70115
G1 F1500 X144.691 Y41.996 E5.72128
G1 X144.691 Y39.967 E5.75839
G1 X145.791 Y39.967 E5.77852
G1 X145.791 Y41.996 E5.81563
M205 X30 Y30
G1 F1200 E2.31563
G1 F120 Z1.1
G0 F3600 X143.191 Y43.77 Z1.1
M205 X15 Y15
G1 F120 Z0.1
G1 F1200 E5.81563
G1 F1500 X143.191 Y57.97 E6.07539
G1 X141.591 Y57.97 E6.10466
G1 X141.591 Y43.77 E6.36442
G1 X143.191 Y43.77 E6.39369
M205 X30 Y30
G0 F3600 X142.791 Y44.17
M205 X15 Y15
G1 F1500 X142.791 Y57.57 E6.63882
G1 X141.991 Y57.57 E6.65346
G1 X141.991 Y44.17 E6.89858
G1 X142.791 Y44.17 E6.91322
M205 X30 Y30
G1 F1200 E3.41322
G1 F120 Z1.1
G0 F3600 X142.791 Y57.57 Z1.1
M205 X15 Y15
G1 F120 Z0.1
G1 F1200 E6.91322
G1 F1500 X141.991 Y57.57 E6.92785
G1 X141.991 Y44.17 E7.17298
G1 X142.791 Y44.17 E7.18761
G1 X142.791 Y57.57 E7.43274
M205 X30 Y30
G1 F1200 E3.93274
G1 F120 Z1.1
G0 F3600 X144.291 Y59.167 Z1.1
M205 X15 Y15
G1 F120 Z0.1
G1 F1200 E7.43274
G1 F1500 X146.191 Y59.167 E7.4675
G1 X146.191 Y61.996 E7.51925
G1 X144.291 Y61.996 E7.55401
G1 X144.291 Y59.167 E7.60576
M205 X30 Y30
G0 F3600 X144.691 Y59.567
M205 X15 Y15
G1 F1500 X145.791 Y59.567 E7.62588
G1 X145.791 Y61.596 E7.663
G1 X144.691 Y61.596 E7.68312
G1 X144.691 Y59.567 E7.72023
M205 X30 Y30
G1 F1200 E4.22023
G1 F120 Z1.1
G0 F3600 X145.791 Y61.596 Z1.1
M205 X15 Y15
G1 F120 Z0.1
G1 F1200 E7.72023
G1 F1500 X144.691 Y61.596 E7.74036
G1 X144.691 Y59.567 E7.77747
G1 X145.791 Y59.567 E7.7976
G1 X145.791 Y61.596 E7.83471
M205 X30 Y30
G1 F1200 E4.33471
G1 F120 Z1.1
;MESH:support TOF VL53L0X-C.STL
G0 F3600 X137.391 Y64.87 Z1.1
M205 X15 Y15
;TYPE:WALL-INNER
G1 F120 Z0.1
G1 F1200 E7.83471
G1 F1500 X137.391 Y59.87 E7.92618
G1 X142.391 Y59.87 E8.01764
G1 X142.391 Y64.87 E8.10911
G1 X137.391 Y64.87 E8.20057
M205 X30 Y30
G0 F3600 X136.991 Y65.27
M205 X15 Y15
G1 F1500 X136.991 Y59.47 E8.30667
G1 X142.791 Y59.47 E8.41277
G1 X142.791 Y65.27 E8.51887
G1 X136.991 Y65.27 E8.62497
M205 X30 Y30
G0 F3600 X136.591 Y65.67
M205 X15 Y15
;TYPE:WALL-OUTER
G1 F1500 X136.591 Y59.07 E8.74571
G1 X143.191 Y59.07 E8.86644
G1 X143.191 Y65.67 E8.98718
G1 X136.591 Y65.67 E9.10791
M205 X30 Y30
G0 F3600 X136.591 Y65.47
G0 X137.031 Y65.23
G0 X137.091 Y65.23
G0 X137.781 Y64.48
M205 X15 Y15
;TYPE:SKIN
G1 F1500 X137.781 Y60.26 E9.18511
G1 X142.001 Y60.26 E9.2623
G1 X142.001 Y64.48 E9.3395
G1 X137.781 Y64.48 E9.4167
M205 X30 Y30
G0 F3600 X138.404 Y64.3
M205 X15 Y15
G1 F1500 X137.96 Y63.855 E9.4282
M205 X30 Y30
G0 F3600 X137.96 Y63.289
M205 X15 Y15
G1 F1500 X138.97 Y64.3 E9.45434
M205 X30 Y30
G0 F3600 X139.536 Y64.3
M205 X15 Y15
G1 F1500 X137.96 Y62.723 E9.49512
M205 X30 Y30
G0 F3600 X137.96 Y62.158
M205 X15 Y15
G1 F1500 X140.101 Y64.3 E9.55052
M205 X30 Y30
G0 F3600 X140.667 Y64.3
M205 X15 Y15
G1 F1500 X137.96 Y61.592 E9.62057
M205 X30 Y30
G0 F3600 X137.96 Y61.026
M205 X15 Y15
G1 F1500 X141.233 Y64.3 E9.70526
M205 X30 Y30
G0 F3600 X141.798 Y64.3
M205 X15 Y15
G1 F1500 X137.96 Y60.461 E9.80456
M205 X30 Y30
G0 F3600 X138.504 Y60.439
M205 X15 Y15
G1 F1500 X141.82 Y63.756 E9.89036
M205 X30 Y30
G0 F3600 X141.82 Y63.19
M205 X15 Y15
G1 F1500 X139.07 Y60.439 E9.96151
M205 X30 Y30
G0 F3600 X139.635 Y60.439
M205 X15 Y15
G1 F1500 X141.82 Y62.624 E10.01804
M205 X30 Y30
G0 F3600 X141.82 Y62.059
M205 X15 Y15
G1 F1500 X140.201 Y60.439 E10.05994
M205 X30 Y30
G0 F3600 X140.767 Y60.439
M205 X15 Y15
G1 F1500 X141.82 Y61.493 E10.08719
M205 X30 Y30
G0 F3600 X141.82 Y60.927
M205 X15 Y15
G1 F1500 X141.332 Y60.439 E10.09982
M205 X30 Y30
G1 F1200 E6.59982
G1 F120 Z1.1
G0 F3600 X141.332 Y60.439 Z1.1
G0 X137.391 Y41.87
M205 X15 Y15
;TYPE:WALL-INNER
G1 F120 Z0.1
G1 F1200 E10.09982
G1 F1500 X137.391 Y36.87 E10.19128
G1 X142.391 Y36.87 E10.28275
G1 X142.391 Y41.87 E10.37421
G1 X137.391 Y41.87 E10.46568
M205 X30 Y30
G0 F3600 X136.991 Y42.27
M205 X15 Y15
G1 F1500 X136.991 Y36.47 E10.57178
G1 X142.791 Y36.47 E10.67788
G1 X142.791 Y42.27 E10.78398
G1 X136.991 Y42.27 E10.89008
M205 X30 Y30
G0 F3600 X136.591 Y42.67
M205 X15 Y15
;TYPE:WALL-OUTER
G1 F1500 X136.591 Y36.07 E11.01081
G1 X143.191 Y36.07 E11.13155
G1 X143.191 Y42.67 E11.25228
G1 X136.591 Y42.67 E11.37301
M205 X30 Y30
G0 F3600 X136.591 Y42.47
G0 X137.031 Y42.23
G0 X137.091 Y42.23
G0 X137.781 Y41.48
M205 X15 Y15
;TYPE:SKIN
G1 F1500 X137.781 Y37.26 E11.45021
G1 X142.001 Y37.26 E11.52741
G1 X142.001 Y41.48 E11.6046
G1 X137.781 Y41.48 E11.6818
M205 X30 Y30
G0 F3600 X138.032 Y41.299
M205 X15 Y15
G1 F1500 X137.96 Y41.227 E11.68366
M205 X30 Y30
G0 F3600 X137.96 Y40.662
M205 X15 Y15
G1 F1500 X138.597 Y41.299 E11.70014
M205 X30 Y30
G0 F3600 X139.163 Y41.299
M205 X15 Y15
G1 F1500 X137.96 Y40.096 E11.73127
M205 X30 Y30
G0 F3600 X137.96 Y39.53
M205 X15 Y15
G1 F1500 X139.729 Y41.299 E11.77703
M205 X30 Y30
G0 F3600 X140.294 Y41.299
M205 X15 Y15
G1 F1500 X137.96 Y38.965 E11.83741
M205 X30 Y30
G0 F3600 X137.96 Y38.399
M205 X15 Y15
G1 F1500 X140.86 Y41.299 E11.91244
M205 X30 Y30
G0 F3600 X141.426 Y41.299
M205 X15 Y15
G1 F1500 X137.96 Y37.833 E12.0021
M205 X30 Y30
G0 F3600 X138.131 Y37.439
M205 X15 Y15
G1 F1500 X141.82 Y41.128 E12.09754
M205 X30 Y30
G0 F3600 X141.82 Y40.563
M205 X15 Y15
G1 F1500 X138.697 Y37.439 E12.17834
M205 X30 Y30
G0 F3600 X139.263 Y37.439
M205 X15 Y15
G1 F1500 X141.82 Y39.997 E12.24451
M205 X30 Y30
G0 F3600 X141.82 Y39.431
M205 X15 Y15
G1 F1500 X139.828 Y37.439 E12.29604
M205 X30 Y30
G0 F3600 X140.394 Y37.439
M205 X15 Y15
G1 F1500 X141.82 Y38.866 E12.33294
M205 X30 Y30
G0 F3600 X141.82 Y38.3
M205 X15 Y15
G1 F1500 X140.96 Y37.439 E12.35521
M205 X30 Y30
G0 F3600 X141.526 Y37.439
M104 S195
M205 X15 Y15
G1 F1500 X141.82 Y37.734 E12.36282
M205 X30 Y30
G1 F1200 E8.86282
G1 F120 Z1.1
;MESH:NONMESH
G0 F3600 X141.82 Y37.734 Z1.1
G0 X141.591 Y43.77
;TIME_ELAPSED:38.136709
;LAYER:1
M140 S62
G0 F5400 X141.591 Y43.77 Z1.25
M205 X15 Y15
;TYPE:SUPPORT
G1 F120 Z0.25
G1 F1200 E12.36282
G1 F2250 X143.191 Y43.77 E12.40274
G1 X143.191 Y57.97 E12.75696
G1 X141.591 Y57.97 E12.79687
G1 X141.591 Y43.77 E13.15109
M205 X30 Y30
G0 F5400 X141.991 Y44.17
M205 X15 Y15
G1 F2250 X142.791 Y44.17 E13.17105
G1 X142.791 Y57.57 E13.50531
G1 X141.991 Y57.57 E13.52527
G1 X141.991 Y44.17 E13.85953
M205 X30 Y30
G1 F1200 E10.35953
G1 F120 Z1.25
G0 F5400 X144.291 Y42.396 Z1.25
M205 X15 Y15
G1 F120 Z0.25
G1 F1200 E13.85953
G1 F2250 X144.291 Y39.567 E13.9301
G1 X146.191 Y39.567 E13.9775
G1 X146.191 Y42.396 E14.04807
G1 X144.291 Y42.396 E14.09546
M205 X30 Y30
G0 F5400 X144.691 Y41.996
M205 X15 Y15
G1 F2250 X144.691 Y39.967 E14.14607
G1 X145.791 Y39.967 E14.17351
G1 X145.791 Y41.996 E14.22413
G1 X144.691 Y41.996 E14.25157
M205 X30 Y30
G1 F1200 E10.75157
G1 F120 Z1.25
G0 F5400 X144.291 Y59.167 Z1.25
M205 X15 Y15
G1 F120 Z0.25
G1 F1200 E14.25157
G1 F2250 X146.191 Y59.167 E14.29896
G1 X146.191 Y61.996 E14.36953
G1 X144.291 Y61.996 E14.41693
G1 X144.291 Y59.167 E14.4875
M205 X30 Y30
G0 F5400 X144.691 Y59.567
M205 X15 Y15
G1 F2250 X145.791 Y59.567 E14.51494
G1 X145.791 Y61.596 E14.56555
G1 X144.691 Y61.596 E14.59299
G1 X144.691 Y59.567 E14.6436
M205 X30 Y30
G1 F1200 E11.1436
G1 F120 Z1.25
;MESH:support TOF VL53L0X-C.STL
G0 F5400 X137.391 Y64.87 Z1.25
M205 X15 Y15
;TYPE:WALL-INNER
G1 F120 Z0.25
G1 F1200 E14.6436
G1 F2250 X137.391 Y59.87 E14.76833
G1 X142.391 Y59.87 E14.89306
G1 X142.391 Y64.87 E15.01778
G1 X137.391 Y64.87 E15.14251
M205 X30 Y30
G0 F5400 X136.991 Y65.27
M205 X15 Y15
G1 F2250 X136.991 Y59.47 E15.28719
G1 X142.791 Y59.47 E15.43187
G1 X142.791 Y65.27 E15.57655
G1 X136.991 Y65.27 E15.72123
M205 X30 Y30
G0 F5400 X136.591 Y65.67
M205 X15 Y15
;TYPE:WALL-OUTER
G1 F1500 X136.591 Y59.07 E15.88587
G1 X143.191 Y59.07 E16.05051
G1 X143.191 Y65.67 E16.21515
G1 X136.591 Y65.67 E16.37978
