;FLAVOR:Marlin
;TIME:721
;Filament used: 0.415617m
;Layer height: 0.15
;MINX:89.5
;MINY:25.377
;MINZ:0.1
;MAXX:127.5
;MAXY:43.377
;MAXZ:10
;Generated with Cura_SteamEngine 4.5.0
M140 S67
M105
M190 S67
M82 ;absolute extrusion mode
;Gcode by Cura
G90
M106 S255
G28 X Y
M109 R195
G28
M104 S195
G29
M107
G1 X100 Y10 F3000
G1 Z0.5
M109 S195
M82
G92 E0
G1 F200 E10
G92 E0
G1 Z3
G1 F6000
G92 E0
G92 E0
G1 F1200 E-3.5
;LAYER_COUNT:67
;LAYER:0
M106 S255
M205 X30 Y30
G1 F120 Z1.1
G0 F3600 X89.683 Y28.218 Z1.1
M205 X15 Y15
;TYPE:SKIRT
G1 F120 Z0.1
G1 F1200 E0
G1 F1500 X89.886 Y27.69 E0.01035
G1 X90.162 Y27.196 E0.0207
G1 X90.504 Y26.746 E0.03104
G1 X90.906 Y26.349 E0.04137
G1 X91.36 Y26.012 E0.05172
G1 X91.857 Y25.743 E0.06206
G1 X92.387 Y25.546 E0.0724
G1 X92.94 Y25.427 E0.08275
G1 X93.718 Y25.379 E0.09701
G1 X99.85 Y25.377 E0.20918
G1 X100.556 Y25.387 E0.22209
G1 X101.693 Y25.461 E0.24294
G1 X104.489 Y25.619 E0.29417
G1 X107.158 Y25.694 E0.34301
G1 X109.902 Y25.694 E0.39321
G1 X112.577 Y25.617 E0.44216
G1 X115.372 Y25.459 E0.49337
G1 X116.217 Y25.397 E0.50887
G1 X122.85 Y25.377 E0.63021
G1 X123.548 Y25.387 E0.64298
G1 X124.112 Y25.435 E0.65333
G1 X124.662 Y25.562 E0.66366
G1 X125.19 Y25.766 E0.67401
G1 X125.684 Y26.041 E0.68436
G1 X126.133 Y26.384 E0.69469
G1 X126.53 Y26.786 E0.70503
G1 X126.867 Y27.241 E0.71539
G1 X127.135 Y27.738 E0.72572
G1 X127.331 Y28.268 E0.73605
G1 X127.451 Y28.821 E0.7464
G1 X127.498 Y29.577 E0.76026
G1 X127.5 Y35.707 E0.8724
G1 X127.49 Y36.424 E0.88551
G1 X127.442 Y36.987 E0.89585
G1 X127.315 Y37.538 E0.90619
G1 X127.112 Y38.066 E0.91654
G1 X126.836 Y38.559 E0.92688
G1 X126.494 Y39.009 E0.93722
G1 X125.939 Y39.531 E0.95116
G1 X122.906 Y41.922 E1.02181
G1 X122.25 Y42.46 E1.03733
G1 X121.788 Y42.787 E1.04768
G1 X121.285 Y43.045 E1.05802
G1 X120.751 Y43.23 E1.06836
G1 X120.196 Y43.338 E1.0787
G1 X119.227 Y43.376 E1.09644
G1 X117.39 Y43.377 E1.13005
G1 X116.695 Y43.367 E1.14276
G1 X115.439 Y43.284 E1.16579
G1 X112.643 Y43.126 E1.21702
G1 X109.972 Y43.05 E1.2659
G1 X107.227 Y43.05 E1.31611
G1 X104.553 Y43.126 E1.36505
G1 X101.809 Y43.28 E1.41532
G1 X100.702 Y43.359 E1.43562
G1 X99.944 Y43.376 E1.44949
G1 X98.091 Y43.377 E1.48339
G1 X97.393 Y43.367 E1.49616
G1 X96.829 Y43.319 E1.50651
G1 X96.279 Y43.192 E1.51684
G1 X95.751 Y42.988 E1.5272
G1 X95.257 Y42.713 E1.53754
G1 X91.923 Y40.172 E1.61422
G1 X91.134 Y39.59 E1.63216
G1 X90.704 Y39.223 E1.6425
G1 X90.33 Y38.799 E1.65284
G1 X90.02 Y38.327 E1.66317
G1 X89.779 Y37.815 E1.67352
G1 X89.612 Y37.275 E1.68386
G1 X89.511 Y36.482 E1.69849
G1 X89.5 Y29.997 E1.81712
G1 X89.509 Y29.332 E1.82928
G1 X89.557 Y28.769 E1.83962
G1 X89.683 Y28.218 E1.84996
M205 X30 Y30
G0 F3600 X90.083 Y28.282
M205 X15 Y15
G1 F1500 X90.285 Y27.785 E1.85977
G1 X90.558 Y27.324 E1.86957
G1 X90.897 Y26.908 E1.87939
G1 X91.294 Y26.548 E1.88919
G1 X91.741 Y26.25 E1.89902
G1 X92.226 Y26.022 E1.90882
G1 X92.74 Y25.869 E1.91863
G1 X93.408 Y25.787 E1.93095
G1 X99.844 Y25.777 E2.04868
G1 X100.55 Y25.787 E2.0616
G1 X101.698 Y25.863 E2.08264
G1 X104.421 Y26.017 E2.13253
G1 X107.183 Y26.094 E2.18308
G1 X109.879 Y26.094 E2.2324
G1 X112.645 Y26.015 E2.28302
G1 X115.37 Y25.86 E2.33295
G1 X116.246 Y25.796 E2.34901
G1 X116.83 Y25.777 E2.3597
G1 X122.845 Y25.777 E2.46974
G1 X123.543 Y25.787 E2.48251
G1 X124.077 Y25.835 E2.49231
G1 X124.598 Y25.961 E2.50212
G1 X125.095 Y26.164 E2.51194
G1 X125.556 Y26.438 E2.52175
G1 X125.971 Y26.777 E2.53155
G1 X126.331 Y27.175 E2.54137
G1 X126.628 Y27.621 E2.55117
G1 X126.856 Y28.107 E2.56099
G1 X127.008 Y28.621 E2.5708
G1 X127.089 Y29.282 E2.58298
G1 X127.1 Y35.701 E2.7004
G1 X127.09 Y36.418 E2.71352
G1 X127.042 Y36.952 E2.72333
G1 X126.916 Y37.474 E2.73315
G1 X126.714 Y37.97 E2.74295
G1 X126.44 Y38.431 E2.75276
G1 X126.101 Y38.847 E2.76258
G1 X125.694 Y39.214 E2.7726
G1 X122.652 Y41.613 E2.84347
G1 X121.996 Y42.151 E2.85899
G1 X121.557 Y42.459 E2.8688
G1 X121.077 Y42.698 E2.87861
G1 X120.567 Y42.864 E2.88842
G1 X119.778 Y42.966 E2.90297
G1 X119.22 Y42.976 E2.91318
G1 X117.396 Y42.977 E2.94655
G1 X116.701 Y42.967 E2.95926
G1 X115.423 Y42.882 E2.98269
G1 X112.712 Y42.728 E3.03237
G1 X109.947 Y42.65 E3.08297
G1 X107.252 Y42.65 E3.13227
G1 X104.483 Y42.728 E3.18294
G1 X101.796 Y42.88 E3.23217
G1 X100.676 Y42.96 E3.25271
G1 X99.937 Y42.976 E3.26624
G1 X98.096 Y42.977 E3.29991
G1 X97.398 Y42.967 E3.31268
G1 X96.864 Y42.919 E3.32249
G1 X96.343 Y42.793 E3.3323
G1 X95.846 Y42.59 E3.34212
G1 X95.239 Y42.208 E3.35524
G1 X94.377 Y41.537 E3.37522
G1 X92.163 Y39.851 E3.42613
G1 X91.372 Y39.268 E3.4441
G1 X90.965 Y38.918 E3.45392
G1 X90.615 Y38.512 E3.46373
G1 X90.329 Y38.059 E3.47353
G1 X90.114 Y37.567 E3.48335
G1 X89.974 Y37.05 E3.49315
G1 X89.91 Y36.471 E3.5038
G1 X89.9 Y30.002 E3.62214
G1 X89.909 Y29.337 E3.63431
G1 X89.957 Y28.803 E3.64412
G1 X90.083 Y28.282 E3.65392
M205 X30 Y30
G0 F3600 X90.482 Y28.35
M205 X15 Y15
G1 F1500 X90.683 Y27.886 E3.66317
G1 X90.954 Y27.459 E3.67242
G1 X91.289 Y27.081 E3.68166
G1 X91.68 Y26.76 E3.69092
G1 X92.117 Y26.505 E3.70017
G1 X92.588 Y26.321 E3.70942
G1 X93.082 Y26.215 E3.71867
G1 X93.74 Y26.178 E3.73072
G1 X99.838 Y26.177 E3.84227
G1 X100.544 Y26.187 E3.85519
G1 X101.648 Y26.26 E3.87543
G1 X104.422 Y26.417 E3.92625
G1 X107.171 Y26.494 E3.97656
G1 X109.89 Y26.494 E4.0263
G1 X112.645 Y26.415 E4.07672
G1 X115.417 Y26.258 E4.12751
G1 X116.276 Y26.195 E4.14326
G1 X122.839 Y26.177 E4.26332
G1 X123.537 Y26.187 E4.27609
G1 X124.04 Y26.234 E4.28533
G1 X124.53 Y26.36 E4.29459
G1 X124.994 Y26.562 E4.30385
G1 X125.42 Y26.834 E4.31309
G1 X125.798 Y27.169 E4.32233
G1 X126.118 Y27.56 E4.33157
G1 X126.373 Y27.997 E4.34083
G1 X126.556 Y28.468 E4.35007
G1 X126.663 Y28.962 E4.35932
G1 X126.699 Y29.6 E4.37101
G1 X126.7 Y35.696 E4.48252
G1 X126.69 Y36.413 E4.49564
G1 X126.643 Y36.916 E4.50488
G1 X126.517 Y37.406 E4.51414
G1 X126.316 Y37.87 E4.52339
G1 X126.044 Y38.296 E4.53263
G1 X125.709 Y38.674 E4.54187
G1 X125.115 Y39.157 E4.55588
G1 X122.353 Y41.34 E4.62028
G1 X121.742 Y41.841 E4.63473
G1 X121.327 Y42.13 E4.64398
G1 X120.872 Y42.35 E4.65323
G1 X120.388 Y42.495 E4.66247
G1 X119.77 Y42.566 E4.67385
G1 X119.212 Y42.576 E4.68406
G1 X117.402 Y42.577 E4.71717
G1 X116.707 Y42.567 E4.72989
G1 X115.471 Y42.484 E4.75255
G1 X112.711 Y42.328 E4.80312
G1 X109.958 Y42.25 E4.8535
G1 X107.241 Y42.25 E4.9032
G1 X104.485 Y42.328 E4.95364
G1 X101.739 Y42.483 E5.00395
G1 X100.65 Y42.56 E5.02392
G1 X99.93 Y42.577 E5.03709
G1 X98.102 Y42.577 E5.07053
G1 X97.404 Y42.567 E5.0833
G1 X96.901 Y42.52 E5.09255
G1 X96.411 Y42.394 E5.1018
G1 X95.947 Y42.192 E5.11106
G1 X95.484 Y41.892 E5.12115
G1 X94.622 Y41.221 E5.14113
G1 X92.421 Y39.545 E5.19174
G1 X91.609 Y38.946 E5.2102
G1 X91.227 Y38.615 E5.21945
G1 X90.903 Y38.227 E5.22869
G1 X90.643 Y37.794 E5.23793
G1 X90.454 Y37.325 E5.24718
G1 X90.342 Y36.832 E5.25643
G1 X90.301 Y36.136 E5.26918
G1 X90.3 Y30.008 E5.38128
G1 X90.309 Y29.343 E5.39345
G1 X90.356 Y28.839 E5.40271
G1 X90.482 Y28.35 E5.41195
M205 X30 Y30
G1 F1200 E1.91195
G1 F120 Z1.1
G0 F3600 X97.523 Y37.277 Z1.1
M205 X15 Y15
;TYPE:SUPPORT
G1 F120 Z0.1
G1 F1200 E5.41195
G1 F1500 X100.353 Y37.277 E5.46372
G1 X100.353 Y39.177 E5.49847
G1 X97.523 Y39.177 E5.55024
G1 X97.523 Y37.277 E5.585
M205 X30 Y30
G0 F3600 X97.923 Y37.677
M205 X15 Y15
G1 F1500 X99.953 Y37.677 E5.62213
G1 X99.953 Y38.777 E5.64226
G1 X97.923 Y38.777 E5.67939
G1 X97.923 Y37.677 E5.69951
M205 X30 Y30
G1 F1200 E2.19951
G1 F120 Z1.1
G0 F3600 X99.953 Y38.777 Z1.1
M205 X15 Y15
G1 F120 Z0.1
G1 F1200 E5.69951
G1 F1500 X97.923 Y38.777 E5.73665
G1 X97.923 Y37.677 E5.75677
G1 X99.953 Y37.677 E5.79391
G1 X99.953 Y38.777 E5.81403
M205 X30 Y30
G1 F1200 E2.31403
G1 F120 Z1.1
G0 F3600 X101.4 Y36.177 Z1.1
M205 X15 Y15
G1 F120 Z0.1
G1 F1200 E5.81403
G1 F1500 X101.4 Y34.577 E5.8433
G1 X115.6 Y34.577 E6.10306
G1 X115.6 Y36.177 E6.13233
G1 X101.4 Y36.177 E6.39209
M205 X30 Y30
G0 F3600 X101.8 Y35.777
M205 X15 Y15
G1 F1500 X101.8 Y34.977 E6.40672
G1 X115.2 Y34.977 E6.65185
G1 X115.2 Y35.777 E6.66649
G1 X101.8 Y35.777 E6.91161
M205 X30 Y30
G1 F1200 E3.41161
G1 F120 Z1.1
G0 F3600 X115.2 Y35.777 Z1.1
M205 X15 Y15
G1 F120 Z0.1
G1 F1200 E6.91161
G1 F1500 X101.8 Y35.777 E7.15674
G1 X101.8 Y34.977 E7.17138
G1 X115.2 Y34.977 E7.4165
G1 X115.2 Y35.777 E7.43114
M205 X30 Y30
G1 F1200 E3.93114
G1 F120 Z1.1
G0 F3600 X116.823 Y37.277 Z1.1
M205 X15 Y15
G1 F120 Z0.1
G1 F1200 E7.43114
G1 F1500 X119.651 Y37.277 E7.48287
G1 X119.653 Y39.159 E7.5173
G1 X119.635 Y39.177 E7.51776
G1 X116.823 Y39.177 E7.5692
G1 X116.823 Y37.277 E7.60396
M205 X30 Y30
G0 F3600 X117.223 Y37.677
M205 X15 Y15
G1 F1500 X119.251 Y37.677 E7.64106
G1 X119.253 Y38.777 E7.66118
G1 X117.223 Y38.777 E7.69832
G1 X117.223 Y37.677 E7.71844
M205 X30 Y30
G1 F1200 E4.21844
G1 F120 Z1.1
G0 F3600 X119.254 Y38.777 Z1.1
M205 X15 Y15
G1 F120 Z0.1
G1 F1200 E7.71844
G1 F1500 X117.223 Y38.777 E7.75559
G1 X117.223 Y37.677 E7.77571
G1 X119.25 Y37.677 E7.81279
G1 X119.254 Y38.777 E7.83292
M205 X30 Y30
G1 F1200 E4.33292
G1 F120 Z1.1
;MESH:support TOF VL53L0X-B.STL
G0 F3600 X117.5 Y35.377 Z1.1
M205 X15 Y15
;TYPE:WALL-INNER
G1 F120 Z0.1
G1 F1200 E7.83292
G1 F1500 X117.5 Y30.377 E7.92438
G1 X122.5 Y30.377 E8.01585
G1 X122.5 Y35.377 E8.10731
G1 X117.5 Y35.377 E8.19878
M205 X30 Y30
G0 F3600 X117.1 Y35.777
M205 X15 Y15
G1 F1500 X117.1 Y29.977 E8.30488
G1 X122.9 Y29.977 E8.41098
G1 X122.9 Y35.777 E8.51708
G1 X117.1 Y35.777 E8.62318
M205 X30 Y30
G0 F3600 X116.7 Y36.177
M205 X15 Y15
;TYPE:WALL-OUTER
G1 F1500 X116.7 Y29.577 E8.74391
G1 X123.3 Y29.577 E8.86465
G1 X123.3 Y36.177 E8.98538
G1 X116.7 Y36.177 E9.10611
M205 X30 Y30
G0 F3600 X116.7 Y35.977
G0 X117.14 Y35.737
G0 X117.2 Y35.737
G0 X117.89 Y34.987
M205 X15 Y15
;TYPE:SKIN
G1 F1500 X117.89 Y30.767 E9.18331
G1 X122.11 Y30.767 E9.26051
G1 X122.11 Y34.987 E9.3377
G1 X117.89 Y34.987 E9.4149
M205 X30 Y30
G0 F3600 X118.528 Y34.806
M205 X15 Y15
G1 F1500 X118.069 Y34.347 E9.42678
M205 X30 Y30
G0 F3600 X118.069 Y33.782
M205 X15 Y15
G1 F1500 X119.093 Y34.806 E9.45327
M205 X30 Y30
G0 F3600 X119.659 Y34.806
M205 X15 Y15
G1 F1500 X118.069 Y33.216 E9.4944
M205 X30 Y30
G0 F3600 X118.069 Y32.65
M205 X15 Y15
G1 F1500 X120.225 Y34.806 E9.55018
M205 X30 Y30
G0 F3600 X120.79 Y34.806
M205 X15 Y15
G1 F1500 X118.069 Y32.084 E9.62058
M205 X30 Y30
G0 F3600 X118.069 Y31.519
M205 X15 Y15
G1 F1500 X121.356 Y34.806 E9.70562
M205 X30 Y30
G0 F3600 X121.922 Y34.806
M205 X15 Y15
G1 F1500 X118.069 Y30.953 E9.8053
M205 X30 Y30
G0 F3600 X118.628 Y30.947
M205 X15 Y15
G1 F1500 X121.929 Y34.248 E9.8907
M205 X30 Y30
G0 F3600 X121.929 Y33.682
M205 X15 Y15
G1 F1500 X119.194 Y30.947 E9.96145
M205 X30 Y30
G0 F3600 X119.759 Y30.947
M205 X15 Y15
G1 F1500 X121.929 Y33.116 E10.01758
M205 X30 Y30
G0 F3600 X121.929 Y32.55
M205 X15 Y15
G1 F1500 X120.325 Y30.947 E10.05906
M205 X30 Y30
G0 F3600 X120.891 Y30.947
M205 X15 Y15
G1 F1500 X121.929 Y31.985 E10.08591
M205 X30 Y30
G0 F3600 X121.929 Y31.419
M205 X15 Y15
G1 F1500 X121.456 Y30.947 E10.09814
M205 X30 Y30
G1 F1200 E6.59814
G1 F120 Z1.1
G0 F3600 X121.456 Y30.947 Z1.1
G0 X94.5 Y35.377
M205 X15 Y15
;TYPE:WALL-INNER
G1 F120 Z0.1
G1 F1200 E10.09814
G1 F1500 X94.5 Y30.377 E10.1896
G1 X99.5 Y30.377 E10.28107
G1 X99.5 Y35.377 E10.37253
G1 X94.5 Y35.377 E10.464
M205 X30 Y30
G0 F3600 X94.1 Y35.777
M205 X15 Y15
G1 F1500 X94.1 Y29.977 E10.5701
G1 X99.9 Y29.977 E10.6762
G1 X99.9 Y35.777 E10.7823
G1 X94.1 Y35.777 E10.8884
M205 X30 Y30
G0 F3600 X93.7 Y36.177
M205 X15 Y15
;TYPE:WALL-OUTER
G1 F1500 X93.7 Y29.577 E11.00913
G1 X100.3 Y29.577 E11.12987
G1 X100.3 Y36.177 E11.2506
G1 X93.7 Y36.177 E11.37133
M205 X30 Y30
G0 F3600 X93.7 Y35.977
G0 X94.14 Y35.737
G0 X94.2 Y35.737
G0 X94.89 Y34.987
M205 X15 Y15
;TYPE:SKIN
G1 F1500 X94.89 Y30.767 E11.44853
G1 X99.11 Y30.767 E11.52573
G1 X99.11 Y34.987 E11.60292
G1 X94.89 Y34.987 E11.68012
M205 X30 Y30
G0 F3600 X95.334 Y34.806
M205 X15 Y15
G1 F1500 X95.069 Y34.54 E11.68699
M205 X30 Y30
G0 F3600 X95.069 Y33.975
M205 X15 Y15
G1 F1500 X95.9 Y34.806 E11.70849
M205 X30 Y30
G0 F3600 X96.466 Y34.806
M205 X15 Y15
G1 F1500 X95.069 Y33.409 E11.74463
M205 X30 Y30
G0 F3600 X95.069 Y32.843
M205 X15 Y15
G1 F1500 X97.032 Y34.806 E11.79541
M205 X30 Y30
G0 F3600 X97.597 Y34.806
M205 X15 Y15
G1 F1500 X95.069 Y32.278 E11.86081
M205 X30 Y30
G0 F3600 X95.069 Y31.712
M205 X15 Y15
G1 F1500 X98.163 Y34.806 E11.94086
M205 X30 Y30
G0 F3600 X98.729 Y34.806
M205 X15 Y15
G1 F1500 X95.069 Y31.146 E12.03554
M205 X30 Y30
G0 F3600 X95.435 Y30.947
M205 X15 Y15
G1 F1500 X98.929 Y34.441 E12.12593
M205 X30 Y30
G0 F3600 X98.929 Y33.875
M205 X15 Y15
G1 F1500 X96.001 Y30.947 E12.20168
M205 X30 Y30
G0 F3600 X96.566 Y30.947
M205 X15 Y15
G1 F1500 X98.929 Y33.309 E12.2628
M205 X30 Y30
G0 F3600 X98.929 Y32.743
M205 X15 Y15
G1 F1500 X97.132 Y30.947 E12.30927
M205 X30 Y30
G0 F3600 X97.698 Y30.947
M205 X15 Y15
G1 F1500 X98.929 Y32.178 E12.34112
M205 X30 Y30
G0 F3600 X98.929 Y31.612
M205 X15 Y15
G1 F1500 X98.263 Y30.947 E12.35834
M205 X30 Y30
G0 F3600 X98.829 Y30.947
M104 S195
M205 X15 Y15
G1 F1500 X98.929 Y31.046 E12.36091
M205 X30 Y30
G1 F1200 E8.86091
G1 F120 Z1.1
;MESH:NONMESH
G0 F3600 X98.929 Y31.046 Z1.1
G0 X97.523 Y37.277
;TIME_ELAPSED:37.340249
;LAYER:1
M140 S62
G0 F5400 X97.523 Y37.277 Z1.25
M205 X15 Y15
;TYPE:SUPPORT
G1 F120 Z0.25
G1 F1200 E12.36091
G1 F2250 X100.353 Y37.277 E12.43151
G1 X100.353 Y39.177 E12.4789
G1 X97.523 Y39.177 E12.5495
G1 X97.523 Y37.277 E12.59689
M205 X30 Y30
G0 F5400 X97.923 Y37.677
M205 X15 Y15
G1 F2250 X99.953 Y37.677 E12.64753
G1 X99.953 Y38.777 E12.67497
G1 X97.923 Y38.777 E12.72561
G1 X97.923 Y37.677 E12.75305
M205 X30 Y30
G1 F1200 E9.25305
G1 F120 Z1.25
G0 F5400 X101.4 Y36.177 Z1.25
M205 X15 Y15
G1 F120 Z0.25
G1 F1200 E12.75305
G1 F2250 X101.4 Y34.577 E12.79296
G1 X115.6 Y34.577 E13.14718
G1 X115.6 Y36.177 E13.18709
G1 X101.4 Y36.177 E13.54131
M205 X30 Y30
G0 F5400 X101.8 Y35.777
M205 X15 Y15
G1 F2250 X101.8 Y34.977 E13.56127
G1 X115.2 Y34.977 E13.89553
G1 X115.2 Y35.777 E13.91549
G1 X101.8 Y35.777 E14.24975
M205 X30 Y30
G1 F1200 E10.74975
G1 F120 Z1.25
G0 F5400 X116.823 Y37.277 Z1.25
M205 X15 Y15
G1 F120 Z0.25
G1 F1200 E14.24975
G1 F2250 X119.651 Y37.277 E14.3203
G1 X119.653 Y39.159 E14.36725
G1 X119.635 Y39.177 E14.36788
G1 X116.823 Y39.177 E14.43803
G1 X116.823 Y37.277 E14.48542
M205 X30 Y30
G0 F5400 X117.223 Y37.677
M205 X15 Y15
G1 F2250 X119.251 Y37.677 E14.53601
G1 X119.253 Y38.777 E14.56345
G1 X117.223 Y38.777 E14.61409
G1 X117.223 Y37.677 E14.64153
M205 X30 Y30
G1 F1200 E11.14153
G1 F120 Z1.25
;MESH:support TOF VL53L0X-B.STL
G0 F5400 X117.5 Y35.377 Z1.25
M205 X15 Y15
;TYPE:WALL-INNER
G1 F120 Z0.25
G1 F1200 E14.64153
G1 F2250 X117.5 Y30.377 E14.76625
G1 X122.5 Y30.377 E14.89098
G1 X122.5 Y35.377 E15.01571
G1 X117.5 Y35.377 E15.14043
M205 X30 Y30
G0 F5400 X117.1 Y35.777
M205 X15 Y15
G1 F2250 X117.1 Y29.977 E15.28511
G1 X122.9 Y29.977 E15.42979
G1 X122.9 Y35.777 E15.57448
G1 X117.1 Y35.777 E15.71916
M205 X30 Y30
G0 F5400 X116.7 Y36.177
M205 X15 Y15
;TYPE:WALL-OUTER
G1 F1500 X116.7 Y29.577 E15.88379
G1 X123.3 Y29.577 E16.04843
G1 X123.3 Y36.177 E16.21307
G1 X116.7 Y36.177 E16.37771
M205 X30 Y30
G0 F5400 X116.7 Y35.977
G0 X117.14 Y35.737
G0 X117.2 Y35.737
G0 X117.89 Y34.987
M205 X15 Y15
;TYPE:SKIN
G1 F1500 X117.89 Y30.767 E16.48298
G1 X122.11 Y30.767 E16.58824
G1 X122.11 Y34.987 E16.69351
G1 X117.89 Y34.987 E16.79878
M205 X30 Y30
G0 F5400 X118.069 Y31.271
M205 X15 Y15
G1 F1500 X118.394 Y30.946 E16.81025
M205 X30 Y30
G0 F5400 X118.96 Y30.946
M205 X15 Y15
