;FLAVOR:Marlin
;TIME:695
;Filament used: 0.392331m
;Layer height: 0.15
;MINX:100
;MINY:86
;MINZ:0.1
;MAXX:117.138
;MAXY:124
;MAXZ:10
;Generated with Cura_SteamEngine 4.5.0
M140 S67
M105
M190 S67
M82 ;absolute extrusion mode
;Gcode by Cura
G90
M106 S255
G28 X Y
M109 R195
G28
M104 S195
G29
M107
G1 X100 Y10 F3000
G1 Z0.5
M109 S195
M82
G92 E0
G1 F200 E10
G92 E0
G1 Z3
G1 F6000
G92 E0
G92 E0
G1 F1200 E-3.5
;LAYER_COUNT:67
;LAYER:0
M106 S255
M205 X30 Y30
G1 F120 Z1.1
G0 F3600 X101.009 Y87.365 Z1.1
M205 X15 Y15
;TYPE:SKIRT
G1 F120 Z0.1
G1 F1200 E0
G1 F1500 X101.412 Y86.968 E0.01035
G1 X101.866 Y86.632 E0.02068
G1 X102.364 Y86.363 E0.03103
G1 X102.894 Y86.168 E0.04137
G1 X103.447 Y86.049 E0.05171
G1 X104.218 Y86.002 E0.06584
G1 X110.35 Y86 E0.17802
G1 X111.048 Y86.01 E0.19079
G1 X111.612 Y86.058 E0.20114
G1 X112.162 Y86.185 E0.21147
G1 X112.69 Y86.389 E0.22182
G1 X113.184 Y86.664 E0.23216
G1 X113.633 Y87.007 E0.2425
G1 X114.03 Y87.409 E0.25284
G1 X114.367 Y87.864 E0.26319
G1 X114.821 Y88.698 E0.28056
G1 X115.545 Y90.126 E0.30985
G1 X115.984 Y90.932 E0.32664
G1 X116.662 Y92.213 E0.35315
G1 X116.89 Y92.731 E0.36351
G1 X117.044 Y93.275 E0.37385
G1 X117.125 Y93.998 E0.38716
G1 X117.137 Y94.561 E0.39746
G1 X117.138 Y96.139 E0.42633
G1 X117.128 Y96.836 E0.43908
G1 X117.034 Y98.248 E0.46496
G1 X116.873 Y100.898 E0.51353
G1 X116.786 Y103.602 E0.56302
G1 X116.774 Y106.313 E0.61261
G1 X116.84 Y109.027 E0.66228
G1 X116.967 Y111.508 E0.70772
G1 X117.051 Y112.815 E0.73168
G1 X117.068 Y113.562 E0.74535
G1 X117.069 Y115.28 E0.77677
G1 X117.059 Y115.978 E0.78954
G1 X117.011 Y116.542 E0.7999
G1 X116.884 Y117.092 E0.81023
G1 X116.648 Y117.686 E0.82192
G1 X115.47 Y119.957 E0.86872
G1 X114.99 Y120.946 E0.88883
G1 X114.565 Y121.79 E0.90611
G1 X114.276 Y122.275 E0.91644
G1 X113.921 Y122.715 E0.92678
G1 X113.507 Y123.101 E0.93714
G1 X113.044 Y123.424 E0.94747
G1 X112.539 Y123.679 E0.95781
G1 X112.004 Y123.86 E0.96815
G1 X111.448 Y123.964 E0.97849
G1 X110.794 Y123.998 E0.99047
G1 X104.655 Y124 E1.10277
G1 X103.957 Y123.991 E1.11554
G1 X103.394 Y123.943 E1.12588
G1 X102.843 Y123.817 E1.13622
G1 X102.315 Y123.615 E1.14656
G1 X101.821 Y123.34 E1.1569
G1 X101.371 Y122.998 E1.16724
G1 X100.973 Y122.596 E1.17759
G1 X100.637 Y122.142 E1.18792
G1 X100.367 Y121.645 E1.19827
G1 X100.17 Y121.115 E1.20861
G1 X100.05 Y120.563 E1.21895
G1 X100.001 Y119.766 E1.23355
G1 X100 Y113.65 E1.34544
G1 X100.01 Y112.944 E1.35835
G1 X100.084 Y111.807 E1.37919
G1 X100.242 Y109.011 E1.43042
G1 X100.317 Y106.342 E1.47927
G1 X100.317 Y103.598 E1.52946
G1 X100.24 Y100.922 E1.57844
G1 X100.082 Y98.128 E1.62963
G1 X100.02 Y97.283 E1.64513
G1 X100 Y96.671 E1.65633
G1 X100 Y90.614 E1.76713
G1 X100.01 Y89.949 E1.7793
G1 X100.059 Y89.386 E1.78963
G1 X100.186 Y88.835 E1.79998
G1 X100.39 Y88.307 E1.81033
G1 X100.666 Y87.814 E1.82067
G1 X101.009 Y87.365 E1.831
M205 X30 Y30
G0 F3600 X101.402 Y87.527
M205 X15 Y15
G1 F1500 X101.8 Y87.168 E1.84081
G1 X102.246 Y86.871 E1.85061
G1 X102.732 Y86.643 E1.86043
G1 X103.246 Y86.491 E1.87024
G1 X103.909 Y86.41 E1.88246
G1 X110.345 Y86.4 E2.00019
G1 X111.043 Y86.41 E2.01296
G1 X111.577 Y86.458 E2.02277
G1 X112.098 Y86.584 E2.03257
G1 X112.595 Y86.787 E2.04239
G1 X113.056 Y87.061 E2.0522
G1 X113.471 Y87.4 E2.06201
G1 X113.831 Y87.798 E2.07182
G1 X114.175 Y88.329 E2.0834
G1 X114.468 Y88.884 E2.09488
G1 X115.188 Y90.306 E2.12404
G1 X115.633 Y91.123 E2.14105
G1 X116.309 Y92.4 E2.16749
G1 X116.523 Y92.892 E2.1773
G1 X116.662 Y93.41 E2.18711
G1 X116.725 Y94.006 E2.19807
G1 X116.737 Y94.569 E2.20838
G1 X116.738 Y96.134 E2.237
G1 X116.728 Y96.831 E2.24976
G1 X116.632 Y98.26 E2.27596
G1 X116.474 Y100.861 E2.32362
G1 X116.386 Y103.588 E2.37353
G1 X116.374 Y106.321 E2.42353
G1 X116.44 Y109.059 E2.47363
G1 X116.568 Y111.534 E2.51897
G1 X116.652 Y112.841 E2.54293
G1 X116.668 Y113.569 E2.55625
G1 X116.669 Y115.275 E2.58745
G1 X116.659 Y115.973 E2.60022
G1 X116.611 Y116.507 E2.61003
G1 X116.485 Y117.028 E2.61984
G1 X116.289 Y117.51 E2.62936
G1 X115.1 Y119.804 E2.67662
G1 X114.63 Y120.771 E2.69629
G1 X114.208 Y121.61 E2.71347
G1 X113.932 Y122.069 E2.72327
G1 X113.59 Y122.483 E2.73309
G1 X113.191 Y122.841 E2.7429
G1 X112.743 Y123.136 E2.75271
G1 X112.256 Y123.361 E2.76252
G1 X111.742 Y123.511 E2.77232
G1 X111.104 Y123.588 E2.78407
G1 X104.661 Y123.6 E2.90194
G1 X103.963 Y123.591 E2.91471
G1 X103.428 Y123.544 E2.92453
G1 X102.907 Y123.418 E2.93434
G1 X102.41 Y123.216 E2.94415
G1 X101.949 Y122.943 E2.95395
G1 X101.533 Y122.604 E2.96377
G1 X101.172 Y122.208 E2.97357
G1 X100.874 Y121.762 E2.98338
G1 X100.646 Y121.276 E2.9932
G1 X100.493 Y120.762 E3.00301
G1 X100.41 Y120.088 E3.01543
G1 X100.4 Y113.656 E3.1331
G1 X100.41 Y112.95 E3.14601
G1 X100.487 Y111.781 E3.16744
G1 X100.64 Y109.079 E3.21695
G1 X100.717 Y106.317 E3.2675
G1 X100.717 Y103.621 E3.31681
G1 X100.638 Y100.854 E3.36745
G1 X100.482 Y98.106 E3.4178
G1 X100.419 Y97.254 E3.43343
G1 X100.4 Y96.671 E3.4441
G1 X100.4 Y90.62 E3.55479
G1 X100.41 Y89.955 E3.56696
G1 X100.458 Y89.421 E3.57677
G1 X100.585 Y88.9 E3.58658
G1 X100.788 Y88.403 E3.5964
G1 X101.062 Y87.942 E3.60621
G1 X101.402 Y87.527 E3.61602
M205 X30 Y30
G0 F3600 X101.458 Y88.078
M205 X15 Y15
G1 F1500 X101.794 Y87.701 E3.62526
G1 X102.185 Y87.38 E3.63451
G1 X102.622 Y87.126 E3.64376
G1 X103.093 Y86.943 E3.653
G1 X103.588 Y86.837 E3.66226
G1 X104.24 Y86.801 E3.67421
G1 X110.339 Y86.8 E3.78578
G1 X111.037 Y86.81 E3.79855
G1 X111.54 Y86.857 E3.80779
G1 X112.03 Y86.983 E3.81704
G1 X112.494 Y87.185 E3.8263
G1 X112.92 Y87.457 E3.83555
G1 X113.298 Y87.792 E3.84479
G1 X113.618 Y88.183 E3.85403
G1 X114.114 Y89.071 E3.87264
G1 X114.831 Y90.487 E3.90167
G1 X115.282 Y91.315 E3.91892
G1 X115.955 Y92.587 E3.94524
G1 X116.155 Y93.052 E3.9545
G1 X116.28 Y93.542 E3.96375
G1 X116.337 Y94.578 E3.98273
G1 X116.338 Y96.128 E4.01109
G1 X116.328 Y96.825 E4.02384
G1 X116.233 Y98.232 E4.04964
G1 X116.073 Y100.858 E4.09776
G1 X115.986 Y103.573 E4.14745
G1 X115.974 Y106.329 E4.19787
G1 X116.04 Y109.051 E4.24768
G1 X116.171 Y111.6 E4.29437
G1 X116.252 Y112.867 E4.31759
G1 X116.268 Y113.576 E4.33057
G1 X116.269 Y115.269 E4.36154
G1 X116.259 Y115.967 E4.37431
G1 X116.212 Y116.47 E4.38355
G1 X116.086 Y116.96 E4.3928
G1 X115.809 Y117.579 E4.40521
G1 X114.743 Y119.623 E4.44738
G1 X114.27 Y120.596 E4.46717
G1 X113.851 Y121.43 E4.48425
G1 X113.588 Y121.862 E4.4935
G1 X113.261 Y122.247 E4.50274
G1 X112.877 Y122.576 E4.51199
G1 X112.447 Y122.841 E4.52123
G1 X111.979 Y123.034 E4.53049
G1 X111.488 Y123.152 E4.53973
G1 X110.769 Y123.198 E4.55291
G1 X104.666 Y123.2 E4.66455
G1 X103.968 Y123.191 E4.67732
G1 X103.464 Y123.144 E4.68658
G1 X102.974 Y123.019 E4.69583
G1 X102.51 Y122.818 E4.70508
G1 X102.084 Y122.547 E4.71431
G1 X101.705 Y122.212 E4.72357
G1 X101.384 Y121.821 E4.73282
G1 X101.129 Y121.385 E4.74206
G1 X100.945 Y120.914 E4.75131
G1 X100.838 Y120.42 E4.76056
G1 X100.801 Y119.744 E4.77294
G1 X100.8 Y113.662 E4.8842
G1 X100.81 Y112.956 E4.89712
G1 X100.883 Y111.85 E4.91739
G1 X101.04 Y109.078 E4.96818
G1 X101.117 Y106.329 E5.01849
G1 X101.117 Y103.61 E5.06823
G1 X101.038 Y100.854 E5.11867
G1 X100.881 Y98.083 E5.16944
G1 X100.818 Y97.224 E5.18519
G1 X100.8 Y96.671 E5.19531
G1 X100.8 Y90.626 E5.3059
G1 X100.81 Y89.961 E5.31806
G1 X100.858 Y89.458 E5.32731
G1 X100.984 Y88.968 E5.33656
G1 X101.186 Y88.504 E5.34582
G1 X101.458 Y88.078 E5.35506
M205 X30 Y30
G1 F1200 E1.85506
G1 F120 Z1.1
G0 F3600 X111.9 Y94.029 Z1.1
M205 X15 Y15
;TYPE:SUPPORT
G1 F120 Z0.1
G1 F1200 E5.35506
G1 F1500 X112.801 Y94.029 E5.37155
G1 X112.938 Y94.166 E5.37509
G1 X112.938 Y96.707 E5.42157
G1 X112.787 Y96.859 E5.42549
G1 X111.9 Y96.859 E5.44172
G1 X111.9 Y94.029 E5.49349
M205 X30 Y30
G0 F3600 X112.3 Y94.429
M205 X15 Y15
G1 F1500 X112.538 Y94.429 E5.49784
G1 X112.538 Y96.459 E5.53498
G1 X112.3 Y96.459 E5.53933
G1 X112.3 Y94.429 E5.57647
M205 X30 Y30
G1 F1200 E2.07647
G1 F120 Z1.1
G0 F3600 X110.8 Y97.9 Z1.1
M205 X15 Y15
G1 F120 Z0.1
G1 F1200 E5.57647
G1 F1500 X110.8 Y112.1 E5.83623
G1 X109.2 Y112.1 E5.8655
G1 X109.2 Y97.9 E6.12526
G1 X110.8 Y97.9 E6.15453
M205 X30 Y30
G0 F3600 X110.4 Y98.3
M205 X15 Y15
G1 F1500 X110.4 Y111.7 E6.39965
G1 X109.6 Y111.7 E6.41429
G1 X109.6 Y98.3 E6.65942
G1 X110.4 Y98.3 E6.67405
M205 X30 Y30
G1 F1200 E3.17405
G1 F120 Z1.1
G0 F3600 X110.4 Y111.7 Z1.1
M205 X15 Y15
G1 F120 Z0.1
G1 F1200 E6.67405
G1 F1500 X109.6 Y111.7 E6.68868
G1 X109.6 Y98.3 E6.93381
G1 X110.4 Y98.3 E6.94845
G1 X110.4 Y111.7 E7.19357
M205 X30 Y30
G1 F1200 E3.69357
G1 F120 Z1.1
G0 F3600 X111.9 Y113.086 Z1.1
M205 X15 Y15
G1 F120 Z0.1
G1 F1200 E7.19357
G1 F1500 X112.801 Y113.086 E7.21005
G1 X112.869 Y113.154 E7.21181
G1 X112.869 Y115.848 E7.2611
G1 X112.802 Y115.915 E7.26283
G1 X111.9 Y115.915 E7.27933
G1 X111.9 Y113.086 E7.33108
M205 X30 Y30
G0 F3600 X112.3 Y113.486
M205 X15 Y15
G1 F1500 X112.469 Y113.486 E7.33417
G1 X112.469 Y115.515 E7.37129
G1 X112.3 Y115.515 E7.37438
G1 X112.3 Y113.486 E7.4115
M205 X30 Y30
G1 F1200 E3.9115
G1 F120 Z1.1
;MESH:support TOF VL53L0X-A.STL
G0 F3600 X105 Y119 Z1.1
M205 X15 Y15
;TYPE:WALL-INNER
G1 F120 Z0.1
G1 F1200 E7.4115
G1 F1500 X105 Y114 E7.50296
G1 X110 Y114 E7.59443
G1 X110 Y119 E7.68589
G1 X105 Y119 E7.77736
M205 X30 Y30
G0 F3600 X104.6 Y119.4
M205 X15 Y15
G1 F1500 X104.6 Y113.6 E7.88346
G1 X110.4 Y113.6 E7.98956
G1 X110.4 Y119.4 E8.09566
G1 X104.6 Y119.4 E8.20176
M205 X30 Y30
G0 F3600 X104.2 Y119.8
M205 X15 Y15
;TYPE:WALL-OUTER
G1 F1500 X104.2 Y113.2 E8.32249
G1 X110.8 Y113.2 E8.44323
G1 X110.8 Y119.8 E8.56396
G1 X104.2 Y119.8 E8.68469
M205 X30 Y30
G0 F3600 X104.2 Y119.6
G0 X104.64 Y119.36
G0 X104.7 Y119.36
G0 X105.39 Y118.61
M205 X15 Y15
;TYPE:SKIN
G1 F1500 X105.39 Y114.39 E8.76189
G1 X109.61 Y114.39 E8.83909
G1 X109.61 Y118.61 E8.91629
G1 X105.39 Y118.61 E8.99348
M205 X30 Y30
G0 F3600 X105.983 Y118.429
M205 X15 Y15
G1 F1500 X105.569 Y118.014 E9.00421
M205 X30 Y30
G0 F3600 X105.569 Y117.449
M205 X15 Y15
G1 F1500 X106.549 Y118.429 E9.02956
M205 X30 Y30
G0 F3600 X107.115 Y118.429
M205 X15 Y15
G1 F1500 X105.569 Y116.883 E9.06955
M205 X30 Y30
G0 F3600 X105.569 Y116.317
M205 X15 Y15
G1 F1500 X107.681 Y118.429 E9.12419
M205 X30 Y30
G0 F3600 X108.246 Y118.429
M205 X15 Y15
G1 F1500 X105.569 Y115.751 E9.19346
M205 X30 Y30
G0 F3600 X105.569 Y115.186
M205 X15 Y15
G1 F1500 X108.812 Y118.429 E9.27736
M205 X30 Y30
G0 F3600 X109.378 Y118.429
M205 X15 Y15
G1 F1500 X105.569 Y114.62 E9.3759
M205 X30 Y30
G0 F3600 X106.083 Y114.568
M205 X15 Y15
G1 F1500 X109.43 Y117.915 E9.46248
M205 X30 Y30
G0 F3600 X109.43 Y117.35
M205 X15 Y15
G1 F1500 X106.649 Y114.568 E9.53444
M205 X30 Y30
G0 F3600 X107.215 Y114.568
M205 X15 Y15
G1 F1500 X109.43 Y116.784 E9.59176
M205 X30 Y30
G0 F3600 X109.43 Y116.218
M205 X15 Y15
G1 F1500 X107.78 Y114.568 E9.63444
M205 X30 Y30
G0 F3600 X108.346 Y114.568
M205 X15 Y15
G1 F1500 X109.43 Y115.652 E9.66249
M205 X30 Y30
G0 F3600 X109.43 Y115.087
M205 X15 Y15
G1 F1500 X108.912 Y114.568 E9.6759
M205 X30 Y30
G1 F1200 E6.1759
G1 F120 Z1.1
G0 F3600 X108.912 Y114.568 Z1.1
G0 X105 Y96
M205 X15 Y15
;TYPE:WALL-INNER
G1 F120 Z0.1
G1 F1200 E9.6759
G1 F1500 X105 Y91 E9.76737
G1 X110 Y91 E9.85883
G1 X110 Y96 E9.9503
G1 X105 Y96 E10.04176
M205 X30 Y30
G0 F3600 X104.6 Y96.4
M205 X15 Y15
G1 F1500 X104.6 Y90.6 E10.14786
G1 X110.4 Y90.6 E10.25396
G1 X110.4 Y96.4 E10.36006
G1 X104.6 Y96.4 E10.46616
M205 X30 Y30
G0 F3600 X104.2 Y96.8
M205 X15 Y15
;TYPE:WALL-OUTER
G1 F1500 X104.2 Y90.2 E10.5869
G1 X110.8 Y90.2 E10.70763
G1 X110.8 Y96.8 E10.82837
G1 X104.2 Y96.8 E10.9491
M205 X30 Y30
G0 F3600 X104.2 Y96.6
G0 X104.64 Y96.36
G0 X104.7 Y96.36
G0 X105.39 Y95.61
M205 X15 Y15
;TYPE:SKIN
G1 F1500 X105.39 Y91.39 E11.0263
G1 X109.61 Y91.39 E11.10349
G1 X109.61 Y95.61 E11.18069
G1 X105.39 Y95.61 E11.25789
M205 X30 Y30
G0 F3600 X106.177 Y95.429
M205 X15 Y15
G1 F1500 X105.569 Y94.821 E11.27362
M205 X30 Y30
G0 F3600 X105.569 Y94.255
M205 X15 Y15
G1 F1500 X106.743 Y95.429 E11.30399
M205 X30 Y30
G0 F3600 X107.309 Y95.429
M205 X15 Y15
G1 F1500 X105.569 Y93.69 E11.34899
M205 X30 Y30
G0 F3600 X105.569 Y93.124
M205 X15 Y15
G1 F1500 X107.874 Y95.429 E11.40862
M205 X30 Y30
G0 F3600 X108.44 Y95.429
M205 X15 Y15
G1 F1500 X105.569 Y92.558 E11.48289
M205 X30 Y30
G0 F3600 X105.569 Y91.993
M205 X15 Y15
G1 F1500 X109.006 Y95.429 E11.5718
M205 X30 Y30
G0 F3600 X109.429 Y95.286
M205 X15 Y15
G1 F1500 X105.712 Y91.57 E11.66794
M205 X30 Y30
G0 F3600 X106.278 Y91.57
M205 X15 Y15
G1 F1500 X109.429 Y94.721 E11.74946
M205 X30 Y30
G0 F3600 X109.429 Y94.155
M205 X15 Y15
G1 F1500 X106.843 Y91.57 E11.81635
M205 X30 Y30
G0 F3600 X107.409 Y91.57
M205 X15 Y15
G1 F1500 X109.429 Y93.589 E11.86859
M205 X30 Y30
G0 F3600 X109.429 Y93.024
M205 X15 Y15
G1 F1500 X107.975 Y91.57 E11.90621
M205 X30 Y30
G0 F3600 X108.54 Y91.57
M205 X15 Y15
G1 F1500 X109.429 Y92.458 E11.9292
M205 X30 Y30
G0 F3600 X109.429 Y91.892
M104 S195
M205 X15 Y15
G1 F1500 X109.106 Y91.57 E11.93754
M205 X30 Y30
G1 F1200 E8.43754
G1 F120 Z1.1
;MESH:NONMESH
G0 F3600 X109.106 Y91.57 Z1.1
G0 X111.9 Y94.029
;TIME_ELAPSED:35.978673
;LAYER:1
M140 S62
G0 F5400 X111.9 Y94.029 Z1.25
M205 X15 Y15
;TYPE:SUPPORT
G1 F120 Z0.25
G1 F1200 E11.93754
G1 F2250 X112.801 Y94.029 E11.96001
G1 X112.938 Y94.166 E11.96485
G1 X112.938 Y96.707 E12.02823
G1 X112.787 Y96.859 E12.03358
G1 X111.9 Y96.859 E12.0557
G1 X111.9 Y94.029 E12.1263
M205 X30 Y30
G0 F5400 X112.3 Y94.429
M205 X15 Y15
G1 F2250 X112.538 Y94.429 E12.13224
G1 X112.538 Y96.459 E12.18287
G1 X112.3 Y96.459 E12.18881
G1 X112.3 Y94.429 E12.23945
M205 X30 Y30
G1 F1200 E8.73945
G1 F120 Z1.25
G0 F5400 X110.8 Y97.9 Z1.25
M205 X15 Y15
G1 F120 Z0.25
G1 F1200 E12.23945
G1 F2250 X110.8 Y112.1 E12.59367
G1 X109.2 Y112.1 E12.63358
G1 X109.2 Y97.9 E12.9878
G1 X110.8 Y97.9 E13.02771
M205 X30 Y30
G0 F5400 X110.4 Y98.3
M205 X15 Y15
G1 F2250 X110.4 Y111.7 E13.36198
G1 X109.6 Y111.7 E13.38194
G1 X109.6 Y98.3 E13.7162
G1 X110.4 Y98.3 E13.73616
M205 X30 Y30
G1 F1200 E10.23616
G1 F120 Z1.25
G0 F5400 X111.9 Y113.086 Z1.25
M205 X15 Y15
G1 F120 Z0.25
G1 F1200 E13.73616
G1 F2250 X112.801 Y113.086 E13.75863
G1 X112.869 Y113.154 E13.76103
G1 X112.869 Y115.848 E13.82823
G1 X112.802 Y115.915 E13.8306
G1 X111.9 Y115.915 E13.8531
G1 X111.9 Y113.086 E13.92367
M205 X30 Y30
G0 F5400 X112.3 Y113.486
M205 X15 Y15
G1 F2250 X112.469 Y113.486 E13.92788
G1 X112.469 Y115.515 E13.9785
G1 X112.3 Y115.515 E13.98271
G1 X112.3 Y113.486 E14.03332
M205 X30 Y30
G1 F1200 E10.53332
G1 F120 Z1.25
;MESH:support TOF VL53L0X-A.STL
G0 F5400 X105 Y119 Z1.25
M205 X15 Y15
;TYPE:WALL-INNER
G1 F120 Z0.25
G1 F1200 E14.03332
G1 F2250 X105 Y114 E14.15805
G1 X110 Y114 E14.28278
G1 X110 Y119 E14.4075
G1 X105 Y119 E14.53223
M205 X30 Y30
G0 F5400 X104.6 Y119.4
M205 X15 Y15
G1 F2250 X104.6 Y113.6 E14.67691
G1 X110.4 Y113.6 E14.82159
G1 X110.4 Y119.4 E14.96627
G1 X104.6 Y119.4 E15.11095
M205 X30 Y30
G0 F5400 X104.2 Y119.8
M205 X15 Y15
;TYPE:WALL-OUTER
G1 F1500 X104.2 Y113.2 E15.27559
G1 X110.8 Y113.2 E15.44023
G1 X110.8 Y119.8 E15.60487
G1 X104.2 Y119.8 E15.7695
M205 X30 Y30
G0 F5400 X104.2 Y119.6
G0 X104.64 Y119.36
G0 X104.7 Y119.36
G0 X105.39 Y118.61
M205 X15 Y15
;TYPE:SKIN
G1 F1500 X105.39 Y114.39 E15.87477
G1 X109.61 Y114.39 E15.98004
G1 X109.61 Y118.61 E16.08531
G1 X105.39 Y118.61 E16.19058
M205 X30 Y30
G0 F5400 X105.57 Y115.046
M205 X15 Y15
G1 F1500 X106.048 Y114.568 E16.20744
M205 X30 Y30
G0 F5400 X106.614 Y114.568
M205 X15 Y15
G1 F1500 X105.57 Y115.612 E16.24427
M205 X30 Y30
G0 F5400 X105.57 Y116.178
M205 X15 Y15
G1 F1500 X107.179 Y114.568 E16.30105
M205 X30 Y30
