;FLAVOR:Marlin
;TIME:3204
;Filament used: 2.14026m
;Layer height: 0.15
;MINX:80.689
;MINY:96.464
;MINZ:0.26
;MAXX:136.147
;MAXY:115.915
;MAXZ:38.96
;Generated with Cura_SteamEngine 4.5.0
M140 S69
M105
M190 S69
M82 ;absolute extrusion mode
;Gcode by Cura
G90
M106 S255
G28 X Y
M109 R195
G28
M104 S195
G29
M107
G1 X100 Y10 F3000
G1 Z0.5
M109 S195
M82
G92 E0
G1 F200 E10
G92 E0
G1 Z3
G1 X110 Y10
G1 Z0.5
G92 E0
G1 F200 E10
G92 E0
G1 Z3
G1 F6000
G92 E0
G92 E0
G1 F3000 E-3.5
;LAYER_COUNT:259
;LAYER:0
M106 S255
G1 F120 Z1.26
G0 F3600 X82.083 Y97.235 Z1.26
;TYPE:SKIRT
G1 F120 Z0.26
G1 F3000 E0
G1 F1500 X82.53 Y96.937 E0.02439
G1 X83.015 Y96.709 E0.04872
G1 X83.529 Y96.556 E0.07307
G1 X84.197 Y96.474 E0.10362
G1 X131.894 Y96.464 E2.26907
G1 X132.592 Y96.474 E2.30076
G1 X133.126 Y96.522 E2.32511
G1 X133.647 Y96.648 E2.34944
G1 X134.144 Y96.851 E2.37381
G1 X134.605 Y97.125 E2.39816
G1 X135.02 Y97.464 E2.42249
G1 X135.38 Y97.862 E2.44685
G1 X135.677 Y98.308 E2.47118
G1 X135.905 Y98.794 E2.49555
G1 X136.057 Y99.308 E2.51989
G1 X136.14 Y100.016 E2.55225
G1 X136.147 Y100.518 E2.57504
G1 X136.127 Y105.951 E2.8217
G1 X136.114 Y106.706 E2.85599
G1 X136.065 Y107.24 E2.88033
G1 X135.938 Y107.761 E2.90468
G1 X135.734 Y108.257 E2.92903
G1 X135.459 Y108.717 E2.95336
G1 X135.118 Y109.132 E2.97774
G1 X134.543 Y109.658 E3.01312
G1 X133.082 Y110.867 E3.09922
G1 X131.691 Y112.071 E3.18274
G1 X130.428 Y113.186 E3.25923
G1 X129.961 Y113.587 E3.28717
G1 X129.456 Y114.046 E3.31816
G1 X128.382 Y115.003 E3.38347
G1 X127.956 Y115.329 E3.40782
G1 X127.486 Y115.589 E3.4322
G1 X126.983 Y115.775 E3.45655
G1 X126.459 Y115.885 E3.48086
G1 X125.923 Y115.915 E3.50523
G1 X125.364 Y115.862 E3.53073
G1 X124.264 Y115.669 E3.58143
G1 X123.699 Y115.561 E3.60754
G1 X121.009 Y115.129 E3.73124
G1 X118.312 Y114.774 E3.85474
G1 X115.59 Y114.492 E3.97898
G1 X112.861 Y114.288 E4.10322
G1 X110.141 Y114.163 E4.22684
G1 X107.442 Y114.114 E4.34939
G1 X104.677 Y114.143 E4.47493
G1 X101.984 Y114.247 E4.59728
G1 X99.258 Y114.429 E4.72132
G1 X96.539 Y114.689 E4.84533
G1 X93.83 Y115.025 E4.96926
G1 X91.127 Y115.438 E5.0934
G1 X89.201 Y115.788 E5.18227
G1 X88.199 Y115.914 E5.22812
G1 X87.664 Y115.882 E5.25245
G1 X87.14 Y115.77 E5.27678
G1 X86.637 Y115.583 E5.30114
G1 X86.168 Y115.322 E5.32551
G1 X85.656 Y114.914 E5.35523
G1 X85.157 Y114.436 E5.3866
G1 X83.945 Y113.237 E5.464
G1 X83.424 Y112.705 E5.49781
G1 X83.079 Y112.295 E5.52214
G1 X82.739 Y111.719 E5.5525
G1 X82.481 Y111.172 E5.57996
G1 X81.058 Y108.23 E5.72833
G1 X80.861 Y107.731 E5.75269
G1 X80.741 Y107.208 E5.77705
G1 X80.691 Y106.425 E5.81267
G1 X80.689 Y100.689 E6.07309
G1 X80.698 Y100.024 E6.10328
G1 X80.746 Y99.49 E6.12762
G1 X80.872 Y98.969 E6.15196
G1 X81.074 Y98.472 E6.17631
G1 X81.347 Y98.011 E6.20064
G1 X81.686 Y97.595 E6.225
G1 X82.083 Y97.235 E6.24933
G0 F3600 X82.469 Y97.447
G1 F1500 X82.906 Y97.192 E6.2723
G1 X83.377 Y97.008 E6.29526
G1 X83.871 Y96.902 E6.3182
G1 X84.529 Y96.865 E6.34812
G1 X131.888 Y96.864 E8.49822
G1 X132.586 Y96.874 E8.52991
G1 X133.089 Y96.921 E8.55285
G1 X133.579 Y97.047 E8.57582
G1 X134.043 Y97.249 E8.59879
G1 X134.469 Y97.521 E8.62174
G1 X134.847 Y97.856 E8.64467
G1 X135.167 Y98.247 E8.66761
G1 X135.422 Y98.684 E8.69058
G1 X135.605 Y99.155 E8.71352
G1 X135.712 Y99.649 E8.73647
G1 X135.747 Y100.453 E8.773
G1 X135.727 Y105.95 E9.02257
G1 X135.715 Y106.699 E9.05658
G1 X135.666 Y107.203 E9.07957
G1 X135.539 Y107.692 E9.10251
G1 X135.336 Y108.155 E9.12546
G1 X135.063 Y108.581 E9.14843
G1 X134.637 Y109.04 E9.17686
G1 X134.194 Y109.43 E9.20365
G1 X132.846 Y110.543 E9.28302
G1 X131.402 Y111.792 E9.3697
G1 X130.163 Y112.886 E9.44474
G1 X129.695 Y113.288 E9.47275
G1 X129.187 Y113.749 E9.50389
G1 X128.115 Y114.705 E9.5691
G1 X127.713 Y115.01 E9.59201
G1 X127.267 Y115.249 E9.61498
G1 X126.789 Y115.414 E9.63794
G1 X126.291 Y115.501 E9.66089
G1 X125.785 Y115.51 E9.68387
G1 X124.333 Y115.275 E9.75065
G1 X123.766 Y115.167 E9.77685
G1 X121.093 Y114.737 E9.89977
G1 X118.333 Y114.374 E10.02615
G1 X115.624 Y114.094 E10.14979
G1 X112.91 Y113.891 E10.27335
G1 X110.13 Y113.763 E10.3997
G1 X107.445 Y113.714 E10.52162
G1 X104.692 Y113.742 E10.64661
G1 X101.943 Y113.849 E10.77151
G1 X99.194 Y114.033 E10.8966
G1 X96.523 Y114.288 E11.01841
G1 X93.752 Y114.631 E11.14518
G1 X91.072 Y115.041 E11.26826
G1 X89.13 Y115.394 E11.35787
G1 X88.165 Y115.514 E11.40202
G1 X87.66 Y115.477 E11.42501
G1 X87.168 Y115.361 E11.44796
G1 X86.701 Y115.169 E11.47089
G1 X86.269 Y114.906 E11.49385
G1 X85.433 Y114.147 E11.54511
G1 X84.227 Y112.952 E11.62219
G1 X83.71 Y112.425 E11.65571
G1 X83.386 Y112.037 E11.67866
G1 X83.101 Y111.549 E11.70431
G1 X82.841 Y110.997 E11.73201
G1 X81.418 Y108.055 E11.88038
G1 X81.235 Y107.584 E11.90333
G1 X81.128 Y107.09 E11.92627
G1 X81.09 Y106.414 E11.95701
G1 X81.089 Y100.695 E12.21666
G1 X81.098 Y100.03 E12.24685
G1 X81.145 Y99.526 E12.26983
G1 X81.271 Y99.037 E12.29276
G1 X81.472 Y98.573 E12.31571
G1 X81.743 Y98.146 E12.33867
G1 X82.078 Y97.768 E12.3616
G1 X82.469 Y97.447 E12.38457
G1 F3000 E8.88457
G1 F120 Z1.26
G0 F3600 X87.454 Y107.564 Z1.26
;TYPE:SUPPORT
G1 F120 Z0.26
G1 F3000 E12.38457
G1 F1500 X91.085 Y107.564 E12.54942
G1 X91.08 Y109.457 E12.63536
G1 X90.934 Y109.464 E12.642
G1 X90.287 Y109.464 E12.67137
G1 X88.688 Y110.528 E12.75857
G1 X88.074 Y111.976 E12.82997
G1 X86.182 Y110.101 E12.95091
G1 X86.182 Y108.691 E13.01492
G1 X87.055 Y108.691 E13.05456
G1 X87.454 Y108.292 E13.08017
G1 X87.454 Y107.564 E13.11322
G1 F3000 E9.61322
G1 F120 Z1.26
G0 F3600 X90.661 Y107.724 Z1.26
G1 F120 Z0.26
G1 F3000 E13.11322
G1 F1500 X90.661 Y109.304 E13.18496
G1 F3000 E9.68496
G1 F120 Z1.26
G0 F3600 X124.028 Y108.691 Z1.26
G1 F120 Z0.26
G1 F3000 E13.18496
G1 F1500 X124.898 Y108.691 E13.22445
G1 X125.297 Y108.292 E13.25007
G1 X125.297 Y107.564 E13.28312
G1 X128.927 Y107.564 E13.44793
G1 X128.925 Y109.448 E13.53346
G1 X128.916 Y109.458 E13.53407
G1 X128.772 Y109.464 E13.54061
G1 X128.133 Y109.464 E13.56962
G1 X126.534 Y110.528 E13.65682
G1 X125.92 Y111.976 E13.72823
G1 X124.028 Y110.101 E13.84916
G1 X124.028 Y108.691 E13.91317
G1 F3000 E10.41317
G1 F120 Z1.26
G0 F3600 X127.992 Y109.366 Z1.26
G1 F120 Z0.26
G1 F3000 E13.91317
G1 F1500 X127.992 Y107.724 E13.98772
G1 F3000 E10.48772
G1 F120 Z1.26
;MESH:support PBC_SWITCH I2C-A.STL
G0 F3600 X84.889 Y106.064 Z1.26
;TYPE:WALL-INNER
G1 F120 Z0.26
G1 F3000 E13.98772
G1 F1500 X84.889 Y100.664 E14.23288
G1 X131.949 Y100.664 E16.36941
G1 X131.949 Y106.064 E16.61457
G1 X84.889 Y106.064 E18.7511
G0 F3600 X84.489 Y106.464
;TYPE:WALL-OUTER
G1 F1500 X84.489 Y100.264 E19.03258
G1 X132.349 Y100.264 E21.20543
G1 X132.349 Y106.464 E21.48691
G1 X84.489 Y106.464 E23.65975
G0 F3600 X84.489 Y106.264
G0 X85.279 Y105.674
;TYPE:SKIN
G1 F1500 X85.279 Y101.054 E23.8695
G1 X131.559 Y101.054 E25.97062
G1 X131.559 Y105.674 E26.18037
G1 X85.279 Y105.674 E28.28148
G0 F3600 X85.694 Y105.493
G1 F1500 X85.458 Y105.257 E28.29664
G0 F3600 X85.458 Y104.692
G1 F1500 X86.259 Y105.493 E28.34806
G0 F3600 X86.825 Y105.493
G1 F1500 X85.458 Y104.126 E28.43583
G0 F3600 X85.458 Y103.56
G1 F1500 X87.391 Y105.493 E28.55994
G0 F3600 X87.957 Y105.493
G1 F1500 X85.458 Y102.995 E28.72036
G0 F3600 X85.458 Y102.429
G1 F1500 X88.522 Y105.493 E28.91708
G0 F3600 X89.088 Y105.493
G1 F1500 X85.458 Y101.863 E29.15015
G0 F3600 X85.458 Y101.297
G1 F1500 X89.654 Y105.493 E29.41956
G0 F3600 X90.219 Y105.493
G1 F1500 X85.96 Y101.233 E29.69304
G0 F3600 X86.525 Y101.233
G1 F1500 X90.785 Y105.493 E29.96655
G0 F3600 X91.351 Y105.493
G1 F1500 X87.091 Y101.233 E30.24007
G0 F3600 X87.657 Y101.233
G1 F1500 X91.916 Y105.493 E30.51355
G0 F3600 X92.482 Y105.493
G1 F1500 X88.222 Y101.233 E30.78707
G0 F3600 X88.788 Y101.233
G1 F1500 X93.048 Y105.493 E31.06058
G0 F3600 X93.613 Y105.493
G1 F1500 X89.354 Y101.233 E31.33407
G0 F3600 X89.919 Y101.233
G1 F1500 X94.179 Y105.493 E31.60758
G0 F3600 X94.745 Y105.493
G1 F1500 X90.485 Y101.233 E31.8811
G0 F3600 X91.051 Y101.233
G1 F1500 X95.31 Y105.493 E32.15458
G0 F3600 X95.876 Y105.493
G1 F1500 X91.616 Y101.233 E32.42809
G0 F3600 X92.182 Y101.233
G1 F1500 X96.442 Y105.493 E32.70161
G0 F3600 X97.007 Y105.493
G1 F1500 X92.748 Y101.233 E32.97509
G0 F3600 X93.314 Y101.233
G1 F1500 X97.573 Y105.493 E33.24857
G0 F3600 X98.139 Y105.493
G1 F1500 X93.879 Y101.233 E33.52209
G0 F3600 X94.445 Y101.233
G1 F1500 X98.705 Y105.493 E33.79561
G0 F3600 X99.27 Y105.493
G1 F1500 X95.011 Y101.233 E34.06909
G0 F3600 X95.576 Y101.233
G1 F1500 X99.836 Y105.493 E34.3426
G0 F3600 X100.402 Y105.493
G1 F1500 X96.142 Y101.233 E34.61612
G0 F3600 X96.708 Y101.233
G1 F1500 X100.967 Y105.493 E34.8896
G0 F3600 X101.533 Y105.493
G1 F1500 X97.273 Y101.233 E35.16312
G0 F3600 X97.839 Y101.233
G1 F1500 X102.099 Y105.493 E35.43663
G0 F3600 X102.664 Y105.493
G1 F1500 X98.405 Y101.233 E35.71011
G0 F3600 X98.97 Y101.233
G1 F1500 X103.23 Y105.493 E35.98363
G0 F3600 X103.796 Y105.493
G1 F1500 X99.536 Y101.233 E36.25714
G0 F3600 X100.102 Y101.233
G1 F1500 X104.361 Y105.493 E36.53063
G0 F3600 X104.927 Y105.493
G1 F1500 X100.667 Y101.233 E36.80414
G0 F3600 X101.233 Y101.233
G1 F1500 X105.493 Y105.493 E37.07766
G0 F3600 X106.058 Y105.493
G1 F1500 X101.799 Y101.233 E37.35114
G0 F3600 X102.365 Y101.233
G1 F1500 X106.624 Y105.493 E37.62462
G0 F3600 X107.19 Y105.493
G1 F1500 X102.93 Y101.233 E37.89814
G0 F3600 X103.496 Y101.233
G1 F1500 X107.756 Y105.493 E38.17165
G0 F3600 X108.321 Y105.493
G1 F1500 X104.062 Y101.233 E38.44514
G0 F3600 X104.627 Y101.233
G1 F1500 X108.887 Y105.493 E38.71865
G0 F3600 X109.453 Y105.493
G1 F1500 X105.193 Y101.233 E38.99217
G0 F3600 X105.759 Y101.233
G1 F1500 X110.018 Y105.493 E39.26565
G0 F3600 X110.584 Y105.493
G1 F1500 X106.324 Y101.233 E39.53916
G0 F3600 X106.89 Y101.233
G1 F1500 X111.15 Y105.493 E39.81268
G0 F3600 X111.715 Y105.493
G1 F1500 X107.456 Y101.233 E40.08616
G0 F3600 X108.021 Y101.233
G1 F1500 X112.281 Y105.493 E40.35968
G0 F3600 X112.847 Y105.493
G1 F1500 X108.588 Y101.234 E40.63313
G0 F3600 X109.153 Y101.234
G1 F1500 X113.412 Y105.493 E40.90658
G0 F3600 X113.978 Y105.493
G1 F1500 X109.719 Y101.234 E41.18003
G0 F3600 X110.285 Y101.234
G1 F1500 X114.544 Y105.493 E41.45348
G0 F3600 X115.109 Y105.493
G1 F1500 X110.851 Y101.234 E41.7269
G0 F3600 X111.416 Y101.234
G1 F1500 X115.675 Y105.493 E42.00035
G0 F3600 X116.241 Y105.493
G1 F1500 X111.982 Y101.234 E42.2738
G0 F3600 X112.548 Y101.234
G1 F1500 X116.806 Y105.493 E42.54722
G0 F3600 X117.372 Y105.493
G1 F1500 X113.113 Y101.234 E42.82067
G0 F3600 X113.679 Y101.234
G1 F1500 X117.938 Y105.493 E43.09412
G0 F3600 X118.504 Y105.493
G1 F1500 X114.245 Y101.234 E43.36757
G0 F3600 X114.81 Y101.234
G1 F1500 X119.069 Y105.493 E43.64102
G0 F3600 X119.635 Y105.493
G1 F1500 X115.376 Y101.234 E43.91447
G0 F3600 X115.942 Y101.234
G1 F1500 X120.201 Y105.493 E44.18793
G0 F3600 X120.766 Y105.493
G1 F1500 X116.507 Y101.234 E44.46138
G0 F3600 X117.073 Y101.234
G1 F1500 X121.332 Y105.493 E44.73483
G0 F3600 X121.898 Y105.493
G1 F1500 X117.639 Y101.234 E45.00828
G0 F3600 X118.204 Y101.234
G1 F1500 X122.463 Y105.493 E45.28173
G0 F3600 X123.029 Y105.493
G1 F1500 X118.77 Y101.234 E45.55518
G0 F3600 X119.336 Y101.234
G1 F1500 X123.595 Y105.493 E45.82863
G0 F3600 X124.16 Y105.493
G1 F1500 X119.901 Y101.234 E46.10208
G0 F3600 X120.467 Y101.234
G1 F1500 X124.726 Y105.493 E46.37553
G0 F3600 X125.292 Y105.493
G1 F1500 X121.033 Y101.234 E46.64898
G0 F3600 X121.599 Y101.234
G1 F1500 X125.857 Y105.493 E46.9224
G0 F3600 X126.423 Y105.493
G1 F1500 X122.164 Y101.234 E47.19585
G0 F3600 X122.73 Y101.234
G1 F1500 X126.989 Y105.493 E47.4693
G0 F3600 X127.554 Y105.493
G1 F1500 X123.296 Y101.234 E47.74272
G0 F3600 X123.861 Y101.234
G1 F1500 X128.12 Y105.493 E48.01617
G0 F3600 X128.686 Y105.493
G1 F1500 X124.427 Y101.234 E48.28962
G0 F3600 X124.993 Y101.234
G1 F1500 X129.252 Y105.493 E48.56308
G0 F3600 X129.817 Y105.493
G1 F1500 X125.558 Y101.234 E48.83653
G0 F3600 X126.124 Y101.234
G1 F1500 X130.383 Y105.493 E49.10998
G0 F3600 X130.949 Y105.493
G1 F1500 X126.69 Y101.234 E49.38343
G0 F3600 X127.255 Y101.234
G1 F1500 X131.378 Y105.356 E49.64811
G0 F3600 X131.378 Y104.791
G1 F1500 X127.821 Y101.234 E49.87649
G0 F3600 X128.387 Y101.234
G1 F1500 X131.378 Y104.225 E50.06853
G0 F3600 X131.378 Y103.659
G1 F1500 X128.952 Y101.234 E50.22426
G0 F3600 X129.518 Y101.234
G1 F1500 X131.378 Y103.094 E50.34368
G0 F3600 X131.378 Y102.528
G1 F1500 X130.084 Y101.234 E50.42677
G0 F3600 X130.649 Y101.234
G1 F1500 X131.378 Y101.962 E50.47354
G0 F3600 X131.378 Y101.396
M104 S195
G1 F1500 X131.215 Y101.234 E50.48397
G1 F3000 E46.98397
G1 F120 Z1.26
;MESH:NONMESH
G0 F3600 X131.215 Y101.234 Z1.26
G0 X87.454 Y107.564
;TIME_ELAPSED:55.747235
;LAYER:1
M140 S69
G0 F5400 X87.454 Y107.564 Z1.41
;TYPE:SUPPORT
G1 F120 Z0.41
G1 F3000 E50.48397
G1 F2250 X91.085 Y107.564 E50.57455
G1 X91.08 Y109.457 E50.62177
G1 X90.934 Y109.464 E50.62542
G1 X90.287 Y109.464 E50.64156
G1 X88.688 Y110.528 E50.68947
G1 X88.074 Y111.976 E50.7287
G1 X86.182 Y110.101 E50.79515
G1 X86.182 Y108.691 E50.83032
G1 X87.055 Y108.691 E50.8521
G1 X87.454 Y108.292 E50.86617
G1 X87.454 Y107.564 E50.88433
G1 F3000 E47.38433
G1 F120 Z1.41
G0 F5400 X90.661 Y107.724 Z1.41
G1 F120 Z0.41
G1 F3000 E50.88433
G1 F2250 X90.661 Y109.304 E50.92374
G1 F3000 E47.42374
G1 F120 Z1.41
G0 F5400 X124.028 Y108.691 Z1.41
G1 F120 Z0.41
G1 F3000 E50.92374
G1 F2250 X124.898 Y108.691 E50.94545
G1 X125.297 Y108.292 E50.95952
G1 X125.297 Y107.564 E50.97768
G1 X128.927 Y107.564 E51.06823
G1 X128.925 Y109.448 E51.11523
G1 X128.916 Y109.458 E51.11557
G1 X128.772 Y109.464 E51.11916
G1 X128.133 Y109.464 E51.1351
G1 X126.534 Y110.528 E51.18301
G1 X125.92 Y111.976 E51.22225
G1 X124.028 Y110.101 E51.28869
G1 X124.028 Y108.691 E51.32386
G1 F3000 E47.82386
G1 F120 Z1.41
G0 F5400 X127.992 Y109.366 Z1.41
G1 F120 Z0.41
G1 F3000 E51.32386
G1 F2250 X127.992 Y107.724 E51.36482
G1 F3000 E47.86482
G1 F120 Z1.41
;MESH:support PBC_SWITCH I2C-A.STL
G0 F5400 X85.289 Y105.664 Z1.41
;TYPE:WALL-INNER
G1 F120 Z0.41
G1 F3000 E51.36482
G1 F2250 X85.289 Y101.064 E51.47957
G1 X131.549 Y101.064 E52.63353
G1 X131.549 Y105.664 E52.74828
G1 X85.289 Y105.664 E53.90224
G0 F5400 X84.889 Y106.064
G1 F2250 X84.889 Y100.664 E54.03694
G1 X131.949 Y100.664 E55.21086
G1 X131.949 Y106.064 E55.34556
G1 X84.889 Y106.064 E56.51948
G0 F5400 X84.489 Y106.464
;TYPE:WALL-OUTER
G1 F1500 X84.489 Y100.264 E56.67414
G1 X132.349 Y100.264 E57.86801
G1 X132.349 Y106.464 E58.02267
G1 X84.489 Y106.464 E59.21654
G0 F5400 X84.489 Y106.264
G0 X84.959 Y105.994
G0 X85.679 Y105.274
;TYPE:SKIN
G1 F1500 X85.679 Y101.454 E59.31183
G1 X131.159 Y101.454 E60.44634
G1 X131.159 Y105.274 E60.54163
G1 X85.679 Y105.274 E61.67613
G0 F5400 X85.859 Y101.948
G1 F1500 X86.174 Y101.633 E61.68724
G0 F5400 X86.74 Y101.633
G1 F1500 X85.859 Y102.514 E61.71832
G0 F5400 X85.859 Y103.079
G1 F1500 X87.305 Y101.633 E61.76933
G0 F5400 X87.871 Y101.633
G1 F1500 X85.859 Y103.645 E61.84031
G0 F5400 X85.859 Y104.211
G1 F1500 X88.437 Y101.633 E61.93126
G0 F5400 X89.002 Y101.633
G1 F1500 X85.859 Y104.776 E62.04214
G0 F5400 X86.107 Y105.093
G1 F1500 X89.568 Y101.633 E62.16422
G0 F5400 X90.134 Y101.633
G1 F1500 X86.673 Y105.093 E62.28629
G0 F5400 X87.239 Y105.093
G1 F1500 X90.699 Y101.633 E62.40836
G0 F5400 X91.265 Y101.633
G1 F1500 X87.804 Y105.093 E62.53043
G0 F5400 X88.37 Y105.093
G1 F1500 X91.831 Y101.633 E62.65251
G0 F5400 X92.396 Y101.633
G1 F1500 X88.936 Y105.093 E62.77457
G0 F5400 X89.502 Y105.093
G1 F1500 X92.962 Y101.633 E62.89663
G0 F5400 X93.528 Y101.633
G1 F1500 X90.067 Y105.093 E63.01871
G0 F5400 X90.633 Y105.093
