;FLAVOR:Marlin
;TIME:3299
;Filament used: 1.75523m
;Layer height: 0.15
;MINX:80.845
;MINY:22.704
;MINZ:0.26
;MAXX:136.155
;MAXY:36.494
;MAXZ:38.96
;Generated with Cura_SteamEngine 4.6.1
M140 S60
M105
M190 S60
M82 ;absolute extrusion mode
;Gcode by Cura
G90
M106 S255
G28 X Y
G1 X50
M109 R90
G28
M104 S205
G29
M107
G1 X100 Y20 F3000
G1 Z0.5
M109 S205
M82
G92 E0
G1 F200 E10
G92 E0
G1 Z3
G1 F6000

G92 E0

;Start T0
G92 E0
G1 E-3.5 F10000
G92 E0G1 E1.5 F3000
G1 E-60 F10000
G92 E0

G92 E0
G1 F3000 E-3.5
;LAYER_COUNT:259
;LAYER:0
M107
G0 F1285.7 X133.168 Y23.111 Z0.26
;TYPE:SKIRT
G1 F3000 E0
G1 F900 X133.655 Y23.237 E0.01925
G1 X134.117 Y23.439 E0.03855
G1 X134.541 Y23.71 E0.05781
G1 X134.917 Y24.046 E0.0771
G1 X135.235 Y24.436 E0.09636
G1 X135.487 Y24.872 E0.11563
G1 X135.667 Y25.342 E0.13489
G1 X135.77 Y25.835 E0.15417
G1 X135.804 Y26.47 E0.1785
G1 X135.805 Y32.132 E0.39519
G1 X135.796 Y32.859 E0.42301
G1 X135.75 Y33.361 E0.4423
G1 X135.625 Y33.849 E0.46158
G1 X135.424 Y34.311 E0.48086
G1 X135.153 Y34.735 E0.50012
G1 X134.819 Y35.111 E0.51937
G1 X134.429 Y35.43 E0.53865
G1 X133.993 Y35.683 E0.55794
G1 X133.523 Y35.864 E0.57721
G1 X133.031 Y35.968 E0.59646
G1 X132.389 Y36.003 E0.62106
G1 X85.036 Y36.004 E2.43324
G1 X84.338 Y35.995 E2.45995
G1 X83.837 Y35.948 E2.47921
G1 X83.349 Y35.823 E2.49849
G1 X82.887 Y35.623 E2.51776
G1 X82.463 Y35.351 E2.53703
G1 X82.086 Y35.017 E2.55631
G1 X81.768 Y34.626 E2.5756
G1 X81.515 Y34.191 E2.59485
G1 X81.334 Y33.721 E2.61413
G1 X81.23 Y33.228 E2.63341
G1 X81.196 Y32.573 E2.65851
G1 X81.195 Y26.86 E2.87714
G1 X81.204 Y26.195 E2.9026
G1 X81.251 Y25.694 E2.92185
G1 X81.376 Y25.206 E2.94113
G1 X81.577 Y24.744 E2.96041
G1 X81.849 Y24.32 E2.97969
G1 X82.184 Y23.944 E2.99896
G1 X82.574 Y23.626 E3.01822
G1 X83.01 Y23.373 E3.03751
G1 X83.48 Y23.193 E3.05677
G1 X83.973 Y23.089 E3.07606
G1 X84.611 Y23.055 E3.10051
G1 X131.968 Y23.054 E4.91284
G1 X132.666 Y23.064 E4.93955
G1 X133.168 Y23.111 E4.95885
G0 F1285.7 X133.2 Y22.762
G1 F900 X133.715 Y22.888 E4.97914
G1 X134.206 Y23.09 E4.99945
G1 X134.661 Y23.364 E5.01978
G1 X135.069 Y23.703 E5.04008
G1 X135.422 Y24.099 E5.06038
G1 X135.712 Y24.544 E5.08071
G1 X135.931 Y25.027 E5.10101
G1 X136.076 Y25.538 E5.12133
G1 X136.145 Y26.14 E5.14452
G1 X136.155 Y32.137 E5.37402
G1 X136.146 Y32.864 E5.40185
G1 X136.099 Y33.392 E5.42213
G1 X135.974 Y33.908 E5.44245
G1 X135.773 Y34.399 E5.46276
G1 X135.5 Y34.854 E5.48306
G1 X135.162 Y35.263 E5.50337
G1 X134.766 Y35.617 E5.5237
G1 X134.322 Y35.907 E5.54399
G1 X133.839 Y36.128 E5.56432
G1 X133.329 Y36.273 E5.58461
G1 X132.72 Y36.344 E5.60807
G1 X85.032 Y36.354 E7.43307
G1 X84.334 Y36.345 E7.45978
G1 X83.805 Y36.298 E7.48011
G1 X83.289 Y36.172 E7.50044
G1 X82.798 Y35.971 E7.52074
G1 X82.343 Y35.698 E7.54105
G1 X81.934 Y35.36 E7.56135
G1 X81.581 Y34.964 E7.58165
G1 X81.291 Y34.52 E7.60195
G1 X81.071 Y34.037 E7.62226
G1 X80.925 Y33.526 E7.6426
G1 X80.855 Y32.915 E7.66613
G1 X80.845 Y26.855 E7.89805
G1 X80.854 Y26.19 E7.9235
G1 X80.901 Y25.662 E7.94379
G1 X81.027 Y25.146 E7.96411
G1 X81.229 Y24.655 E7.98443
G1 X81.502 Y24.201 E8.0047
G1 X81.841 Y23.792 E8.02503
G1 X82.237 Y23.439 E8.04534
G1 X82.681 Y23.149 E8.06563
G1 X83.164 Y22.929 E8.08594
G1 X83.675 Y22.784 E8.10627
G1 X84.28 Y22.714 E8.12958
G1 X131.973 Y22.704 E9.95477
G1 X132.671 Y22.714 E9.98148
G1 X133.2 Y22.762 E10.00181
G1 F3000 E6.50181
;MESH:support PBC_SWITCH I2C-A.STL
G0 F1285.7 X132.091 Y25.564
G0 X132.091 Y26.768
G0 X84.965 Y32.234
G0 X84.895 Y32.304
;TYPE:WALL-INNER
G1 F3000 E10.00181
G1 F900 X84.895 Y26.754 E10.2142
G1 X132.105 Y26.754 E12.02091
G1 X132.105 Y32.304 E12.2333
G1 X84.895 Y32.304 E14.04001
G0 F1285.7 X84.57 Y32.629
;TYPE:WALL-OUTER
G1 F900 X84.57 Y26.429 E14.27728
G1 X132.43 Y26.429 E16.10886
G1 X132.43 Y32.629 E16.34613
G1 X84.57 Y32.629 E18.17771
G0 F1285.7 X84.57 Y32.429
G0 X85.235 Y31.964
;TYPE:SKIN
G1 F900 X85.235 Y27.094 E18.36408
G1 X131.765 Y27.094 E20.14476
G1 X131.765 Y31.964 E20.33113
G1 X85.235 Y31.964 E22.11182
G0 F1285.7 X85.759 Y31.807
G1 F900 X85.39 Y31.438 E22.13179
G0 F1285.7 X85.39 Y30.943
G1 F900 X86.254 Y31.807 E22.17855
G0 F1285.7 X86.749 Y31.807
G1 F900 X85.39 Y30.448 E22.2521
G0 F1285.7 X85.39 Y29.953
G1 F900 X87.244 Y31.807 E22.35244
G0 F1285.7 X87.739 Y31.807
G1 F900 X85.39 Y29.458 E22.47957
G0 F1285.7 X85.39 Y28.963
G1 F900 X88.234 Y31.807 E22.63349
G0 F1285.7 X88.729 Y31.807
G1 F900 X85.39 Y28.468 E22.8142
G0 F1285.7 X85.39 Y27.973
G1 F900 X89.224 Y31.807 E23.0217
G0 F1285.7 X89.719 Y31.807
G1 F900 X85.39 Y27.478 E23.25599
G0 F1285.7 X85.658 Y27.251
G1 F900 X90.214 Y31.807 E23.50257
G0 F1285.7 X90.709 Y31.807
G1 F900 X86.153 Y27.251 E23.74915
G0 F1285.7 X86.648 Y27.251
G1 F900 X91.204 Y31.807 E23.99572
G0 F1285.7 X91.699 Y31.807
G1 F900 X87.143 Y27.251 E24.2423
G0 F1285.7 X87.638 Y27.251
G1 F900 X92.193 Y31.807 E24.48885
G0 F1285.7 X92.688 Y31.807
G1 F900 X88.133 Y27.251 E24.7354
G0 F1285.7 X88.628 Y27.251
G1 F900 X93.183 Y31.807 E24.98195
G0 F1285.7 X93.678 Y31.807
G1 F900 X89.123 Y27.251 E25.2285
G0 F1285.7 X89.618 Y27.251
G1 F900 X94.173 Y31.807 E25.47505
G0 F1285.7 X94.668 Y31.807
G1 F900 X90.112 Y27.251 E25.72162
G0 F1285.7 X90.607 Y27.251
G1 F900 X95.163 Y31.807 E25.9682
G0 F1285.7 X95.658 Y31.807
G1 F900 X91.102 Y27.251 E26.21478
G0 F1285.7 X91.597 Y27.251
G1 F900 X96.153 Y31.807 E26.46135
G0 F1285.7 X96.648 Y31.807
G1 F900 X92.092 Y27.251 E26.70793
G0 F1285.7 X92.587 Y27.251
G1 F900 X97.143 Y31.807 E26.95451
G0 F1285.7 X97.638 Y31.807
G1 F900 X93.082 Y27.251 E27.20108
G0 F1285.7 X93.577 Y27.251
G1 F900 X98.133 Y31.807 E27.44766
G0 F1285.7 X98.628 Y31.807
G1 F900 X94.072 Y27.251 E27.69424
G0 F1285.7 X94.567 Y27.251
G1 F900 X99.123 Y31.807 E27.94081
G0 F1285.7 X99.618 Y31.807
G1 F900 X95.062 Y27.251 E28.18739
G0 F1285.7 X95.557 Y27.251
G1 F900 X100.113 Y31.807 E28.43396
G0 F1285.7 X100.608 Y31.807
G1 F900 X96.052 Y27.251 E28.68054
G0 F1285.7 X96.547 Y27.251
G1 F900 X101.103 Y31.807 E28.92712
G0 F1285.7 X101.598 Y31.807
G1 F900 X97.042 Y27.251 E29.17369
G0 F1285.7 X97.537 Y27.251
G1 F900 X102.093 Y31.807 E29.42027
G0 F1285.7 X102.588 Y31.807
G1 F900 X98.032 Y27.251 E29.66685
G0 F1285.7 X98.527 Y27.251
G1 F900 X103.083 Y31.807 E29.91342
G0 F1285.7 X103.578 Y31.807
G1 F900 X99.022 Y27.251 E30.16
G0 F1285.7 X99.517 Y27.251
G1 F900 X104.073 Y31.807 E30.40658
G0 F1285.7 X104.568 Y31.807
G1 F900 X100.012 Y27.251 E30.65315
G0 F1285.7 X100.507 Y27.251
G1 F900 X105.063 Y31.807 E30.89973
G0 F1285.7 X105.558 Y31.807
G1 F900 X101.002 Y27.251 E31.14631
G0 F1285.7 X101.497 Y27.251
G1 F900 X106.053 Y31.807 E31.39288
G0 F1285.7 X106.548 Y31.807
G1 F900 X101.992 Y27.251 E31.63946
G0 F1285.7 X102.487 Y27.251
G1 F900 X107.043 Y31.807 E31.88604
G0 F1285.7 X107.538 Y31.807
G1 F900 X102.982 Y27.251 E32.13261
G0 F1285.7 X103.477 Y27.251
G1 F900 X108.033 Y31.807 E32.37919
G0 F1285.7 X108.528 Y31.807
G1 F900 X103.972 Y27.251 E32.62577
G0 F1285.7 X104.467 Y27.251
G1 F900 X109.023 Y31.807 E32.87234
G0 F1285.7 X109.518 Y31.807
G1 F900 X104.962 Y27.251 E33.11892
G0 F1285.7 X105.457 Y27.251
G1 F900 X110.013 Y31.807 E33.3655
G0 F1285.7 X110.508 Y31.807
G1 F900 X105.952 Y27.251 E33.61207
G0 F1285.7 X106.447 Y27.251
G1 F900 X111.003 Y31.807 E33.85865
G0 F1285.7 X111.498 Y31.807
G1 F900 X106.942 Y27.251 E34.10522
G0 F1285.7 X107.437 Y27.251
G1 F900 X111.992 Y31.807 E34.35177
G0 F1285.7 X112.487 Y31.807
G1 F900 X107.932 Y27.251 E34.59832
G0 F1285.7 X108.427 Y27.251
G1 F900 X112.982 Y31.807 E34.84487
G0 F1285.7 X113.477 Y31.807
G1 F900 X108.922 Y27.251 E35.09142
G0 F1285.7 X109.416 Y27.251
G1 F900 X113.972 Y31.807 E35.338
G0 F1285.7 X114.467 Y31.807
G1 F900 X109.911 Y27.251 E35.58458
G0 F1285.7 X110.406 Y27.251
G1 F900 X114.962 Y31.807 E35.83115
G0 F1285.7 X115.457 Y31.807
G1 F900 X110.901 Y27.251 E36.07773
G0 F1285.7 X111.396 Y27.251
G1 F900 X115.952 Y31.807 E36.32431
G0 F1285.7 X116.447 Y31.807
G1 F900 X111.891 Y27.251 E36.57088
G0 F1285.7 X112.386 Y27.251
G1 F900 X116.942 Y31.807 E36.81746
G0 F1285.7 X117.437 Y31.807
G1 F900 X112.881 Y27.251 E37.06403
G0 F1285.7 X113.376 Y27.251
G1 F900 X117.932 Y31.807 E37.31061
G0 F1285.7 X118.427 Y31.807
G1 F900 X113.871 Y27.251 E37.55719
G0 F1285.7 X114.366 Y27.251
G1 F900 X118.922 Y31.807 E37.80376
G0 F1285.7 X119.417 Y31.807
G1 F900 X114.861 Y27.251 E38.05034
G0 F1285.7 X115.356 Y27.251
G1 F900 X119.912 Y31.807 E38.29692
G0 F1285.7 X120.407 Y31.807
G1 F900 X115.851 Y27.251 E38.54349
G0 F1285.7 X116.346 Y27.251
G1 F900 X120.902 Y31.807 E38.79007
G0 F1285.7 X121.397 Y31.807
G1 F900 X116.841 Y27.251 E39.03665
G0 F1285.7 X117.336 Y27.251
G1 F900 X121.892 Y31.807 E39.28322
G0 F1285.7 X122.387 Y31.807
G1 F900 X117.831 Y27.251 E39.5298
G0 F1285.7 X118.326 Y27.251
G1 F900 X122.882 Y31.807 E39.77638
G0 F1285.7 X123.377 Y31.807
G1 F900 X118.821 Y27.251 E40.02295
G0 F1285.7 X119.316 Y27.251
G1 F900 X123.872 Y31.807 E40.26953
G0 F1285.7 X124.367 Y31.807
G1 F900 X119.811 Y27.251 E40.51611
G0 F1285.7 X120.306 Y27.251
G1 F900 X124.862 Y31.807 E40.76268
G0 F1285.7 X125.357 Y31.807
G1 F900 X120.801 Y27.251 E41.00926
G0 F1285.7 X121.296 Y27.251
G1 F900 X125.852 Y31.807 E41.25584
G0 F1285.7 X126.347 Y31.807
G1 F900 X121.791 Y27.251 E41.50241
G0 F1285.7 X122.286 Y27.251
G1 F900 X126.842 Y31.807 E41.74899
G0 F1285.7 X127.337 Y31.807
G1 F900 X122.781 Y27.251 E41.99557
G0 F1285.7 X123.276 Y27.251
G1 F900 X127.832 Y31.807 E42.24214
G0 F1285.7 X128.327 Y31.807
G1 F900 X123.771 Y27.251 E42.48872
G0 F1285.7 X124.266 Y27.251
G1 F900 X128.822 Y31.807 E42.7353
G0 F1285.7 X129.317 Y31.807
G1 F900 X124.761 Y27.251 E42.98187
G0 F1285.7 X125.256 Y27.251
G1 F900 X129.812 Y31.807 E43.22845
G0 F1285.7 X130.307 Y31.807
G1 F900 X125.751 Y27.251 E43.47502
G0 F1285.7 X126.246 Y27.251
G1 F900 X130.802 Y31.807 E43.7216
G0 F1285.7 X131.297 Y31.807
G1 F900 X126.741 Y27.251 E43.96818
G0 F1285.7 X127.236 Y27.251
G1 F900 X131.607 Y31.622 E44.20474
G0 F1285.7 X131.607 Y31.127
G1 F900 X127.731 Y27.251 E44.41452
G0 F1285.7 X128.226 Y27.251
G1 F900 X131.607 Y30.632 E44.5975
G0 F1285.7 X131.607 Y30.137
G1 F900 X128.721 Y27.251 E44.75369
G0 F1285.7 X129.215 Y27.251
G1 F900 X131.607 Y29.642 E44.88312
G0 F1285.7 X131.607 Y29.147
G1 F900 X129.71 Y27.251 E44.98577
G0 F1285.7 X130.205 Y27.251
G1 F900 X131.607 Y28.652 E45.06162
G0 F1285.7 X131.607 Y28.157
G1 F900 X130.7 Y27.251 E45.11068
G0 F1285.7 X131.195 Y27.251
M104 S205
G1 F900 X131.607 Y27.662 E45.13295
;MESH:NONMESH
G0 F600 X131.607 Y27.662 Z0.41
G0 F1285.7 X84.965 Y32.234
G0 X84.895 Y32.304
;TIME_ELAPSED:93.520630
;LAYER:1
M140 S60
M106 S255
;TYPE:WALL-INNER
;MESH:support PBC_SWITCH I2C-A.STL
G1 F1500 X84.895 Y26.754 E45.25548
G1 X132.105 Y26.754 E46.29781
G1 X132.105 Y32.304 E46.42035
G1 X84.895 Y32.304 E47.46268
G0 F2142.9 X84.57 Y32.629
;TYPE:WALL-OUTER
G1 F1200 X84.57 Y26.429 E47.59957
G1 X132.43 Y26.429 E48.65625
G1 X132.43 Y32.629 E48.79313
G1 X84.57 Y32.629 E49.84981
G0 F2142.9 X84.57 Y32.429
G0 X85.235 Y31.964
;TYPE:SKIN
G1 F1500 X85.235 Y27.094 E49.95734
G1 X131.765 Y27.094 E50.98465
G1 X131.765 Y31.964 E51.09218
G1 X85.235 Y31.964 E52.11949
G0 F2142.9 X85.603 Y27.251
G1 F1500 X85.391 Y27.462 E52.1261
G0 F2142.9 X85.391 Y27.957
G1 F1500 X86.098 Y27.251 E52.14815
G0 F2142.9 X86.593 Y27.251
G1 F1500 X85.391 Y28.452 E52.18567
G0 F2142.9 X85.391 Y28.947
G1 F1500 X87.087 Y27.251 E52.23863
G0 F2142.9 X87.582 Y27.251
G1 F1500 X85.391 Y29.442 E52.30704
G0 F2142.9 X85.391 Y29.937
G1 F1500 X88.077 Y27.251 E52.3909
G0 F2142.9 X88.572 Y27.251
G1 F1500 X85.391 Y30.432 E52.49023
G0 F2142.9 X85.391 Y30.927
G1 F1500 X89.067 Y27.251 E52.60501
G0 F2142.9 X89.562 Y27.251
G1 F1500 X85.391 Y31.422 E52.73524
G0 F2142.9 X85.501 Y31.807
G1 F1500 X90.057 Y27.251 E52.8775
G0 F2142.9 X90.552 Y27.251
G1 F1500 X85.996 Y31.807 E53.01975
G0 F2142.9 X86.491 Y31.807
G1 F1500 X91.047 Y27.251 E53.16201
G0 F2142.9 X91.542 Y27.251
G1 F1500 X86.986 Y31.807 E53.30426
G0 F2142.9 X87.481 Y31.807
G1 F1500 X92.037 Y27.251 E53.44652
G0 F2142.9 X92.532 Y27.251
G1 F1500 X87.976 Y31.807 E53.58877
G0 F2142.9 X88.471 Y31.807
G1 F1500 X93.027 Y27.251 E53.73103
G0 F2142.9 X93.522 Y27.251
G1 F1500 X88.966 Y31.807 E53.87329
G0 F2142.9 X89.461 Y31.807
G1 F1500 X94.017 Y27.251 E54.01554
G0 F2142.9 X94.512 Y27.251
G1 F1500 X89.956 Y31.807 E54.1578
G0 F2142.9 X90.451 Y31.807
G1 F1500 X95.007 Y27.251 E54.30005
G0 F2142.9 X95.502 Y27.251
G1 F1500 X90.946 Y31.807 E54.44231
G0 F2142.9 X91.441 Y31.807
G1 F1500 X95.997 Y27.251 E54.58456
G0 F2142.9 X96.492 Y27.251
G1 F1500 X91.936 Y31.807 E54.72682
G0 F2142.9 X92.431 Y31.807
G1 F1500 X96.987 Y27.251 E54.86908
G0 F2142.9 X97.482 Y27.251
G1 F1500 X92.926 Y31.807 E55.01133
G0 F2142.9 X93.421 Y31.807
G1 F1500 X97.977 Y27.251 E55.15359
G0 F2142.9 X98.472 Y27.251
G1 F1500 X93.916 Y31.807 E55.29584
G0 F2142.9 X94.411 Y31.807
G1 F1500 X98.967 Y27.251 E55.4381
G0 F2142.9 X99.462 Y27.251
G1 F1500 X94.906 Y31.807 E55.58035
G0 F2142.9 X95.401 Y31.807
G1 F1500 X99.957 Y27.251 E55.72261
G0 F2142.9 X100.452 Y27.251
G1 F1500 X95.896 Y31.807 E55.86487
G0 F2142.9 X96.391 Y31.807
G1 F1500 X100.947 Y27.251 E56.00712
G0 F2142.9 X101.442 Y27.251
G1 F1500 X96.886 Y31.807 E56.14938
G0 F2142.9 X97.381 Y31.807
G1 F1500 X101.937 Y27.251 E56.29163
G0 F2142.9 X102.432 Y27.251
G1 F1500 X97.876 Y31.807 E56.43389
G0 F2142.9 X98.371 Y31.807
G1 F1500 X102.927 Y27.251 E56.57614
G0 F2142.9 X103.422 Y27.251
G1 F1500 X98.866 Y31.807 E56.7184
G0 F2142.9 X99.361 Y31.807
G1 F1500 X103.917 Y27.251 E56.86066
G0 F2142.9 X104.412 Y27.251
G1 F1500 X99.856 Y31.807 E57.00291
G0 F2142.9 X100.351 Y31.807
G1 F1500 X104.907 Y27.251 E57.14517
G0 F2142.9 X105.402 Y27.251
G1 F1500 X100.846 Y31.807 E57.28742
G0 F2142.9 X101.341 Y31.807
G1 F1500 X105.897 Y27.251 E57.42968
G0 F2142.9 X106.391 Y27.251
G1 F1500 X101.836 Y31.807 E57.57192
G0 F2142.9 X102.331 Y31.807
G1 F1500 X106.886 Y27.251 E57.71416
G0 F2142.9 X107.381 Y27.251
G1 F1500 X102.826 Y31.807 E57.8564
G0 F2142.9 X103.321 Y31.807
G1 F1500 X107.876 Y27.251 E57.99864
G0 F2142.9 X108.371 Y27.251
G1 F1500 X103.816 Y31.807 E58.14088
G0 F2142.9 X104.31 Y31.807
G1 F1500 X108.866 Y27.251 E58.28313
G0 F2142.9 X109.361 Y27.251
G1 F1500 X104.805 Y31.807 E58.42539
G0 F2142.9 X105.3 Y31.807
G1 F1500 X109.856 Y27.251 E58.56765
G0 F2142.9 X110.351 Y27.251
G1 F1500 X105.795 Y31.807 E58.7099
G0 F2142.9 X106.29 Y31.807
G1 F1500 X110.846 Y27.251 E58.85216
G0 F2142.9 X111.341 Y27.251
G1 F1500 X106.785 Y31.807 E58.99441
G0 F2142.9 X107.28 Y31.807
G1 F1500 X111.836 Y27.251 E59.13667
G0 F2142.9 X112.331 Y27.251
G1 F1500 X107.775 Y31.807 E59.27892
G0 F2142.9 X108.27 Y31.807
G1 F1500 X112.826 Y27.251 E59.42118
G0 F2142.9 X113.321 Y27.251
G1 F1500 X108.765 Y31.807 E59.56344
G0 F2142.9 X109.26 Y31.807
G1 F1500 X113.816 Y27.251 E59.70569
G0 F2142.9 X114.311 Y27.251
G1 F1500 X109.755 Y31.807 E59.84795
G0 F2142.9 X110.25 Y31.807
G1 F1500 X114.806 Y27.251 E59.9902
G0 F2142.9 X115.301 Y27.251
G1 F1500 X110.745 Y31.807 E60.13246
G0 F2142.9 X111.24 Y31.807
G1 F1500 X115.796 Y27.251 E60.27471
G0 F2142.9 X116.291 Y27.251
G1 F1500 X111.735 Y31.807 E60.41697
G0 F2142.9 X112.23 Y31.807
G1 F1500 X116.786 Y27.251 E60.55923
G0 F2142.9 X117.281 Y27.251
G1 F1500 X112.725 Y31.807 E60.70148
G0 F2142.9 X113.22 Y31.807
G1 F1500 X117.776 Y27.251 E60.84374
G0 F2142.9 X118.271 Y27.251
G1 F1500 X113.715 Y31.807 E60.98599
G0 F2142.9 X114.21 Y31.807
G1 F1500 X118.766 Y27.251 E61.12825
G0 F2142.9 X119.261 Y27.251
G1 F1500 X114.705 Y31.807 E61.2705
G0 F2142.9 X115.2 Y31.807
G1 F1500 X119.756 Y27.251 E61.41276
G0 F2142.9 X120.251 Y27.251
G1 F1500 X115.695 Y31.807 E61.55501
G0 F2142.9 X116.19 Y31.807
