;FLAVOR:Marlin
;TIME:4811
;Filament used: 5.23043m
;Layer height: 0.2
;MINX:69.127
;MINY:65.623
;MINZ:0.3
;MAXX:147.859
;MAXY:144.377
;MAXZ:16.9
;Generated with Cura_SteamEngine 4.8
M140 S55
M105
M190 S55
M104 S205
M105
M109 S205
M82 ;absolute extrusion mode
G28 ;Home
G1 Z15.0 F6000 ;Move the platform down 15mm
;Prime the extruder
G92 E0
G1 F200 E3
G92 E0
G92 E0
G92 E0
G1 F1500 E-4.5
;LAYER_COUNT:84
;LAYER:0
M107 P1
G1 F600 Z1.3
G0 F3600 X79.353 Y78.506 Z1.3
;TYPE:SKIRT
G1 F600 Z0.3
G1 F1500 E0
G1 F1800 X81.188 Y76.62 E0.13128
G1 X81.678 Y76.132 E0.16578
G1 X81.998 Y75.84 E0.18739
G1 X82.462 Y75.449 E0.21767
G1 X84.468 Y73.798 E0.34728
G1 X84.996 Y73.375 E0.38104
G1 X85.362 Y73.107 E0.40367
G1 X85.863 Y72.772 E0.43374
G1 X88.019 Y71.363 E0.56223
G1 X88.659 Y70.959 E0.59999
G1 X88.972 Y70.78 E0.61798
G1 X89.589 Y70.457 E0.65273
G1 X91.847 Y69.316 E0.77894
G1 X92.483 Y69.005 E0.81426
G1 X92.9 Y68.824 E0.83694
G1 X93.455 Y68.608 E0.86666
G1 X95.904 Y67.692 E0.9971
G1 X96.544 Y67.463 E1.03102
G1 X96.961 Y67.334 E1.05279
G1 X97.556 Y67.176 E1.08351
G1 X100.022 Y66.552 E1.21041
G1 X100.75 Y66.378 E1.24776
G1 X101.108 Y66.307 E1.26597
G1 X101.817 Y66.2 E1.30174
G1 X104.334 Y65.851 E1.42851
G1 X105.052 Y65.762 E1.46461
G1 X105.407 Y65.733 E1.48238
G1 X106.085 Y65.705 E1.51623
G1 X108.699 Y65.632 E1.6467
G1 X109.378 Y65.623 E1.68057
G1 X109.738 Y65.633 E1.69854
G1 X110.482 Y65.685 E1.73575
G1 X112.953 Y65.89 E1.85945
G1 X113.72 Y65.965 E1.8979
G1 X114.068 Y66.013 E1.91543
G1 X114.737 Y66.133 E1.94934
G1 X117.323 Y66.638 E2.08079
G1 X117.99 Y66.78 E2.11481
G1 X118.397 Y66.885 E2.13578
G1 X118.95 Y67.05 E2.16457
G1 X121.465 Y67.837 E2.29605
G1 X122.102 Y68.046 E2.32949
G1 X122.543 Y68.213 E2.35302
G1 X123.079 Y68.44 E2.38206
G1 X125.451 Y69.482 E2.51132
G1 X126.136 Y69.795 E2.54889
G1 X126.459 Y69.959 E2.56696
G1 X127.007 Y70.267 E2.59832
G1 X129.208 Y71.537 E2.7251
G1 X129.869 Y71.931 E2.76349
G1 X130.251 Y72.183 E2.78632
G1 X130.719 Y72.519 E2.81507
G1 X132.813 Y74.058 E2.94472
G1 X133.359 Y74.471 E2.97887
G1 X134.105 Y75.116 E3.02807
G1 X136.067 Y76.922 E3.16111
G1 X136.571 Y77.399 E3.19573
G1 X136.892 Y77.73 E3.21874
G1 X137.289 Y78.177 E3.24856
G1 X139.003 Y80.145 E3.37877
G1 X139.427 Y80.645 E3.41147
G1 X139.708 Y81.007 E3.43434
G1 X140.064 Y81.507 E3.46496
G1 X141.536 Y83.63 E3.59384
G1 X141.944 Y84.237 E3.63033
G1 X142.134 Y84.548 E3.64851
G1 X142.459 Y85.13 E3.68177
G1 X143.724 Y87.466 E3.81431
G1 X144.018 Y88.03 E3.84604
G1 X144.165 Y88.342 E3.86324
G1 X144.432 Y88.971 E3.89733
G1 X145.402 Y91.361 E4.02602
G1 X145.667 Y92.04 E4.06238
G1 X145.784 Y92.38 E4.08032
G1 X145.996 Y93.092 E4.11738
G1 X146.67 Y95.479 E4.24113
G1 X146.878 Y96.259 E4.2814
G1 X146.959 Y96.622 E4.29996
G1 X147.077 Y97.286 E4.3336
G1 X147.495 Y99.793 E4.46041
G1 X147.606 Y100.532 E4.49769
G1 X147.644 Y100.88 E4.51515
G1 X147.687 Y101.504 E4.54636
G1 X147.831 Y104.134 E4.67777
G1 X147.859 Y104.821 E4.71207
G1 X147.858 Y105.26 E4.73397
G1 X147.833 Y105.848 E4.76333
G1 X147.69 Y108.432 E4.89245
G1 X147.64 Y109.153 E4.9285
G1 X147.588 Y109.607 E4.9513
G1 X147.499 Y110.184 E4.98043
G1 X147.072 Y112.74 E5.10972
G1 X146.949 Y113.425 E5.14444
G1 X146.869 Y113.782 E5.16269
G1 X146.683 Y114.476 E5.19854
G1 X145.994 Y116.914 E5.32493
G1 X145.784 Y117.617 E5.36154
G1 X145.634 Y118.049 E5.38435
G1 X145.412 Y118.616 E5.41473
G1 X144.461 Y120.956 E5.54075
G1 X144.166 Y121.652 E5.57846
G1 X143.753 Y122.478 E5.62453
G1 X142.48 Y124.835 E5.75818
G1 X142.127 Y125.465 E5.79421
G1 X141.897 Y125.836 E5.81598
G1 X141.533 Y126.374 E5.84839
G1 X140.066 Y128.489 E5.97681
G1 X139.674 Y129.038 E6.01046
G1 X139.365 Y129.432 E6.03544
G1 X139.018 Y129.839 E6.06213
G1 X137.295 Y131.816 E6.19296
G1 X136.832 Y132.333 E6.22759
G1 X136.586 Y132.587 E6.24523
G1 X136.088 Y133.059 E6.27946
G1 X134.156 Y134.839 E6.41052
G1 X133.657 Y135.284 E6.44388
G1 X132.895 Y135.881 E6.49217
G1 X130.797 Y137.425 E6.62213
G1 X130.173 Y137.87 E6.66037
G1 X129.788 Y138.12 E6.68327
G1 X129.237 Y138.446 E6.71521
G1 X127.029 Y139.72 E6.84239
G1 X126.422 Y140.06 E6.8771
G1 X126.1 Y140.223 E6.89511
G1 X125.483 Y140.504 E6.92893
G1 X123.13 Y141.536 E7.05712
G1 X122.44 Y141.827 E7.09448
G1 X122.043 Y141.975 E7.11561
G1 X121.467 Y142.163 E7.14584
G1 X118.954 Y142.947 E7.27718
G1 X118.3 Y143.141 E7.31121
G1 X117.885 Y143.245 E7.33255
G1 X117.323 Y143.362 E7.36119
G1 X114.782 Y143.857 E7.49035
G1 X114.061 Y143.988 E7.52691
G1 X113.702 Y144.038 E7.54499
G1 X113.015 Y144.105 E7.57943
G1 X110.438 Y144.319 E7.70844
G1 X109.736 Y144.367 E7.74354
G1 X109.294 Y144.377 E7.7656
G1 X108.713 Y144.368 E7.79459
G1 X106.051 Y144.294 E7.92745
G1 X105.397 Y144.266 E7.96011
G1 X104.95 Y144.227 E7.98249
G1 X104.356 Y144.152 E8.01236
G1 X101.813 Y143.799 E8.14045
G1 X101.088 Y143.688 E8.17704
G1 X100.741 Y143.621 E8.19467
G1 X100.076 Y143.463 E8.22877
G1 X97.58 Y142.829 E8.35725
G1 X96.885 Y142.643 E8.39315
G1 X96.541 Y142.536 E8.41112
G1 X95.854 Y142.29 E8.44753
G1 X93.449 Y141.389 E8.57566
G1 X92.828 Y141.147 E8.60891
G1 X92.494 Y141 E8.62711
G1 X91.825 Y140.673 E8.66426
G1 X89.573 Y139.533 E8.79019
G1 X88.945 Y139.206 E8.82552
G1 X88.621 Y139.019 E8.84418
G1 X88.021 Y138.638 E8.87964
G1 X85.859 Y137.225 E9.00849
G1 X85.3 Y136.848 E9.04213
G1 X84.932 Y136.575 E9.06499
G1 X84.459 Y136.195 E9.09526
G1 X82.471 Y134.558 E9.22374
G1 X81.926 Y134.096 E9.25939
G1 X81.66 Y133.851 E9.27743
G1 X81.186 Y133.377 E9.31087
G1 X79.334 Y131.473 E9.44339
G1 X78.892 Y131.004 E9.47554
G1 X78.589 Y130.653 E9.49867
G1 X78.195 Y130.158 E9.53024
G1 X76.639 Y128.159 E9.65662
G1 X76.213 Y127.595 E9.69188
G1 X75.95 Y127.212 E9.71506
G1 X75.616 Y126.684 E9.74623
G1 X74.265 Y124.485 E9.87499
G1 X73.931 Y123.924 E9.90757
G1 X73.714 Y123.518 E9.93053
G1 X73.415 Y122.905 E9.96456
G1 X72.344 Y120.635 E10.08978
G1 X72.039 Y119.963 E10.1266
G1 X71.905 Y119.632 E10.14442
G1 X71.685 Y119.019 E10.17691
G1 X70.843 Y116.565 E10.30634
G1 X70.615 Y115.867 E10.34298
G1 X70.518 Y115.521 E10.36091
G1 X70.35 Y114.816 E10.39706
G1 X69.79 Y112.313 E10.52503
G1 X69.654 Y111.663 E10.55816
G1 X69.582 Y111.218 E10.58065
G1 X69.512 Y110.651 E10.60915
G1 X69.216 Y107.968 E10.74382
G1 X69.157 Y107.338 E10.77539
G1 X69.134 Y106.889 E10.79782
G1 X69.127 Y106.342 E10.82511
G1 X69.127 Y103.707 E10.95657
G1 X69.137 Y103.017 E10.991
G1 X69.165 Y102.558 E11.01394
G1 X69.225 Y101.941 E11.04487
G1 X69.507 Y99.405 E11.17217
G1 X69.595 Y98.696 E11.20781
G1 X69.669 Y98.259 E11.22992
G1 X69.797 Y97.657 E11.26063
G1 X70.354 Y95.164 E11.38807
G1 X70.53 Y94.435 E11.42549
G1 X70.624 Y94.102 E11.44275
G1 X70.851 Y93.408 E11.47918
G1 X71.675 Y91.012 E11.60559
G1 X71.919 Y90.335 E11.64149
G1 X72.086 Y89.927 E11.66348
G1 X72.342 Y89.37 E11.69407
G1 X73.44 Y87.043 E11.82244
G1 X73.751 Y86.408 E11.85771
G1 X73.959 Y86.027 E11.87937
G1 X74.291 Y85.472 E11.91163
G1 X75.62 Y83.312 E12.03816
G1 X76.008 Y82.699 E12.07435
G1 X76.217 Y82.397 E12.09268
G1 X76.659 Y81.814 E12.12918
G1 X78.204 Y79.831 E12.25459
G1 X78.66 Y79.262 E12.29097
G1 X78.94 Y78.942 E12.31218
G1 X79.353 Y78.506 E12.34215
G0 F3600 X79.64 Y78.785
G1 F1800 X81.47 Y76.904 E12.47307
G1 X81.96 Y76.416 E12.50758
G1 X82.256 Y76.146 E12.52756
G1 X82.716 Y75.758 E12.55759
G1 X84.718 Y74.11 E12.68695
G1 X85.246 Y73.687 E12.72071
G1 X85.585 Y73.44 E12.74163
G1 X86.082 Y73.107 E12.77148
G1 X88.233 Y71.702 E12.89966
G1 X88.873 Y71.298 E12.93742
G1 X89.157 Y71.134 E12.95378
G1 X89.77 Y70.814 E12.98828
G1 X92.023 Y69.676 E13.11421
G1 X92.659 Y69.365 E13.14953
G1 X93.045 Y69.196 E13.17055
G1 X93.595 Y68.983 E13.19997
G1 X96.038 Y68.069 E13.33011
G1 X96.678 Y67.84 E13.36402
G1 X97.065 Y67.721 E13.38422
G1 X97.654 Y67.563 E13.41464
G1 X100.115 Y66.941 E13.54128
G1 X100.843 Y66.767 E13.57863
G1 X101.169 Y66.703 E13.5952
G1 X101.872 Y66.596 E13.63068
G1 X104.383 Y66.248 E13.75715
G1 X105.101 Y66.159 E13.79325
G1 X105.424 Y66.133 E13.80941
G1 X106.096 Y66.105 E13.84297
G1 X108.704 Y66.032 E13.97313
G1 X109.383 Y66.023 E14.00701
G1 X109.711 Y66.032 E14.02338
G1 X110.449 Y66.084 E14.06029
G1 X112.914 Y66.288 E14.18369
G1 X113.681 Y66.363 E14.22214
G1 X113.997 Y66.407 E14.23806
G1 X114.661 Y66.526 E14.27171
G1 X117.24 Y67.03 E14.40281
G1 X117.907 Y67.172 E14.43683
G1 X118.283 Y67.268 E14.45619
G1 X118.831 Y67.432 E14.48473
G1 X121.34 Y68.217 E14.61589
G1 X121.977 Y68.426 E14.64934
G1 X122.387 Y68.581 E14.67121
G1 X122.918 Y68.806 E14.69998
G1 X125.284 Y69.846 E14.82892
G1 X125.969 Y70.159 E14.86649
G1 X126.264 Y70.308 E14.88298
G1 X126.807 Y70.613 E14.91405
G1 X129.003 Y71.881 E15.04056
G1 X129.664 Y72.275 E15.07895
G1 X130.017 Y72.508 E15.10006
G1 X130.482 Y72.841 E15.12859
G1 X132.572 Y74.377 E15.25799
G1 X133.118 Y74.79 E15.29215
G1 X133.838 Y75.413 E15.33965
G1 X135.793 Y77.213 E15.47223
G1 X136.297 Y77.69 E15.50685
G1 X136.593 Y77.997 E15.52812
G1 X136.988 Y78.439 E15.5577
G1 X138.698 Y80.404 E15.68766
G1 X139.122 Y80.904 E15.72036
G1 X139.382 Y81.239 E15.74152
G1 X139.735 Y81.735 E15.77189
G1 X141.204 Y83.854 E15.90053
G1 X141.612 Y84.461 E15.93702
G1 X141.785 Y84.743 E15.95352
G1 X142.107 Y85.321 E15.98653
G1 X143.369 Y87.651 E16.11873
G1 X143.663 Y88.215 E16.15046
G1 X143.797 Y88.499 E16.16613
G1 X144.061 Y89.121 E16.19984
G1 X145.029 Y91.507 E16.3283
G1 X145.294 Y92.186 E16.36467
G1 X145.4 Y92.494 E16.38092
G1 X145.611 Y93.201 E16.41773
G1 X146.284 Y95.582 E16.54117
G1 X146.492 Y96.362 E16.58144
G1 X146.565 Y96.692 E16.59831
G1 X146.682 Y97.352 E16.63175
G1 X147.1 Y99.853 E16.75825
G1 X147.211 Y100.592 E16.79553
G1 X147.245 Y100.908 E16.81139
G1 X147.288 Y101.526 E16.8423
G1 X147.432 Y104.15 E16.97341
G1 X147.46 Y104.837 E17.00771
G1 X147.459 Y105.243 E17.02797
G1 X147.434 Y105.826 E17.05708
G1 X147.291 Y108.405 E17.18594
G1 X147.241 Y109.126 E17.222
G1 X147.193 Y109.546 E17.24309
G1 X147.104 Y110.118 E17.27197
G1 X146.678 Y112.669 E17.401
G1 X146.555 Y113.354 E17.43572
G1 X146.483 Y113.679 E17.45233
G1 X146.298 Y114.368 E17.48792
G1 X145.611 Y116.8 E17.614
G1 X145.401 Y117.503 E17.65061
G1 X145.262 Y117.903 E17.67174
G1 X145.041 Y118.466 E17.70191
G1 X144.093 Y120.8 E17.82759
G1 X143.798 Y121.496 E17.86531
G1 X143.399 Y122.292 E17.90973
G1 X142.099 Y124.697 E18.04612
G1 X141.778 Y125.27 E18.07889
G1 X141.566 Y125.612 E18.09896
G1 X141.205 Y126.146 E18.13112
G1 X139.74 Y128.256 E18.25928
G1 X139.348 Y128.805 E18.29293
G1 X138.747 Y129.541 E18.34034
G1 X136.997 Y131.55 E18.47326
G1 X136.534 Y132.067 E18.50788
G1 X136.31 Y132.297 E18.5239
G1 X135.817 Y132.765 E18.55782
G1 X133.889 Y134.54 E18.68856
G1 X133.39 Y134.985 E18.72192
G1 X132.654 Y135.562 E18.76858
G1 X130.513 Y137.136 E18.90115
G1 X129.941 Y137.544 E18.9362
G1 X129.584 Y137.776 E18.95744
G1 X129.037 Y138.099 E18.98914
G1 X126.834 Y139.371 E19.11605
G1 X126.227 Y139.711 E19.15076
G1 X125.934 Y139.859 E19.16714
G1 X125.323 Y140.138 E19.20065
G1 X122.974 Y141.168 E19.32861
G1 X122.284 Y141.459 E19.36597
G1 X121.919 Y141.595 E19.3854
G1 X121.347 Y141.781 E19.41541
G1 X118.841 Y142.564 E19.5464
G1 X118.187 Y142.758 E19.58043
G1 X117.803 Y142.854 E19.60018
G1 X117.246 Y142.969 E19.62855
G1 X114.71 Y143.464 E19.75746
G1 X113.989 Y143.595 E19.79402
G1 X113.663 Y143.64 E19.81044
G1 X112.982 Y143.706 E19.84458
G1 X110.411 Y143.92 E19.97329
G1 X109.709 Y143.968 E20.00839
G1 X109.3 Y143.978 E20.0288
G1 X108.724 Y143.968 E20.05754
G1 X106.068 Y143.894 E20.1901
G1 X105.414 Y143.866 E20.22276
G1 X105 Y143.83 E20.24349
G1 X104.411 Y143.756 E20.27311
G1 X101.874 Y143.404 E20.40089
G1 X101.149 Y143.293 E20.43749
G1 X100.833 Y143.232 E20.45354
G1 X100.174 Y143.075 E20.48734
G1 X97.684 Y142.443 E20.61551
G1 X96.989 Y142.257 E20.6514
G1 X96.675 Y142.159 E20.66781
G1 X95.994 Y141.915 E20.7039
G1 X93.595 Y141.016 E20.83172
G1 X92.974 Y140.774 E20.86497
G1 X92.67 Y140.641 E20.88152
G1 X92.006 Y140.316 E20.9184
G1 X89.758 Y139.178 E21.04411
G1 X89.13 Y138.851 E21.07943
G1 X88.835 Y138.681 E21.09642
G1 X88.24 Y138.304 E21.13156
G1 X86.082 Y136.893 E21.26019
G1 X85.523 Y136.516 E21.29383
G1 X85.182 Y136.264 E21.31499
G1 X84.713 Y135.886 E21.34504
G1 X82.729 Y134.253 E21.47324
G1 X82.184 Y133.791 E21.50888
G1 X81.943 Y133.568 E21.52526
G1 X81.473 Y133.099 E21.55839
G1 X79.625 Y131.198 E21.69066
G1 X79.183 Y130.729 E21.72281
G1 X78.902 Y130.404 E21.74425
G1 X78.511 Y129.913 E21.77556
G1 X76.958 Y127.918 E21.90169
G1 X76.532 Y127.354 E21.93696
G1 X76.288 Y126.998 E21.95849
G1 X75.957 Y126.475 E21.98937
G1 X74.609 Y124.28 E22.11788
G1 X74.275 Y123.719 E22.15045
G1 X74.074 Y123.343 E22.17172
G1 X73.777 Y122.734 E22.20553
G1 X72.709 Y120.47 E22.33041
G1 X72.404 Y119.798 E22.36723
G1 X72.281 Y119.497 E22.38345
G1 X72.064 Y118.89 E22.41561
G1 X71.224 Y116.441 E22.54478
G1 X70.996 Y115.743 E22.58142
G1 X70.907 Y115.429 E22.5977
G1 X70.741 Y114.729 E22.63359
G1 X70.182 Y112.231 E22.7613
G1 X70.046 Y111.581 E22.79443
G1 X69.979 Y111.168 E22.8153
G1 X69.909 Y110.607 E22.84351
G1 X69.614 Y107.931 E22.97782
G1 X69.555 Y107.301 E23.00939
G1 X69.534 Y106.884 E23.03022
G1 X69.527 Y106.337 E23.05752
G1 X69.527 Y103.713 E23.18843
G1 X69.537 Y103.023 E23.22286
G1 X69.563 Y102.597 E23.24415
G1 X69.622 Y101.985 E23.27482
G1 X69.903 Y99.454 E23.40187
G1 X69.991 Y98.745 E23.43751
G1 X70.06 Y98.342 E23.45791
G1 X70.187 Y97.745 E23.48836
G1 X70.743 Y95.258 E23.6155
G1 X70.919 Y94.529 E23.65292
G1 X71.005 Y94.227 E23.66858
G1 X71.23 Y93.538 E23.70475
G1 X72.051 Y91.148 E23.83082
G1 X72.295 Y90.471 E23.86672
G1 X72.449 Y90.094 E23.88704
G1 X72.704 Y89.541 E23.91742
G1 X73.8 Y87.219 E24.04552
G1 X74.111 Y86.584 E24.0808
G1 X74.302 Y86.232 E24.10078
G1 X74.632 Y85.681 E24.13282
G1 X75.958 Y83.526 E24.25906
G1 X76.346 Y82.913 E24.29525
G1 X76.536 Y82.639 E24.31189
G1 X76.974 Y82.06 E24.34811
G1 X78.516 Y80.082 E24.47323
G1 X78.972 Y79.513 E24.50961
G1 X79.231 Y79.216 E24.52927
G1 X79.64 Y78.785 E24.55892
G0 F3600 X79.927 Y79.064
G1 F1800 X81.753 Y77.187 E24.68956
G1 X82.243 Y76.699 E24.72406
G1 X82.514 Y76.452 E24.74236
G1 X82.971 Y76.067 E24.77217
G1 X84.968 Y74.422 E24.90125
G1 X85.496 Y73.999 E24.935
G1 X85.808 Y73.772 E24.95425
G1 X86.301 Y73.441 E24.98388
G1 X88.446 Y72.04 E25.1117
G1 X89.086 Y71.636 E25.14946
G1 X89.342 Y71.489 E25.16418
G1 X89.95 Y71.171 E25.19841
G1 X92.199 Y70.035 E25.32412
G1 X92.835 Y69.724 E25.35944
G1 X93.19 Y69.569 E25.37877
G1 X93.735 Y69.357 E25.40794
G1 X96.173 Y68.445 E25.5378
G1 X96.813 Y68.216 E25.57172
G1 X97.168 Y68.107 E25.59024
G1 X97.752 Y67.951 E25.6204
G1 X100.208 Y67.33 E25.74679
G1 X100.936 Y67.156 E25.78413
G1 X101.229 Y67.098 E25.79903
G1 X101.927 Y66.992 E25.83425
G1 X104.432 Y66.645 E25.96042
G1 X105.15 Y66.556 E25.99652
G1 X105.441 Y66.532 E26.01109
G1 X106.107 Y66.504 E26.04434
G1 X108.709 Y66.432 E26.17421
G1 X109.388 Y66.423 E26.20808
G1 X109.683 Y66.431 E26.22281
G1 X110.416 Y66.482 E26.25947
G1 X112.875 Y66.686 E26.38257
G1 X113.642 Y66.761 E26.42102
G1 X113.927 Y66.8 E26.43537
G1 X114.584 Y66.919 E26.46868
G1 X117.157 Y67.421 E26.59947
G1 X117.824 Y67.563 E26.63349
G1 X118.169 Y67.652 E26.65126
G1 X118.711 Y67.813 E26.67947
G1 X121.215 Y68.597 E26.81038
G1 X121.852 Y68.806 E26.84382
G1 X122.231 Y68.949 E26.86403
G1 X122.757 Y69.172 E26.89254
G1 X125.118 Y70.21 E27.02121
G1 X125.803 Y70.523 E27.05878
G1 X126.068 Y70.657 E27.0736
G1 X126.607 Y70.96 E27.10445
G1 X128.798 Y72.225 E27.23067
G1 X129.459 Y72.619 E27.26906
G1 X129.784 Y72.833 E27.28847
G1 X130.245 Y73.164 E27.31678
G1 X132.331 Y74.696 E27.44591
G1 X132.877 Y75.109 E27.48006
G1 X133.571 Y75.711 E27.5259
G1 X135.518 Y77.503 E27.65791
G1 X136.022 Y77.98 E27.69253
G1 X136.295 Y78.263 E27.71215
G1 X136.686 Y78.702 E27.74148
G1 X138.393 Y80.663 E27.87119
G1 X138.817 Y81.163 E27.9039
G1 X139.056 Y81.471 E27.92335
G1 X139.406 Y81.963 E27.95347
G1 X140.872 Y84.077 E28.08182
G1 X141.28 Y84.684 E28.1183
G1 X141.436 Y84.938 E28.13318
G1 X141.755 Y85.511 E28.16589
G1 X143.014 Y87.836 E28.2978
G1 X143.308 Y88.4 E28.32954
G1 X143.429 Y88.655 E28.34362
G1 X143.691 Y89.272 E28.37706
G1 X144.657 Y91.652 E28.50521
G1 X144.922 Y92.331 E28.54157
G1 X145.017 Y92.609 E28.55623
G1 X145.226 Y93.31 E28.59272
G1 X145.897 Y95.685 E28.71585
