;FLAVOR:Marlin
;TIME:4362
;Filament used: 2.49564m
;Layer height: 0.15
;MINX:44.498
;MINY:70
;MINZ:0.1
;MAXX:172.882
;MAXY:93.809
;MAXZ:21.35
;Generated with Cura_SteamEngine 4.5.0
M140 S67
M105
M190 S67
M82 ;absolute extrusion mode
;Gcode by Cura
G90
M106 S255
G28 X Y
M109 R195
G28
M104 S188
G29
M107
G1 X100 Y10 F3000
G1 Z0.5
M109 S188
M82
G92 E0
G1 F200 E10
G92 E0
G1 Z3
G1 F6000
G92 E0
G92 E0
G1 F1200 E-3.5
;LAYER_COUNT:136
;LAYER:0
M106 S255
M205 X30 Y30
G1 F120 Z1.1
G0 F3600 X93.118 Y71.176 Z1.1
M205 X15 Y15
;TYPE:SKIRT
G1 F120 Z0.1
G1 F1200 E0
G1 F1500 X93.446 Y70.813 E0.00814
G1 X93.829 Y70.508 E0.01628
G1 X94.257 Y70.27 E0.02442
G1 X94.717 Y70.104 E0.03256
G1 X95.5 Y70 E0.04569
G1 X125.5 Y70 E0.54459
G1 X126.463 Y70.159 E0.56082
G1 X126.912 Y70.353 E0.56896
G1 X127.324 Y70.618 E0.5771
G1 X127.687 Y70.946 E0.58524
G1 X127.992 Y71.329 E0.59338
G1 X128.23 Y71.757 E0.60153
G1 X128.396 Y72.217 E0.60966
G1 X128.5 Y73 E0.6228
G1 X128.5 Y77.94 E0.70495
G1 X128.442 Y78.527 E0.71476
G1 X128.241 Y79.333 E0.72857
G1 X127.892 Y79.994 E0.741
G1 X127.399 Y80.63 E0.75438
G1 X126.954 Y81.003 E0.76404
G1 X127.436 Y81.416 E0.7746
G1 X127.825 Y81.91 E0.78505
G1 X128.086 Y82.324 E0.79319
G1 X128.277 Y82.774 E0.80132
G1 X128.432 Y83.413 E0.81226
G1 X128.5 Y84.047 E0.82286
G1 X128.5 Y89 E0.90523
G1 X128.46 Y89.488 E0.91337
G1 X128.341 Y89.963 E0.92152
G1 X128.147 Y90.412 E0.92965
G1 X127.882 Y90.824 E0.9378
G1 X127.554 Y91.187 E0.94593
G1 X127.171 Y91.492 E0.95407
G1 X126.743 Y91.73 E0.96222
G1 X126.283 Y91.896 E0.97035
G1 X125.5 Y92 E0.98349
G1 X95.5 Y92 E1.48239
G1 X95.012 Y91.96 E1.49053
G1 X94.537 Y91.841 E1.49867
G1 X94.088 Y91.647 E1.50681
G1 X93.676 Y91.382 E1.51496
G1 X93.313 Y91.054 E1.52309
G1 X93.008 Y90.671 E1.53123
G1 X92.77 Y90.243 E1.53938
G1 X92.604 Y89.783 E1.54751
G1 X92.5 Y89 E1.56065
G1 X92.5 Y87.4 E1.58725
G1 X91.993 Y87.388 E1.59569
G1 X91.182 Y87.245 E1.60938
G1 X90.474 Y86.93 E1.62227
G1 X89.786 Y86.463 E1.6361
G1 X89.263 Y85.876 E1.64917
G1 X88.838 Y85.179 E1.66275
G1 X88.619 Y84.505 E1.67453
G1 X88.5 Y83.613 E1.6895
G1 X88.5 Y78.454 E1.77529
G1 X88.583 Y77.671 E1.78839
G1 X88.693 Y77.194 E1.79653
G1 X89.033 Y76.474 E1.80977
G1 X89.516 Y75.802 E1.82353
G1 X90.102 Y75.305 E1.83631
G1 X90.818 Y74.888 E1.85009
G1 X91.581 Y74.668 E1.8633
G1 X92.4 Y74.587 E1.87698
G1 X92.5 Y74.597 E1.87865
G1 X92.5 Y73 E1.90521
G1 X92.54 Y72.512 E1.91336
G1 X92.659 Y72.037 E1.9215
G1 X92.853 Y71.588 E1.92963
G1 X93.118 Y71.176 E1.93778
M205 X30 Y30
G0 F3600 X93.515 Y71.321
M205 X15 Y15
G1 F1500 X93.838 Y71 E1.94535
G1 X94.213 Y70.741 E1.95293
G1 X94.627 Y70.551 E1.96051
G1 X95.068 Y70.436 E1.96809
G1 X95.5 Y70.4 E1.97529
G1 X125.5 Y70.4 E2.4742
G1 X126.394 Y70.558 E2.48929
G1 X126.806 Y70.752 E2.49687
G1 X127.179 Y71.015 E2.50446
G1 X127.5 Y71.338 E2.51203
G1 X127.759 Y71.713 E2.51961
G1 X127.949 Y72.127 E2.52718
G1 X128.064 Y72.568 E2.53476
G1 X128.1 Y73 E2.54197
G1 X128.1 Y77.94 E2.62413
G1 X128.05 Y78.448 E2.63261
G1 X127.855 Y79.222 E2.64589
G1 X127.564 Y79.765 E2.65613
G1 X127.09 Y80.374 E2.66897
G1 X126.585 Y80.767 E2.67961
G1 X126.176 Y80.999 E2.68743
G1 X126.854 Y81.418 E2.70068
G1 X127.301 Y81.879 E2.71136
G1 X127.746 Y82.537 E2.72457
G1 X127.969 Y83.165 E2.73565
G1 X128.1 Y84.047 E2.75048
G1 X128.1 Y89 E2.83285
G1 X128.06 Y89.454 E2.84043
G1 X127.942 Y89.894 E2.84801
G1 X127.748 Y90.306 E2.85558
G1 X127.485 Y90.679 E2.86317
G1 X127.162 Y91 E2.87074
G1 X126.787 Y91.259 E2.87832
G1 X126.373 Y91.449 E2.8859
G1 X125.932 Y91.564 E2.89348
G1 X125.5 Y91.6 E2.90069
G1 X95.5 Y91.6 E3.39959
G1 X95.046 Y91.56 E3.40717
G1 X94.606 Y91.442 E3.41474
G1 X94.194 Y91.248 E3.42232
G1 X93.821 Y90.985 E3.42991
G1 X93.5 Y90.662 E3.43748
G1 X93.241 Y90.287 E3.44506
G1 X93.051 Y89.873 E3.45263
G1 X92.936 Y89.432 E3.46021
G1 X92.9 Y89 E3.46742
G1 X92.9 Y86.948 E3.50155
G1 X92.714 Y86.989 E3.50471
G1 X92.044 Y86.991 E3.51586
G1 X91.266 Y86.853 E3.529
G1 X90.683 Y86.589 E3.53964
G1 X90.023 Y86.139 E3.55292
G1 X89.594 Y85.651 E3.56373
G1 X89.188 Y84.983 E3.57673
G1 X89.011 Y84.427 E3.58643
G1 X88.9 Y83.613 E3.60009
G1 X88.9 Y78.454 E3.68589
G1 X88.978 Y77.729 E3.69802
G1 X89.083 Y77.286 E3.70559
G1 X89.369 Y76.691 E3.71657
G1 X89.833 Y76.048 E3.72975
G1 X90.319 Y75.64 E3.7403
G1 X91.007 Y75.242 E3.75352
G1 X91.639 Y75.064 E3.76444
G1 X92.425 Y74.988 E3.77757
G1 X92.9 Y75.06 E3.78556
G1 X92.9 Y73 E3.81982
G1 X92.94 Y72.546 E3.8274
G1 X93.058 Y72.106 E3.83498
G1 X93.252 Y71.694 E3.84255
G1 X93.515 Y71.321 E3.85014
M205 X30 Y30
G0 F3600 X93.651 Y71.809
M205 X15 Y15
G1 F1500 X93.91 Y71.48 E3.8571
G1 X94.227 Y71.206 E3.86407
G1 X94.59 Y70.997 E3.87104
G1 X94.987 Y70.861 E3.87802
G1 X95.5 Y70.8 E3.88661
G1 X125.5 Y70.8 E4.38551
G1 X126.319 Y70.958 E4.39938
G1 X126.691 Y71.151 E4.40635
G1 X127.02 Y71.41 E4.41331
G1 X127.294 Y71.727 E4.42028
G1 X127.503 Y72.09 E4.42725
G1 X127.639 Y72.487 E4.43423
G1 X127.7 Y73 E4.44282
G1 X127.7 Y77.94 E4.52497
G1 X127.591 Y78.706 E4.53784
G1 X127.47 Y79.108 E4.54482
G1 X127.055 Y79.795 E4.55817
G1 X126.784 Y80.114 E4.56513
G1 X126.38 Y80.424 E4.57359
G1 X125.704 Y80.781 E4.58631
G1 X125.204 Y80.899 E4.59485
G1 X124.453 Y80.945 E4.60736
G1 X123.948 Y80.845 E4.61593
G1 X123.3 Y80.597 E4.62746
G1 X123.3 Y81.403 E4.64087
G1 X123.85 Y81.181 E4.65073
G1 X124.256 Y81.078 E4.6577
G1 X125.073 Y81.081 E4.67128
G1 X125.486 Y81.15 E4.67825
G1 X125.979 Y81.348 E4.68708
G1 X126.63 Y81.751 E4.69981
G1 X126.982 Y82.12 E4.7083
G1 X127.405 Y82.748 E4.72089
G1 X127.578 Y83.249 E4.7297
G1 X127.7 Y84.047 E4.74313
G1 X127.7 Y89 E4.8255
G1 X127.66 Y89.417 E4.83246
G1 X127.542 Y89.819 E4.83943
G1 X127.349 Y90.191 E4.8464
G1 X127.09 Y90.52 E4.85336
G1 X126.773 Y90.794 E4.86033
G1 X126.41 Y91.003 E4.8673
G1 X126.013 Y91.139 E4.87427
G1 X125.5 Y91.2 E4.88287
G1 X95.5 Y91.2 E5.38177
G1 X95.083 Y91.16 E5.38873
G1 X94.681 Y91.042 E5.3957
G1 X94.309 Y90.849 E5.40267
G1 X93.98 Y90.59 E5.40963
G1 X93.706 Y90.273 E5.4166
G1 X93.497 Y89.91 E5.42357
G1 X93.361 Y89.513 E5.43055
G1 X93.3 Y89 E5.43914
G1 X93.3 Y86.424 E5.48198
G1 X92.627 Y86.597 E5.49353
G1 X92.094 Y86.595 E5.5024
G1 X91.353 Y86.461 E5.51492
G1 X90.891 Y86.247 E5.52339
G1 X90.263 Y85.817 E5.53604
G1 X89.925 Y85.427 E5.54463
G1 X89.54 Y84.788 E5.55703
G1 X89.342 Y84.042 E5.56987
G1 X89.3 Y83.613 E5.57704
G1 X89.3 Y78.454 E5.66283
G1 X89.374 Y77.787 E5.67399
G1 X89.474 Y77.38 E5.68096
G1 X89.705 Y76.909 E5.68969
G1 X90.149 Y76.296 E5.70227
G1 X90.537 Y75.976 E5.71064
G1 X91.194 Y75.597 E5.72325
G1 X91.698 Y75.46 E5.73194
G1 X92.447 Y75.389 E5.74445
G1 X92.944 Y75.468 E5.75282
G1 X93.3 Y75.572 E5.75899
G1 X93.3 Y73 E5.80176
G1 X93.34 Y72.583 E5.80872
G1 X93.458 Y72.181 E5.81569
G1 X93.651 Y71.809 E5.82266
M205 X30 Y30
G0 F3600 X94.048 Y71.936
M205 X15 Y15
G1 F1500 X94.303 Y71.655 E5.82897
G1 X94.612 Y71.435 E5.83528
G1 X94.959 Y71.283 E5.84158
G1 X95.5 Y71.2 E5.85068
G1 X125.5 Y71.2 E6.34958
G1 X126.237 Y71.358 E6.36212
G1 X126.564 Y71.548 E6.36841
G1 X126.845 Y71.803 E6.37472
G1 X127.065 Y72.112 E6.38103
G1 X127.217 Y72.459 E6.38733
G1 X127.3 Y73 E6.39643
G1 X127.3 Y77.94 E6.47858
G1 X127.198 Y78.628 E6.49015
G1 X127.085 Y78.99 E6.49645
G1 X126.727 Y79.566 E6.50773
G1 X126.479 Y79.852 E6.51403
G1 X125.877 Y80.258 E6.5261
G1 X125.533 Y80.417 E6.53241
G1 X124.827 Y80.539 E6.54432
G1 X124.448 Y80.543 E6.55062
G1 X123.747 Y80.36 E6.56267
G1 X122.9 Y79.918 E6.57856
G1 X122.9 Y82.08 E6.61451
G1 X123.398 Y81.796 E6.62405
G1 X123.984 Y81.558 E6.63457
G1 X124.353 Y81.469 E6.64088
G1 X125.045 Y81.48 E6.65239
G1 X125.418 Y81.546 E6.65869
G1 X126.091 Y81.865 E6.67107
G1 X126.402 Y82.082 E6.67738
G1 X126.866 Y82.631 E6.68933
G1 X127.061 Y82.957 E6.69565
G1 X127.259 Y83.667 E6.70791
G1 X127.3 Y84.047 E6.71426
G1 X127.3 Y89 E6.79663
G1 X127.26 Y89.377 E6.80294
G1 X127.142 Y89.737 E6.80924
G1 X126.952 Y90.064 E6.81553
G1 X126.697 Y90.345 E6.82184
G1 X126.388 Y90.565 E6.82815
G1 X126.041 Y90.717 E6.83445
G1 X125.5 Y90.8 E6.84355
G1 X95.5 Y90.8 E7.34245
G1 X95.123 Y90.76 E7.34876
G1 X94.763 Y90.642 E7.35506
G1 X94.436 Y90.452 E7.36134
G1 X94.155 Y90.197 E7.36766
G1 X93.935 Y89.888 E7.37396
G1 X93.783 Y89.541 E7.38026
G1 X93.7 Y89 E7.38937
G1 X93.7 Y85.808 E7.44245
G1 X93.246 Y86.022 E7.4508
G1 X92.545 Y86.204 E7.46284
G1 X91.812 Y86.156 E7.47506
G1 X91.443 Y86.069 E7.48136
G1 X90.807 Y85.727 E7.49337
G1 X90.506 Y85.497 E7.49967
G1 X90.072 Y84.931 E7.51153
G1 X89.893 Y84.597 E7.51783
G1 X89.735 Y83.964 E7.52868
G1 X89.7 Y83.613 E7.53455
G1 X89.7 Y78.454 E7.62034
G1 X89.77 Y77.845 E7.63054
G1 X89.864 Y77.478 E7.63684
G1 X90.224 Y76.842 E7.64899
G1 X90.463 Y76.548 E7.65529
G1 X91.04 Y76.126 E7.66718
G1 X91.378 Y75.954 E7.67349
G1 X92.087 Y75.806 E7.68553
G1 X92.466 Y75.791 E7.69184
G1 X93.161 Y75.945 E7.70368
G1 X93.7 Y76.191 E7.71353
G1 X93.7 Y73 E7.7666
G1 X93.74 Y72.623 E7.7729
G1 X93.858 Y72.263 E7.7792
G1 X94.048 Y71.936 E7.78549
M205 X30 Y30
G0 F3600 X94.445 Y72.079
M205 X15 Y15
G1 F1500 X94.693 Y71.856 E7.79104
G1 X94.987 Y71.697 E7.7966
G1 X95.5 Y71.6 E7.80528
G1 X125.5 Y71.6 E8.30418
G1 X126.144 Y71.757 E8.3152
G1 X126.421 Y71.945 E8.32077
G1 X126.644 Y72.193 E8.32632
G1 X126.803 Y72.487 E8.33188
G1 X126.9 Y73 E8.34056
G1 X126.9 Y77.94 E8.42271
G1 X126.806 Y78.55 E8.43298
G1 X126.702 Y78.867 E8.43852
G1 X126.4 Y79.337 E8.44781
G1 X126.177 Y79.586 E8.45337
G1 X125.672 Y79.915 E8.4634
G1 X125.367 Y80.051 E8.46895
G1 X124.781 Y80.142 E8.47881
G1 X124.447 Y80.14 E8.48437
G1 X123.87 Y79.98 E8.49432
G1 X123.599 Y79.86 E8.49925
G1 X122.5 Y79.226 E8.52035
G1 X122.5 Y82.769 E8.57927
G1 X123.596 Y82.144 E8.60025
G1 X124.119 Y81.934 E8.60963
G1 X124.444 Y81.86 E8.61517
G1 X125.017 Y81.879 E8.6247
G1 X125.345 Y81.942 E8.63026
G1 X125.898 Y82.216 E8.64052
G1 X126.17 Y82.411 E8.64609
G1 X126.547 Y82.872 E8.65599
G1 X126.714 Y83.161 E8.66154
G1 X126.868 Y83.751 E8.67168
G1 X126.9 Y84.047 E8.67663
G1 X126.9 Y89 E8.759
G1 X126.86 Y89.332 E8.76456
G1 X126.743 Y89.644 E8.7701
G1 X126.555 Y89.921 E8.77567
G1 X126.307 Y90.144 E8.78122
G1 X126.013 Y90.303 E8.78678
G1 X125.5 Y90.4 E8.79546
G1 X95.5 Y90.4 E9.29436
G1 X95.168 Y90.36 E9.29992
G1 X94.856 Y90.243 E9.30546
G1 X94.579 Y90.055 E9.31103
G1 X94.356 Y89.807 E9.31658
G1 X94.197 Y89.513 E9.32214
G1 X94.1 Y89 E9.33082
G1 X94.1 Y85.115 E9.39543
G1 X93.4 Y85.519 E9.40887
G1 X92.794 Y85.746 E9.41963
G1 X92.466 Y85.809 E9.42518
G1 X91.862 Y85.759 E9.43526
G1 X91.538 Y85.678 E9.44082
G1 X91.015 Y85.386 E9.45078
G1 X90.753 Y85.179 E9.45633
G1 X90.403 Y84.706 E9.46612
G1 X90.249 Y84.41 E9.47166
G1 X90.127 Y83.886 E9.48061
G1 X90.1 Y83.613 E9.48517
G1 X90.1 Y78.454 E9.57097
G1 X90.166 Y77.903 E9.5802
G1 X90.253 Y77.58 E9.58576
G1 X90.56 Y77.06 E9.5958
G1 X90.774 Y76.803 E9.60136
G1 X91.258 Y76.462 E9.61121
G1 X91.558 Y76.315 E9.61677
G1 X92.146 Y76.202 E9.62672
G1 X92.48 Y76.193 E9.63228
G1 X93.053 Y76.33 E9.64208
G1 X93.376 Y76.466 E9.64791
G1 X94.1 Y76.884 E9.66181
G1 X94.1 Y73 E9.7264
G1 X94.14 Y72.668 E9.73196
G1 X94.257 Y72.356 E9.7375
G1 X94.445 Y72.079 E9.74307
M205 X30 Y30
G0 F3600 X94.656 Y72.464
M205 X15 Y15
G1 F1500 X94.839 Y72.249 E9.74776
G1 X95.075 Y72.095 E9.75245
G1 X95.5 Y72 E9.75969
G1 X125.5 Y72 E10.25859
G1 X126.036 Y72.156 E10.26788
G1 X126.251 Y72.339 E10.27257
G1 X126.405 Y72.575 E10.27726
G1 X126.5 Y73 E10.2845
G1 X126.5 Y77.94 E10.36665
G1 X126.414 Y78.472 E10.37562
G1 X126.253 Y78.849 E10.38243
G1 X126.072 Y79.108 E10.38769
G1 X125.765 Y79.394 E10.39467
G1 X125.467 Y79.572 E10.40044
G1 X125.068 Y79.707 E10.40744
G1 X124.454 Y79.737 E10.41767
G1 X123.799 Y79.513 E10.42918
G1 X122.1 Y78.533 E10.4618
G1 X122.1 Y83.456 E10.54367
G1 X123.794 Y82.491 E10.57609
G1 X124.253 Y82.311 E10.58429
G1 X124.658 Y82.255 E10.59109
G1 X125.265 Y82.337 E10.60127
G1 X125.705 Y82.567 E10.60953
G1 X126.023 Y82.842 E10.61652
G1 X126.363 Y83.36 E10.62683
G1 X126.5 Y84.047 E10.63848
G1 X126.5 Y89 E10.72084
G1 X126.46 Y89.279 E10.72553
G1 X126.344 Y89.536 E10.73022
G1 X126.161 Y89.751 E10.73492
G1 X125.925 Y89.905 E10.7396
G1 X125.5 Y90 E10.74684
G1 X95.5 Y90 E11.24575
G1 X95.221 Y89.96 E11.25043
G1 X94.964 Y89.844 E11.25512
G1 X94.749 Y89.661 E11.25982
G1 X94.595 Y89.425 E11.2645
G1 X94.5 Y89 E11.27175
G1 X94.5 Y84.422 E11.34788
G1 X93.2 Y85.173 E11.37285
G1 X92.673 Y85.365 E11.38217
G1 X92.244 Y85.404 E11.38934
G1 X91.912 Y85.362 E11.3949
G1 X91.517 Y85.223 E11.40187
G1 X91.006 Y84.865 E11.41224
G1 X90.734 Y84.482 E11.42005
G1 X90.58 Y84.115 E11.42667
G1 X90.5 Y83.613 E11.43513
G1 X90.5 Y78.454 E11.52092
G1 X90.562 Y77.96 E11.5292
G1 X90.712 Y77.561 E11.53629
G1 X90.896 Y77.277 E11.54192
G1 X91.191 Y76.982 E11.54886
G1 X91.731 Y76.679 E11.55915
G1 X92.205 Y76.598 E11.56715
G1 X92.621 Y76.624 E11.57408
G1 X93.176 Y76.812 E11.58383
G1 X94.5 Y77.577 E11.60926
G1 X94.5 Y73 E11.68537
G1 X94.54 Y72.721 E11.69006
G1 X94.656 Y72.464 E11.69475
M205 X30 Y30
G0 F3600 X95.053 Y72.599
M205 X15 Y15
G1 F1500 X95.226 Y72.466 E11.69838
G1 X95.5 Y72.4 E11.70306
G1 X125.5 Y72.4 E12.20197
G1 X125.901 Y72.553 E12.2091
G1 X126.034 Y72.726 E12.21273
G1 X126.1 Y73 E12.21742
G1 X126.1 Y77.94 E12.29957
G1 X126.021 Y78.393 E12.30722
G1 X125.925 Y78.62 E12.31132
G1 X125.744 Y78.879 E12.31657
G1 X125.56 Y79.05 E12.32075
G1 X125.262 Y79.228 E12.32652
G1 X125.022 Y79.309 E12.33073
G1 X124.69 Y79.347 E12.33629
G1 X124.438 Y79.322 E12.3405
G1 X123.999 Y79.167 E12.34825
G1 X121.7 Y77.84 E12.39239
G1 X121.7 Y84.145 E12.49724
G1 X123.992 Y82.839 E12.54111
G1 X124.387 Y82.688 E12.54814
G1 X124.631 Y82.654 E12.55224
G1 X124.962 Y82.677 E12.55776
G1 X125.209 Y82.75 E12.56204
G1 X125.513 Y82.917 E12.56781
G1 X125.703 Y83.082 E12.572
G1 X125.907 Y83.353 E12.57764
G1 X126.014 Y83.587 E12.58192
G1 X126.1 Y84.047 E12.5897
G1 X126.1 Y89 E12.67207
G1 X126.06 Y89.215 E12.6757
G1 X125.947 Y89.401 E12.67932
G1 X125.774 Y89.534 E12.68295
G1 X125.5 Y89.6 E12.68764
G1 X95.5 Y89.6 E13.18654
G1 X95.285 Y89.56 E13.19018
G1 X95.099 Y89.447 E13.1938
G1 X94.966 Y89.274 E13.19743
G1 X94.9 Y89 E13.20211
G1 X94.9 Y83.73 E13.28975
G1 X93 Y84.827 E13.32624
G1 X92.552 Y84.984 E13.33413
G1 X92.295 Y85.007 E13.33842
G1 X91.963 Y84.965 E13.34399
G1 X91.725 Y84.882 E13.34818
G1 X91.432 Y84.703 E13.35389
G1 X91.249 Y84.528 E13.3581
G1 X91.065 Y84.257 E13.36355
G1 X90.973 Y84.037 E13.36751
G1 X90.9 Y83.613 E13.37467
G1 X90.9 Y78.454 E13.46046
G1 X90.957 Y78.018 E13.46778
G1 X91.047 Y77.779 E13.47202
G1 X91.231 Y77.495 E13.47765
G1 X91.408 Y77.318 E13.48181
G1 X91.693 Y77.133 E13.48746
G1 X91.932 Y77.042 E13.49172
G1 X92.263 Y76.993 E13.49728
G1 X92.513 Y77.009 E13.50145
G1 X92.976 Y77.158 E13.50954
G1 X94.9 Y78.269 E13.54648
G1 X94.9 Y73 E13.63411
G1 X94.94 Y72.785 E13.63774
G1 X95.053 Y72.599 E13.64136
M205 X30 Y30
G0 F3600 X95.339 Y72.881
M205 X15 Y15
G1 F1500 X95.5 Y72.8 E13.64436
G1 X125.5 Y72.8 E14.14326
G1 X125.619 Y72.839 E14.14535
G1 X125.7 Y73 E14.14834
G1 X125.7 Y77.94 E14.2305
G1 X125.597 Y78.391 E14.23819
G1 X125.355 Y78.707 E14.24481
G1 X124.977 Y78.912 E14.25196
G1 X124.561 Y78.941 E14.25889
G1 X124.199 Y78.82 E14.26524
G1 X121.651 Y77.35 E14.31416
G1 X121.512 Y77.302 E14.31661
G1 X121.399 Y77.33 E14.31854
G1 X121.326 Y77.411 E14.32036
G1 X121.3 Y77.597 E14.32348
G1 X121.3 Y84.49 E14.43811
G1 X121.344 Y84.617 E14.44035
G1 X121.428 Y84.684 E14.44213
G1 X121.547 Y84.692 E14.44412
G1 X124.19 Y83.186 E14.4947
G1 X124.603 Y83.053 E14.50192
G1 X125.016 Y83.101 E14.50883
G1 X125.384 Y83.323 E14.51598
G1 X125.623 Y83.672 E14.52301
G1 X125.7 Y84.047 E14.52938
G1 X125.7 Y89 E14.61175
G1 X125.661 Y89.119 E14.61383
G1 X125.5 Y89.2 E14.61683
