;FLAVOR:Marlin
;TIME:5000
;Filament used: 3.36632m
;Layer height: 0.15
;MINX:15.703
;MINY:61.035
;MINZ:0.1
;MAXX:193.303
;MAXY:168.635
;MAXZ:4
;Generated with Cura_SteamEngine 4.5.0
M140 S69
M105
M190 S69
M82 ;absolute extrusion mode
;Gcode by Cura
G90
M106 S255
G28 X Y
M109 R195
G28
M104 S195
G29
M107
G1 X100 Y10 F3000
G1 Z0.5
M109 S195
M82
G92 E0
G1 F200 E10
G92 E0
G1 Z3
G1 X120 Y10
G1 Z0.5
G92 E0
G1 F200 E10
G92 E0
G1 Z3
G1 F6000
G92 E0
G92 E0
G1 F1200 E-3.5
;LAYER_COUNT:27
;LAYER:0
M106 S255
M205 X30 Y30
G1 F120 Z1.1
G0 F3600 X20.687 Y61.288 Z1.1
M205 X15 Y15
;TYPE:SKIRT
G1 F120 Z0.1
G1 F1200 E0
G1 F1500 X21.735 Y61.084 E0.02042
G1 X22.504 Y61.035 E0.03516
G1 X186.502 Y61.035 E3.17155
G1 X187.099 Y61.082 E3.183
G1 X188.029 Y61.23 E3.20101
G1 X188.566 Y61.356 E3.21156
G1 X189.312 Y61.648 E3.22688
G1 X189.851 Y61.922 E3.23844
G1 X190.734 Y62.518 E3.25882
G1 X191.51 Y63.243 E3.27913
G1 X192.169 Y64.085 E3.29958
G1 X192.687 Y65.019 E3.32
G1 X193.051 Y66.02 E3.34037
G1 X193.254 Y67.066 E3.36075
G1 X193.303 Y67.834 E3.37547
G1 X193.303 Y161.834 E5.17318
G1 X193.254 Y162.603 E5.18791
G1 X193.161 Y163.193 E5.19934
G1 X192.869 Y164.21 E5.21957
G1 X192.418 Y165.179 E5.24001
G1 X191.82 Y166.067 E5.26049
G1 X191.09 Y166.848 E5.28093
G1 X190.257 Y167.499 E5.30115
G1 X189.316 Y168.02 E5.32172
G1 X188.319 Y168.382 E5.34201
G1 X187.271 Y168.586 E5.36242
G1 X186.502 Y168.635 E5.37716
G1 X22.504 Y168.635 E8.51355
G1 X21.735 Y168.586 E8.52829
G1 X21.144 Y168.492 E8.53974
G1 X20.126 Y168.2 E8.55999
G1 X19.149 Y167.745 E8.5806
G1 X18.275 Y167.154 E8.60078
G1 X17.492 Y166.425 E8.62124
G1 X16.834 Y165.581 E8.64171
G1 X16.317 Y164.646 E8.66214
G1 X15.954 Y163.647 E8.68247
G1 X15.752 Y162.604 E8.70278
G1 X15.703 Y161.836 E8.7175
G1 X15.703 Y67.836 E10.51521
G1 X15.752 Y67.067 E10.52995
G1 X15.845 Y66.48 E10.54131
G1 X16.137 Y65.46 E10.5616
G1 X16.59 Y64.487 E10.58213
G1 X17.186 Y63.604 E10.6025
G1 X17.911 Y62.828 E10.62281
G1 X18.753 Y62.169 E10.64326
G1 X19.69 Y61.65 E10.66375
G1 X20.687 Y61.288 E10.68403
M205 X30 Y30
G0 F3600 X20.78 Y61.676
M205 X15 Y15
G1 F1500 X21.767 Y61.482 E10.70327
G1 X22.504 Y61.435 E10.71739
G1 X186.502 Y61.435 E13.85379
G1 X187.036 Y61.477 E13.86403
G1 X187.966 Y61.625 E13.88204
G1 X188.473 Y61.746 E13.89201
G1 X189.159 Y62.017 E13.90611
G1 X189.642 Y62.263 E13.91648
G1 X190.474 Y62.822 E13.93565
G1 X191.206 Y63.503 E13.95477
G1 X191.828 Y64.294 E13.97402
G1 X192.318 Y65.172 E13.99324
G1 X192.662 Y66.113 E14.01241
G1 X192.855 Y67.098 E14.0316
G1 X192.903 Y67.834 E14.04571
G1 X192.903 Y161.834 E15.84342
G1 X192.856 Y162.572 E15.85756
G1 X192.772 Y163.1 E15.86778
G1 X192.5 Y164.057 E15.88681
G1 X192.077 Y164.971 E15.90607
G1 X191.516 Y165.807 E15.92533
G1 X190.831 Y166.544 E15.94457
G1 X190.047 Y167.158 E15.96361
G1 X189.163 Y167.651 E15.98297
G1 X188.226 Y167.994 E16.00205
G1 X187.239 Y168.188 E16.02129
G1 X186.502 Y168.235 E16.03542
G1 X22.504 Y168.235 E19.17181
G1 X21.767 Y168.188 E19.18593
G1 X21.237 Y168.104 E19.19619
G1 X20.279 Y167.831 E19.21524
G1 X19.359 Y167.404 E19.23464
G1 X18.534 Y166.85 E19.25365
G1 X17.796 Y166.165 E19.2729
G1 X17.175 Y165.373 E19.29215
G1 X16.686 Y164.493 E19.3114
G1 X16.343 Y163.554 E19.33052
G1 X16.15 Y162.573 E19.34964
G1 X16.103 Y161.836 E19.36377
G1 X16.103 Y67.836 E21.16148
G1 X16.15 Y67.099 E21.1756
G1 X16.234 Y66.573 E21.18579
G1 X16.506 Y65.613 E21.20487
G1 X16.931 Y64.696 E21.2242
G1 X17.49 Y63.864 E21.24337
G1 X18.171 Y63.132 E21.26249
G1 X18.962 Y62.51 E21.28173
G1 X19.843 Y62.019 E21.30102
G1 X20.78 Y61.676 E21.32011
M205 X30 Y30
G0 F3600 X21.331 Y61.955
M205 X15 Y15
G1 F1500 X22.269 Y61.844 E21.33817
G1 X186.502 Y61.835 E24.47906
G1 X187.903 Y62.02 E24.50608
G1 X188.575 Y62.209 E24.51943
G1 X189.433 Y62.604 E24.5375
G1 X190.214 Y63.127 E24.55547
G1 X190.903 Y63.763 E24.57341
G1 X191.488 Y64.503 E24.59145
G1 X191.948 Y65.325 E24.60946
G1 X192.273 Y66.206 E24.62742
G1 X192.457 Y67.129 E24.64542
G1 X192.503 Y67.834 E24.65893
G1 X192.503 Y161.834 E26.45664
G1 X192.457 Y162.54 E26.47017
G1 X192.274 Y163.46 E26.48811
G1 X191.95 Y164.341 E26.50606
G1 X191.49 Y165.164 E26.52409
G1 X190.905 Y165.905 E26.54215
G1 X190.212 Y166.545 E26.56019
G1 X189.438 Y167.063 E26.578
G1 X188.575 Y167.461 E26.59618
G1 X187.675 Y167.715 E26.61406
G1 X186.737 Y167.826 E26.63212
G1 X22.504 Y167.835 E29.77301
G1 X21.798 Y167.789 E29.78654
G1 X20.874 Y167.605 E29.80456
G1 X19.995 Y167.281 E29.82248
G1 X19.168 Y166.817 E29.84061
G1 X18.435 Y166.239 E29.85846
G1 X17.795 Y165.547 E29.87649
G1 X17.27 Y164.762 E29.89455
G1 X16.876 Y163.905 E29.91259
G1 X16.623 Y163.006 E29.93045
G1 X16.512 Y162.071 E29.94846
G1 X16.503 Y67.836 E31.75066
G1 X16.549 Y67.13 E31.76419
G1 X16.732 Y66.211 E31.78211
G1 X17.056 Y65.329 E31.80008
G1 X17.518 Y64.504 E31.81817
G1 X18.101 Y63.766 E31.83615
G1 X18.791 Y63.127 E31.85414
G1 X19.57 Y62.605 E31.87207
G1 X20.431 Y62.209 E31.8902
G1 X21.331 Y61.955 E31.90808
M205 X30 Y30
G0 F3600 X21.425 Y62.344
M205 X15 Y15
G1 F1500 X22.3 Y62.243 E31.92493
G1 X186.502 Y62.235 E35.06522
G1 X187.841 Y62.415 E35.09106
G1 X188.423 Y62.579 E35.10262
G1 X189.224 Y62.945 E35.11946
G1 X189.954 Y63.431 E35.13624
G1 X190.599 Y64.023 E35.15298
G1 X191.147 Y64.713 E35.16983
G1 X191.578 Y65.478 E35.18662
G1 X191.884 Y66.3 E35.2034
G1 X192.058 Y67.161 E35.2202
G1 X192.103 Y67.834 E35.2331
G1 X192.103 Y161.834 E37.03081
G1 X192.058 Y162.509 E37.04374
G1 X191.885 Y163.367 E37.06048
G1 X191.58 Y164.188 E37.07723
G1 X191.149 Y164.955 E37.09406
G1 X190.601 Y165.645 E37.11091
G1 X189.953 Y166.241 E37.12775
G1 X189.228 Y166.723 E37.1444
G1 X188.422 Y167.091 E37.16134
G1 X187.581 Y167.326 E37.17804
G1 X186.706 Y167.427 E37.19489
G1 X22.504 Y167.435 E40.33518
G1 X21.829 Y167.39 E40.34812
G1 X20.968 Y167.216 E40.36492
G1 X20.148 Y166.911 E40.38165
G1 X19.378 Y166.477 E40.39855
G1 X18.694 Y165.935 E40.41525
G1 X18.099 Y165.287 E40.43207
G1 X17.611 Y164.553 E40.44893
G1 X17.246 Y163.752 E40.46576
G1 X17.012 Y162.913 E40.48242
G1 X16.911 Y162.04 E40.49923
G1 X16.903 Y67.836 E42.30084
G1 X16.948 Y67.161 E42.31378
G1 X17.121 Y66.304 E42.3305
G1 X17.426 Y65.482 E42.34726
G1 X17.859 Y64.713 E42.36414
G1 X18.405 Y64.026 E42.38092
G1 X19.051 Y63.431 E42.39772
G1 X19.78 Y62.946 E42.41447
G1 X20.584 Y62.579 E42.43137
G1 X21.425 Y62.344 E42.44807
M205 X30 Y30
G0 F3600 X20.736 Y62.948
M205 X15 Y15
G1 F1500 X21.518 Y62.733 E42.46358
G1 X22.332 Y62.642 E42.47924
G1 X186.502 Y62.635 E45.61892
G1 X187.778 Y62.81 E45.64356
G1 X188.27 Y62.949 E45.65333
G1 X189.014 Y63.286 E45.66895
G1 X189.694 Y63.735 E45.68454
G1 X190.295 Y64.283 E45.70009
G1 X190.806 Y64.922 E45.71574
G1 X191.209 Y65.631 E45.73134
G1 X191.495 Y66.393 E45.7469
G1 X191.659 Y67.192 E45.7625
G1 X191.703 Y67.834 E45.77481
G1 X191.703 Y161.834 E47.57252
G1 X191.659 Y162.478 E47.58486
G1 X191.496 Y163.274 E47.6004
G1 X191.211 Y164.036 E47.61596
G1 X190.808 Y164.746 E47.63157
G1 X190.297 Y165.385 E47.64722
G1 X189.693 Y165.936 E47.66286
G1 X189.018 Y166.382 E47.67833
G1 X188.27 Y166.722 E47.69404
G1 X187.488 Y166.937 E47.70955
G1 X186.674 Y167.028 E47.72522
G1 X22.504 Y167.035 E50.8649
G1 X21.861 Y166.991 E50.87723
G1 X21.061 Y166.827 E50.89284
G1 X20.3 Y166.542 E50.90839
G1 X19.588 Y166.136 E50.92406
G1 X18.954 Y165.63 E50.93957
G1 X18.403 Y165.027 E50.95519
G1 X17.952 Y164.344 E50.97085
G1 X17.615 Y163.6 E50.98647
G1 X17.401 Y162.82 E51.00194
G1 X17.31 Y162.009 E51.01754
G1 X17.303 Y67.836 E52.81856
G1 X17.347 Y67.193 E52.83089
G1 X17.51 Y66.397 E52.84643
G1 X17.795 Y65.634 E52.862
G1 X18.2 Y64.923 E52.87765
G1 X18.709 Y64.286 E52.89325
G1 X19.311 Y63.735 E52.90885
G1 X19.989 Y63.287 E52.9244
G1 X20.736 Y62.948 E52.94008
M205 X30 Y30
G0 F3600 X20.889 Y63.318
M205 X15 Y15
G1 F1500 X21.612 Y63.122 E52.95441
G1 X22.363 Y63.041 E52.96886
G1 X186.502 Y63.035 E56.10795
G1 X187.715 Y63.205 E56.13137
G1 X188.118 Y63.319 E56.13938
G1 X188.805 Y63.627 E56.15378
G1 X189.435 Y64.039 E56.16817
G1 X189.991 Y64.543 E56.18253
G1 X190.465 Y65.131 E56.19697
G1 X190.839 Y65.784 E56.21136
G1 X191.106 Y66.487 E56.22574
G1 X191.26 Y67.223 E56.24012
G1 X191.303 Y67.834 E56.25184
G1 X191.303 Y161.834 E58.04955
G1 X191.26 Y162.447 E58.0613
G1 X191.107 Y163.18 E58.07562
G1 X190.841 Y163.883 E58.09
G1 X190.466 Y164.538 E58.10443
G1 X189.993 Y165.126 E58.11886
G1 X189.434 Y165.632 E58.13328
G1 X188.809 Y166.041 E58.14757
G1 X188.117 Y166.352 E58.16208
G1 X187.394 Y166.548 E58.1764
G1 X186.643 Y166.629 E58.19085
G1 X22.504 Y166.635 E61.32994
G1 X21.892 Y166.592 E61.34167
G1 X21.155 Y166.438 E61.35607
G1 X20.453 Y166.172 E61.37043
G1 X19.797 Y165.795 E61.3849
G1 X19.213 Y165.326 E61.39922
G1 X18.707 Y164.768 E61.41363
G1 X18.294 Y164.136 E61.42807
G1 X17.985 Y163.447 E61.44251
G1 X17.79 Y162.726 E61.45679
G1 X17.709 Y161.977 E61.4712
G1 X17.703 Y67.836 E63.27161
G1 X17.746 Y67.224 E63.28334
G1 X17.899 Y66.491 E63.29766
G1 X18.165 Y65.787 E63.31205
G1 X18.541 Y65.132 E63.3265
G1 X19.013 Y64.545 E63.3409
G1 X19.571 Y64.039 E63.35531
G1 X20.198 Y63.628 E63.36964
G1 X20.889 Y63.318 E63.38413
M205 X30 Y30
G0 F3600 X21.042 Y63.688
M205 X15 Y15
G1 F1500 X21.705 Y63.511 E63.39725
G1 X22.394 Y63.439 E63.4105
G1 X186.502 Y63.435 E66.549
G1 X187.652 Y63.6 E66.57122
G1 X188.397 Y63.867 E66.58635
G1 X188.997 Y64.214 E66.59961
G1 X189.533 Y64.649 E66.61281
G1 X189.995 Y65.163 E66.62602
G1 X190.369 Y65.739 E66.63916
G1 X190.65 Y66.372 E66.6524
G1 X190.827 Y67.038 E66.66558
G1 X190.899 Y67.724 E66.67877
G1 X190.903 Y161.834 E68.47859
G1 X190.862 Y162.415 E68.48973
G1 X190.718 Y163.087 E68.50287
G1 X190.471 Y163.73 E68.51604
G1 X190.125 Y164.329 E68.52927
G1 X189.689 Y164.866 E68.5425
G1 X189.174 Y165.327 E68.55572
G1 X188.599 Y165.701 E68.56884
G1 X187.964 Y165.982 E68.58212
G1 X187.301 Y166.159 E68.59524
G1 X186.612 Y166.231 E68.60849
G1 X22.504 Y166.235 E71.74699
G1 X21.923 Y166.194 E71.75813
G1 X21.248 Y166.049 E71.77133
G1 X20.606 Y165.802 E71.78449
G1 X20.007 Y165.455 E71.79772
G1 X19.473 Y165.021 E71.81088
G1 X19.011 Y164.508 E71.82409
G1 X18.635 Y163.927 E71.83732
G1 X18.355 Y163.294 E71.85056
G1 X18.179 Y162.633 E71.86364
G1 X18.107 Y161.946 E71.87685
G1 X18.103 Y67.836 E73.67667
G1 X18.144 Y67.255 E73.68781
G1 X18.288 Y66.584 E73.70093
G1 X18.535 Y65.94 E73.71412
G1 X18.882 Y65.341 E73.72736
G1 X19.317 Y64.805 E73.74056
G1 X19.831 Y64.343 E73.75378
G1 X20.407 Y63.969 E73.76691
G1 X21.042 Y63.688 E73.78019
M205 X30 Y30
G0 F3600 X21.194 Y64.058
M205 X15 Y15
G1 F1500 X21.799 Y63.9 E73.79215
G1 X22.426 Y63.838 E73.8042
G1 X186.502 Y63.835 E76.94209
G1 X187.589 Y63.995 E76.9631
G1 X188.245 Y64.236 E76.97646
G1 X188.788 Y64.555 E76.98851
G1 X189.273 Y64.953 E77.00051
G1 X189.691 Y65.423 E77.01254
G1 X190.028 Y65.949 E77.02448
G1 X190.28 Y66.525 E77.03651
G1 X190.438 Y67.131 E77.04848
G1 X190.5 Y67.755 E77.06048
G1 X190.503 Y161.834 E78.8597
G1 X190.463 Y162.384 E78.87024
G1 X190.329 Y162.993 E78.88217
G1 X190.101 Y163.578 E78.89418
G1 X189.784 Y164.12 E78.90619
G1 X189.385 Y164.606 E78.91821
G1 X188.915 Y165.023 E78.93023
G1 X188.39 Y165.36 E78.94216
G1 X187.812 Y165.612 E78.95422
G1 X187.207 Y165.77 E78.96618
G1 X186.58 Y165.832 E78.97823
G1 X22.504 Y165.835 E82.11611
G1 X21.955 Y165.795 E82.12664
G1 X21.342 Y165.66 E82.13864
G1 X20.758 Y165.432 E82.15063
G1 X20.216 Y165.114 E82.16265
G1 X19.732 Y164.717 E82.17462
G1 X19.315 Y164.248 E82.18662
G1 X18.976 Y163.718 E82.19865
G1 X18.725 Y163.142 E82.21067
G1 X18.568 Y162.539 E82.22259
G1 X18.506 Y161.914 E82.2346
G1 X18.503 Y67.836 E84.0338
G1 X18.543 Y67.287 E84.04433
G1 X18.677 Y66.677 E84.05627
G1 X18.905 Y66.092 E84.06828
G1 X19.223 Y65.55 E84.0803
G1 X19.621 Y65.065 E84.0923
G1 X20.091 Y64.647 E84.10433
G1 X20.617 Y64.31 E84.11627
G1 X21.194 Y64.058 E84.12831
M205 X30 Y30
G0 F3600 X21.347 Y64.427
M205 X15 Y15
G1 F1500 X21.893 Y64.289 E84.13908
G1 X22.457 Y64.237 E84.14992
G1 X186.502 Y64.235 E87.28721
G1 X187.526 Y64.39 E87.30701
G1 X188.093 Y64.606 E87.31862
G1 X188.579 Y64.896 E87.32944
G1 X189.013 Y65.257 E87.34024
G1 X189.387 Y65.683 E87.35108
G1 X189.687 Y66.158 E87.36182
G1 X189.91 Y66.678 E87.37264
G1 X190.049 Y67.225 E87.38344
G1 X190.101 Y67.787 E87.39423
G1 X190.103 Y161.834 E89.19284
G1 X190.064 Y162.353 E89.20279
G1 X189.94 Y162.9 E89.21352
G1 X189.732 Y163.425 E89.22432
G1 X189.443 Y163.911 E89.23513
G1 X189.081 Y164.346 E89.24596
G1 X188.655 Y164.719 E89.25679
G1 X188.18 Y165.019 E89.26753
G1 X187.659 Y165.243 E89.27838
G1 X187.113 Y165.381 E89.28915
G1 X186.549 Y165.433 E89.29998
G1 X22.504 Y165.435 E92.43727
G1 X21.986 Y165.396 E92.4472
G1 X21.436 Y165.271 E92.45799
G1 X20.911 Y165.063 E92.46879
G1 X20.426 Y164.773 E92.4796
G1 X19.992 Y164.413 E92.49038
G1 X19.619 Y163.988 E92.5012
G1 X19.317 Y163.509 E92.51203
G1 X19.094 Y162.989 E92.52285
G1 X18.957 Y162.446 E92.53356
G1 X18.905 Y161.883 E92.54437
G1 X18.903 Y67.836 E94.34298
G1 X18.942 Y67.318 E94.35291
G1 X19.066 Y66.77 E94.36366
G1 X19.274 Y66.245 E94.37446
G1 X19.564 Y65.759 E94.38528
G1 X19.925 Y65.325 E94.39608
G1 X20.351 Y64.951 E94.40692
G1 X20.826 Y64.651 E94.41766
G1 X21.347 Y64.427 E94.42851
M205 X30 Y30
G0 F3600 X21.529 Y64.788
M205 X15 Y15
G1 F1500 X22.017 Y64.673 E94.4381
G1 X22.504 Y64.635 E94.44744
G1 X186.502 Y64.635 E97.58383
G1 X187.463 Y64.785 E97.60243
G1 X187.94 Y64.976 E97.61226
G1 X188.37 Y65.237 E97.62188
G1 X188.753 Y65.561 E97.63147
G1 X189.083 Y65.943 E97.64113
G1 X189.361 Y66.396 E97.65129
G1 X189.55 Y66.86 E97.66087
G1 X189.665 Y67.349 E97.67048
G1 X189.703 Y67.834 E97.67979
G1 X189.703 Y161.834 E99.4775
G1 X189.66 Y162.353 E99.48746
G1 X189.542 Y162.836 E99.49696
G1 X189.348 Y163.3 E99.50658
G1 X189.083 Y163.728 E99.51621
G1 X188.755 Y164.108 E99.52581
G1 X188.371 Y164.432 E99.53542
G1 X187.942 Y164.693 E99.54502
G1 X187.477 Y164.882 E99.55462
G1 X186.989 Y164.997 E99.56421
G1 X186.502 Y165.035 E99.57355
G1 X22.504 Y165.035 E102.70994
G1 X21.986 Y164.992 E102.71988
G1 X21.5 Y164.873 E102.72945
G1 X21.035 Y164.678 E102.7391
G1 X20.61 Y164.414 E102.74867
G1 X20.229 Y164.086 E102.75828
G1 X19.904 Y163.702 E102.7679
G1 X19.644 Y163.272 E102.77751
G1 X19.455 Y162.807 E102.78711
G1 X19.341 Y162.322 E102.79664
G1 X19.303 Y161.836 E102.80596
G1 X19.303 Y67.836 E104.60367
G1 X19.346 Y67.318 E104.61361
G1 X19.464 Y66.834 E104.62314
G1 X19.659 Y66.369 E104.63278
G1 X19.923 Y65.943 E104.64237
G1 X20.251 Y65.563 E104.65197
G1 X20.636 Y65.237 E104.66162
G1 X21.064 Y64.977 E104.67119
G1 X21.529 Y64.788 E104.68079
M205 X30 Y30
G1 F1200 E101.18079
G1 F120 Z1.1
G0 F3600 X95.203 Y70.329 Z1.1
M205 X15 Y15
G1 F120 Z0.1
G1 F1200 E104.68079
G1 F1500 X95.203 Y70.56 E104.68521
G1 X113.392 Y70.573 E105.03307
G1 X113.803 Y70.573 E105.04093
G1 X113.803 Y65.473 E105.13846
G1 X112.416 Y65.473 E105.16499
G1 X112.717 Y65.605 E105.17127
G1 X113.013 Y65.88 E105.179
G1 X113.219 Y66.259 E105.18725
G1 X113.297 Y66.758 E105.19691
G1 X113.215 Y67.22 E105.20588
G1 X113.003 Y67.602 E105.21424
G1 X112.903 Y67.692 E105.21681
G1 X113.111 Y67.806 E105.22135
G1 X113.396 Y68.096 E105.22912
G1 X113.593 Y68.494 E105.23762
G1 X113.664 Y68.988 E105.24716
G1 X113.574 Y69.483 E105.25678
G1 X113.341 Y69.894 E105.26582
G1 X112.978 Y70.228 E105.27525
G1 X112.522 Y70.433 E105.28481
G1 X111.985 Y70.505 E105.29518
G1 X110.723 Y70.509 E105.31931
G1 X110.54 Y70.47 E105.32289
G1 X110.458 Y70.309 E105.32635
G1 X110.458 Y65.546 E105.41744
G1 X110.482 Y65.473 E105.41891
G1 X109.966 Y65.473 E105.42877
G1 X110.003 Y65.546 E105.43034
G1 X110.003 Y66.035 E105.43969
G1 X109.964 Y66.154 E105.44209
G1 X109.803 Y66.235 E105.44553
